(G-CODE GENERATED BY FLATCAM v8.994 - www.flatcam.org - Version Date: 2020/11/7)

(Name: PCB_PCB1_854475050_copperBottom.gbl_edit_1_iso_combined_cnc)
(Type: G-code from Geometry)
(Units: MM)

(Created on Monday, 01 March 2021 at 20:10)

(This preprocessor is the default preprocessor used by FlatCAM.)
(It is made to work with MACH3 compatible motion controllers.)

(TOOL DIAMETER: 0.2536 mm)
(Feedrate_XY: 100.0 mm/min)
(Feedrate_Z: 60.0 mm/min)
(Feedrate rapids 1500.0 mm/min)

(Z_Cut: -0.1 mm)
(Z_Move: 2.0 mm)
(Z Start: None mm)
(Z End: 5.0 mm)
(X,Y End: None mm)
(Steps per circle: 64)
(Preprocessor Geometry: default)

(X range:  -97.3060 ...   -1.2856  mm)
(Y range:    1.6880 ...   46.9078  mm)

(Spindle Speed: 0.0 RPM)
G21
G90
G94

G01 F100.00

M5
G00 Z15.0000
G00 X0.0000 Y0.0000
T1
M6    
(MSG, Change to Tool Dia = 0.2536)
M0
G00 Z15.0000

M03
G01 F100.00
G00 X-5.6377 Y12.5350
G01 F60.00
G01 Z-0.1000
G01 F100.00
G01 X-5.6324 Y12.4234
G01 X-5.6162 Y12.3140
G01 X-5.5894 Y12.2068
G01 X-5.5521 Y12.1026
G01 X-5.5049 Y12.0026
G01 X-5.4481 Y11.9078
G01 X-5.3823 Y11.8189
G01 X-5.3080 Y11.7370
G01 X-5.2261 Y11.6627
G01 X-5.1373 Y11.5968
G01 X-5.0425 Y11.5399
G01 X-4.9426 Y11.4926
G01 X-4.8385 Y11.4553
G01 X-4.7312 Y11.4284
G01 X-4.6219 Y11.4121
G01 X-4.5114 Y11.4066
G01 X-4.4010 Y11.4120
G01 X-4.2916 Y11.4282
G01 X-4.1843 Y11.4550
G01 X-4.0802 Y11.4922
G01 X-3.9802 Y11.5394
G01 X-3.8853 Y11.5963
G01 X-3.7965 Y11.6621
G01 X-3.7145 Y11.7363
G01 X-3.6402 Y11.8182
G01 X-3.5743 Y11.9070
G01 X-3.5174 Y12.0018
G01 X-3.4701 Y12.1018
G01 X-3.4328 Y12.2059
G01 X-3.4059 Y12.3131
G01 X-3.3896 Y12.4225
G01 X-3.3842 Y12.5329
G01 X-3.3895 Y12.6434
G01 X-3.4057 Y12.7528
G01 X-3.4325 Y12.8600
G01 X-3.4698 Y12.9642
G01 X-3.5170 Y13.0642
G01 X-3.5738 Y13.1590
G01 X-3.6396 Y13.2479
G01 X-3.7139 Y13.3298
G01 X-3.7958 Y13.4041
G01 X-3.8846 Y13.4700
G01 X-3.9794 Y13.5269
G01 X-4.0793 Y13.5742
G01 X-4.1834 Y13.6115
G01 X-4.2907 Y13.6384
G01 X-4.4000 Y13.6547
G01 X-4.5105 Y13.6602
G01 X-4.6209 Y13.6548
G01 X-4.7303 Y13.6386
G01 X-4.8376 Y13.6118
G01 X-4.9417 Y13.5746
G01 X-5.0417 Y13.5274
G01 X-5.1366 Y13.4705
G01 X-5.2254 Y13.4047
G01 X-5.3074 Y13.3305
G01 X-5.3817 Y13.2486
G01 X-5.4476 Y13.1598
G01 X-5.5045 Y13.0650
G01 X-5.5518 Y12.9650
G01 X-5.5891 Y12.8609
G01 X-5.6160 Y12.7537
G01 X-5.6323 Y12.6443
G01 X-5.6377 Y12.5350
G00 Z2.0000
G00 X-5.8660 Y12.5378
G01 F60.00
G01 Z-0.1000
G01 F100.00
G01 X-5.8656 Y12.5155
G01 X-5.8608 Y12.4184
G01 X-5.8595 Y12.4010
G01 X-5.8573 Y12.3828
G01 X-5.8430 Y12.2867
G01 X-5.8399 Y12.2686
G01 X-5.8360 Y12.2516
G01 X-5.8124 Y12.1573
G01 X-5.8075 Y12.1396
G01 X-5.8020 Y12.1231
G01 X-5.7693 Y12.0315
G01 X-5.7630 Y12.0153
G01 X-5.7556 Y11.9985
G01 X-5.7140 Y11.9106
G01 X-5.7062 Y11.8951
G01 X-5.6972 Y11.8791
G01 X-5.6426 Y11.7883
G01 X-5.6273 Y11.7660
G01 X-5.5694 Y11.6879
G01 X-5.5581 Y11.6734
G01 X-5.5467 Y11.6602
G01 X-5.4814 Y11.5882
G01 X-5.4688 Y11.5749
G01 X-5.4562 Y11.5629
G01 X-5.3841 Y11.4976
G01 X-5.3709 Y11.4862
G01 X-5.3565 Y11.4749
G01 X-5.2784 Y11.4170
G01 X-5.2641 Y11.4070
G01 X-5.2487 Y11.3972
G01 X-5.1577 Y11.3428
G01 X-5.1337 Y11.3303
G01 X-5.0459 Y11.2888
G01 X-5.0291 Y11.2813
G01 X-5.0128 Y11.2751
G01 X-4.9213 Y11.2423
G01 X-4.9039 Y11.2366
G01 X-4.8871 Y11.2319
G01 X-4.7928 Y11.2083
G01 X-4.7758 Y11.2045
G01 X-4.7577 Y11.2013
G01 X-4.6615 Y11.1871
G01 X-4.6433 Y11.1849
G01 X-4.6259 Y11.1836
G01 X-4.5201 Y11.1785
G01 X-4.4931 Y11.1788
G01 X-4.3960 Y11.1836
G01 X-4.3777 Y11.1849
G01 X-4.3604 Y11.1871
G01 X-4.2642 Y11.2013
G01 X-4.2461 Y11.2045
G01 X-4.2291 Y11.2083
G01 X-4.1348 Y11.2319
G01 X-4.1180 Y11.2366
G01 X-4.1006 Y11.2423
G01 X-4.0091 Y11.2751
G01 X-3.9920 Y11.2817
G01 X-3.9760 Y11.2888
G01 X-3.8803 Y11.3341
G01 X-3.8566 Y11.3472
G01 X-3.7732 Y11.3972
G01 X-3.7578 Y11.4070
G01 X-3.7435 Y11.4170
G01 X-3.6654 Y11.4749
G01 X-3.6517 Y11.4857
G01 X-3.6378 Y11.4976
G01 X-3.5657 Y11.5629
G01 X-3.5531 Y11.5749
G01 X-3.5405 Y11.5882
G01 X-3.4752 Y11.6602
G01 X-3.4578 Y11.6809
G01 X-3.3946 Y11.7660
G01 X-3.3840 Y11.7810
G01 X-3.3747 Y11.7957
G01 X-3.3203 Y11.8866
G01 X-3.3079 Y11.9106
G01 X-3.2663 Y11.9985
G01 X-3.2589 Y12.0153
G01 X-3.2526 Y12.0315
G01 X-3.2199 Y12.1231
G01 X-3.2141 Y12.1405
G01 X-3.2095 Y12.1573
G01 X-3.1839 Y12.2601
G01 X-3.1789 Y12.2867
G01 X-3.1646 Y12.3828
G01 X-3.1624 Y12.4010
G01 X-3.1611 Y12.4184
G01 X-3.1564 Y12.5155
G01 X-3.1559 Y12.5329
G01 X-3.1564 Y12.5513
G01 X-3.1611 Y12.6484
G01 X-3.1624 Y12.6658
G01 X-3.1646 Y12.6840
G01 X-3.1789 Y12.7801
G01 X-3.1820 Y12.7982
G01 X-3.1859 Y12.8152
G01 X-3.2095 Y12.9095
G01 X-3.2170 Y12.9355
G01 X-3.2526 Y13.0353
G01 X-3.2592 Y13.0524
G01 X-3.2663 Y13.0683
G01 X-3.3079 Y13.1562
G01 X-3.3157 Y13.1717
G01 X-3.3247 Y13.1877
G01 X-3.3747 Y13.2711
G01 X-3.3840 Y13.2858
G01 X-3.3946 Y13.3008
G01 X-3.4525 Y13.3789
G01 X-3.4638 Y13.3934
G01 X-3.4752 Y13.4066
G01 X-3.5464 Y13.4850
G01 X-3.5657 Y13.5039
G01 X-3.6378 Y13.5692
G01 X-3.6517 Y13.5811
G01 X-3.6654 Y13.5919
G01 X-3.7435 Y13.6498
G01 X-3.7658 Y13.6651
G01 X-3.8566 Y13.7196
G01 X-3.8803 Y13.7327
G01 X-3.9840 Y13.7817
G01 X-4.0009 Y13.7887
G01 X-4.0417 Y13.8034
G01 X-4.0009 Y13.8181
G01 X-3.9840 Y13.8251
G01 X-3.8882 Y13.8703
G01 X-3.8642 Y13.8828
G01 X-3.7732 Y13.9372
G01 X-3.7585 Y13.9465
G01 X-3.7435 Y13.9570
G01 X-3.6585 Y14.0202
G01 X-3.6378 Y14.0376
G01 X-3.5657 Y14.1029
G01 X-3.5531 Y14.1149
G01 X-3.5405 Y14.1282
G01 X-3.4752 Y14.2002
G01 X-3.4638 Y14.2134
G01 X-3.4525 Y14.2279
G01 X-3.3946 Y14.3060
G01 X-3.3793 Y14.3283
G01 X-3.3247 Y14.4191
G01 X-3.3157 Y14.4351
G01 X-3.3079 Y14.4506
G01 X-3.2663 Y14.5385
G01 X-3.2592 Y14.5544
G01 X-3.2526 Y14.5715
G01 X-3.2199 Y14.6631
G01 X-3.2144 Y14.6796
G01 X-3.2095 Y14.6973
G01 X-3.1859 Y14.7916
G01 X-3.1820 Y14.8086
G01 X-3.1789 Y14.8267
G01 X-3.1635 Y14.9315
G01 X-3.1611 Y14.9584
G01 X-3.1564 Y15.0555
G01 X-3.1559 Y15.0729
G01 X-3.1564 Y15.0913
G01 X-3.1617 Y15.1971
G01 X-3.1646 Y15.2240
G01 X-3.1789 Y15.3201
G01 X-3.1820 Y15.3382
G01 X-3.1859 Y15.3552
G01 X-3.2095 Y15.4495
G01 X-3.2144 Y15.4672
G01 X-3.2199 Y15.4837
G01 X-3.2526 Y15.5753
G01 X-3.2592 Y15.5924
G01 X-3.2663 Y15.6083
G01 X-3.3079 Y15.6962
G01 X-3.3157 Y15.7117
G01 X-3.3247 Y15.7277
G01 X-3.3747 Y15.8111
G01 X-3.3845 Y15.8266
G01 X-3.3946 Y15.8408
G01 X-3.4578 Y15.9259
G01 X-3.4752 Y15.9466
G01 X-3.5405 Y16.0186
G01 X-3.5525 Y16.0312
G01 X-3.5657 Y16.0439
G01 X-3.6378 Y16.1092
G01 X-3.6517 Y16.1211
G01 X-3.6654 Y16.1319
G01 X-3.7506 Y16.1949
G01 X-3.7732 Y16.2096
G01 X-3.8566 Y16.2596
G01 X-3.8803 Y16.2727
G01 X-3.9840 Y16.3217
G01 X-4.0009 Y16.3287
G01 X-4.0417 Y16.3434
G01 X-4.0009 Y16.3581
G01 X-3.9840 Y16.3651
G01 X-3.8882 Y16.4103
G01 X-3.8642 Y16.4228
G01 X-3.7732 Y16.4772
G01 X-3.7578 Y16.4870
G01 X-3.7435 Y16.4970
G01 X-3.6654 Y16.5549
G01 X-3.6443 Y16.5719
G01 X-3.5657 Y16.6429
G01 X-3.5525 Y16.6556
G01 X-3.5405 Y16.6682
G01 X-3.4752 Y16.7402
G01 X-3.4632 Y16.7541
G01 X-3.4525 Y16.7679
G01 X-3.3946 Y16.8460
G01 X-3.3840 Y16.8610
G01 X-3.3747 Y16.8757
G01 X-3.3247 Y16.9591
G01 X-3.3117 Y16.9828
G01 X-3.2663 Y17.0785
G01 X-3.2589 Y17.0953
G01 X-3.2526 Y17.1115
G01 X-3.2199 Y17.2031
G01 X-3.2141 Y17.2205
G01 X-3.2095 Y17.2373
G01 X-3.1859 Y17.3316
G01 X-3.1820 Y17.3486
G01 X-3.1789 Y17.3667
G01 X-3.1646 Y17.4628
G01 X-3.1625 Y17.4801
G01 X-3.1611 Y17.4984
G01 X-3.1564 Y17.5955
G01 X-3.1559 Y17.6129
G01 X-3.1564 Y17.6313
G01 X-3.1611 Y17.7284
G01 X-3.1624 Y17.7458
G01 X-3.1646 Y17.7640
G01 X-3.1789 Y17.8601
G01 X-3.1819 Y17.8773
G01 X-3.1859 Y17.8952
G01 X-3.2063 Y17.9770
G01 X-1.4848 Y19.6554
G01 X-1.4715 Y19.6689
G01 X-1.4464 Y19.6963
G01 X-1.4389 Y19.7050
G01 X-1.4287 Y19.7176
G01 X-1.4065 Y19.7473
G01 X-1.3910 Y19.7702
G01 X-1.3763 Y19.7945
G01 X-1.3675 Y19.8095
G01 X-1.3586 Y19.8263
G01 X-1.3426 Y19.8598
G01 X-1.3361 Y19.8746
G01 X-1.3319 Y19.8853
G01 X-1.3192 Y19.9202
G01 X-1.3110 Y19.9466
G01 X-1.3040 Y19.9741
G01 X-1.2999 Y19.9911
G01 X-1.2963 Y20.0097
G01 X-1.2907 Y20.0464
G01 X-1.2886 Y20.0652
G01 X-1.2858 Y20.1109
G01 X-1.2856 Y20.1299
G01 X-1.3364 Y37.9099
G01 X-1.3383 Y37.9553
G01 X-1.3397 Y37.9746
G01 X-1.3419 Y37.9919
G01 X-1.3490 Y38.0368
G01 X-1.3533 Y38.0556
G01 X-1.3624 Y38.0912
G01 X-1.3680 Y38.1097
G01 X-1.3803 Y38.1443
G01 X-1.3871 Y38.1618
G01 X-1.3944 Y38.1782
G01 X-1.4065 Y38.2036
G01 X-1.4152 Y38.2208
G01 X-1.4383 Y38.2599
G01 X-1.4486 Y38.2762
G01 X-1.4754 Y38.3130
G01 X-1.4870 Y38.3278
G01 X-1.4988 Y38.3413
G01 X-1.5297 Y38.3747
G01 X-9.1497 Y45.9947
G01 X-9.1647 Y46.0090
G01 X-9.1977 Y46.0382
G01 X-9.2140 Y46.0509
G01 X-9.2497 Y46.0768
G01 X-9.2672 Y46.0878
G01 X-9.2976 Y46.1059
G01 X-9.3081 Y46.1116
G01 X-9.3237 Y46.1194
G01 X-9.3558 Y46.1343
G01 X-9.3668 Y46.1390
G01 X-9.3831 Y46.1452
G01 X-9.4248 Y46.1596
G01 X-9.4447 Y46.1651
G01 X-9.4791 Y46.1735
G01 X-9.4908 Y46.1759
G01 X-9.5080 Y46.1788
G01 X-9.5430 Y46.1839
G01 X-9.5549 Y46.1851
G01 X-9.5723 Y46.1863
G01 X-9.6164 Y46.1880
G01 X-14.7229 Y46.1626
G01 X-32.4500 Y46.1880
G01 X-32.4766 Y46.1874
G01 X-32.5060 Y46.1856
G01 X-32.5325 Y46.1829
G01 X-32.5702 Y46.1771
G01 X-32.5963 Y46.1718
G01 X-32.6333 Y46.1623
G01 X-32.6587 Y46.1544
G01 X-46.7767 Y41.4727
G01 X-46.8061 Y41.4992
G01 X-46.8507 Y41.5360
G01 X-46.8644 Y41.5467
G01 X-46.9038 Y41.5759
G01 X-46.9181 Y41.5859
G01 X-46.9662 Y41.6180
G01 X-47.0157 Y41.6478
G01 X-47.0308 Y41.6563
G01 X-47.0818 Y41.6835
G01 X-47.1420 Y41.7119
G01 X-47.2034 Y41.7374
G01 X-47.2660 Y41.7598
G01 X-47.3296 Y41.7791
G01 X-47.3856 Y41.7932
G01 X-47.4027 Y41.7970
G01 X-47.4593 Y41.8082
G01 X-47.5165 Y41.8168
G01 X-47.5338 Y41.8189
G01 X-47.5826 Y41.8237
G01 X-47.6000 Y41.8250
G01 X-47.6577 Y41.8277
G01 X-47.7242 Y41.8277
G01 X-47.7906 Y41.8245
G01 X-47.8568 Y41.8179
G01 X-47.9226 Y41.8082
G01 X-47.9793 Y41.7970
G01 X-47.9963 Y41.7932
G01 X-48.0439 Y41.7813
G01 X-48.0606 Y41.7766
G01 X-48.1159 Y41.7598
G01 X-48.1703 Y41.7404
G01 X-48.1866 Y41.7341
G01 X-48.2399 Y41.7119
G01 X-48.3001 Y41.6835
G01 X-48.3587 Y41.6521
G01 X-48.4157 Y41.6180
G01 X-48.4710 Y41.5810
G01 X-48.5244 Y41.5414
G01 X-48.5758 Y41.4992
G01 X-48.6187 Y41.4605
G01 X-48.6313 Y41.4485
G01 X-48.6721 Y41.4075
G01 X-48.7110 Y41.3648
G01 X-48.7224 Y41.3516
G01 X-48.7535 Y41.3137
G01 X-48.7642 Y41.2999
G01 X-48.7986 Y41.2535
G01 X-48.8308 Y41.2055
G01 X-48.8401 Y41.1908
G01 X-48.8697 Y41.1411
G01 X-48.9010 Y41.0825
G01 X-48.9295 Y41.0224
G01 X-48.9517 Y40.9691
G01 X-48.9579 Y40.9528
G01 X-48.9773 Y40.8984
G01 X-48.9942 Y40.8431
G01 X-48.9988 Y40.8263
G01 X-49.0108 Y40.7787
G01 X-49.0146 Y40.7617
G01 X-49.0257 Y40.7050
G01 X-49.0355 Y40.6392
G01 X-49.0420 Y40.5731
G01 X-49.0450 Y40.5154
G01 X-49.0454 Y40.4979
G01 X-49.0453 Y40.4402
G01 X-49.0426 Y40.3824
G01 X-49.0413 Y40.3651
G01 X-49.0365 Y40.3162
G01 X-49.0343 Y40.2989
G01 X-49.0257 Y40.2418
G01 X-49.0128 Y40.1766
G01 X-48.9966 Y40.1121
G01 X-48.9799 Y40.0568
G01 X-48.9745 Y40.0402
G01 X-48.9549 Y39.9858
G01 X-48.9329 Y39.9324
G01 X-48.9258 Y39.9165
G01 X-48.9049 Y39.8721
G01 X-48.8970 Y39.8566
G01 X-48.8697 Y39.8057
G01 X-48.8355 Y39.7486
G01 X-48.7986 Y39.6933
G01 X-48.7642 Y39.6469
G01 X-48.7535 Y39.6331
G01 X-48.7224 Y39.5952
G01 X-48.7110 Y39.5820
G01 X-48.6721 Y39.5393
G01 X-48.6313 Y39.4983
G01 X-48.6187 Y39.4863
G01 X-48.5758 Y39.4476
G01 X-48.5244 Y39.4054
G01 X-48.4710 Y39.3658
G01 X-48.4230 Y39.3336
G01 X-48.4083 Y39.3243
G01 X-48.3587 Y39.2947
G01 X-48.3078 Y39.2673
G01 X-48.2922 Y39.2595
G01 X-48.2479 Y39.2385
G01 X-48.2319 Y39.2315
G01 X-48.1785 Y39.2094
G01 X-48.1159 Y39.1870
G01 X-48.0523 Y39.1677
G01 X-47.9878 Y39.1516
G01 X-47.9226 Y39.1386
G01 X-47.8654 Y39.1300
G01 X-47.8481 Y39.1279
G01 X-47.7993 Y39.1231
G01 X-47.7819 Y39.1218
G01 X-47.7242 Y39.1191
G01 X-47.6664 Y39.1190
G01 X-47.6490 Y39.1194
G01 X-47.5913 Y39.1223
G01 X-47.5251 Y39.1289
G01 X-47.4593 Y39.1386
G01 X-47.3941 Y39.1516
G01 X-47.3296 Y39.1677
G01 X-47.2660 Y39.1870
G01 X-47.2034 Y39.2094
G01 X-47.1420 Y39.2349
G01 X-47.0897 Y39.2595
G01 X-47.0741 Y39.2673
G01 X-47.0232 Y39.2947
G01 X-46.9736 Y39.3243
G01 X-46.9589 Y39.3336
G01 X-46.9109 Y39.3658
G01 X-46.8575 Y39.4054
G01 X-46.8061 Y39.4476
G01 X-46.7632 Y39.4863
G01 X-46.7506 Y39.4983
G01 X-46.7098 Y39.5393
G01 X-46.6709 Y39.5820
G01 X-46.6595 Y39.5952
G01 X-46.6230 Y39.6399
G01 X-46.5833 Y39.6933
G01 X-46.5511 Y39.7413
G01 X-46.5418 Y39.7560
G01 X-46.5122 Y39.8057
G01 X-46.4849 Y39.8566
G01 X-46.4770 Y39.8721
G01 X-46.4524 Y39.9244
G01 X-46.4270 Y39.9858
G01 X-46.4074 Y40.0402
G01 X-46.4020 Y40.0568
G01 X-46.3877 Y40.1037
G01 X-46.3831 Y40.1205
G01 X-46.3691 Y40.1766
G01 X-46.3604 Y40.2201
G01 X-43.8326 Y41.0583
G01 X-43.8495 Y41.0224
G01 X-43.8717 Y40.9691
G01 X-43.8779 Y40.9528
G01 X-43.8973 Y40.8984
G01 X-43.9142 Y40.8431
G01 X-43.9188 Y40.8263
G01 X-43.9328 Y40.7702
G01 X-43.9442 Y40.7136
G01 X-43.9471 Y40.6964
G01 X-43.9555 Y40.6392
G01 X-43.9613 Y40.5817
G01 X-43.9626 Y40.5644
G01 X-43.9653 Y40.5066
G01 X-43.9654 Y40.4489
G01 X-43.9650 Y40.4314
G01 X-43.9620 Y40.3737
G01 X-43.9555 Y40.3076
G01 X-43.9471 Y40.2504
G01 X-43.9442 Y40.2332
G01 X-43.9328 Y40.1766
G01 X-43.9188 Y40.1205
G01 X-43.9142 Y40.1037
G01 X-43.8973 Y40.0484
G01 X-43.8779 Y39.9940
G01 X-43.8717 Y39.9777
G01 X-43.8495 Y39.9244
G01 X-43.8249 Y39.8721
G01 X-43.8170 Y39.8566
G01 X-43.7897 Y39.8057
G01 X-43.7601 Y39.7560
G01 X-43.7508 Y39.7413
G01 X-43.7186 Y39.6933
G01 X-43.6842 Y39.6469
G01 X-43.6735 Y39.6331
G01 X-43.6368 Y39.5885
G01 X-43.5980 Y39.5456
G01 X-43.5860 Y39.5330
G01 X-43.5451 Y39.4922
G01 X-43.5024 Y39.4534
G01 X-43.4892 Y39.4420
G01 X-43.4444 Y39.4054
G01 X-43.3981 Y39.3709
G01 X-43.3838 Y39.3609
G01 X-43.3357 Y39.3288
G01 X-43.2862 Y39.2990
G01 X-43.2711 Y39.2905
G01 X-43.2201 Y39.2633
G01 X-43.1679 Y39.2385
G01 X-43.1519 Y39.2315
G01 X-43.0985 Y39.2094
G01 X-43.0441 Y39.1899
G01 X-43.0276 Y39.1844
G01 X-42.9723 Y39.1677
G01 X-42.9163 Y39.1536
G01 X-42.8993 Y39.1498
G01 X-42.8426 Y39.1386
G01 X-42.7854 Y39.1300
G01 X-42.7681 Y39.1279
G01 X-42.7106 Y39.1223
G01 X-42.6529 Y39.1194
G01 X-42.6355 Y39.1190
G01 X-42.5777 Y39.1191
G01 X-42.5200 Y39.1218
G01 X-42.5026 Y39.1231
G01 X-42.4451 Y39.1289
G01 X-42.3793 Y39.1386
G01 X-42.3141 Y39.1516
G01 X-42.2581 Y39.1655
G01 X-42.2413 Y39.1702
G01 X-42.1943 Y39.1844
G01 X-42.1778 Y39.1899
G01 X-42.1234 Y39.2094
G01 X-42.0700 Y39.2315
G01 X-42.0540 Y39.2385
G01 X-42.0097 Y39.2595
G01 X-41.9941 Y39.2673
G01 X-41.9432 Y39.2947
G01 X-41.8862 Y39.3288
G01 X-41.8309 Y39.3658
G01 X-41.7844 Y39.4001
G01 X-41.7707 Y39.4108
G01 X-41.7261 Y39.4476
G01 X-41.6768 Y39.4922
G01 X-41.6359 Y39.5330
G01 X-41.6239 Y39.5456
G01 X-41.5909 Y39.5820
G01 X-41.5795 Y39.5952
G01 X-41.5430 Y39.6399
G01 X-41.5033 Y39.6933
G01 X-41.4664 Y39.7486
G01 X-41.4366 Y39.7981
G01 X-41.4280 Y39.8133
G01 X-41.4049 Y39.8566
G01 X-41.3970 Y39.8721
G01 X-41.3724 Y39.9244
G01 X-41.3470 Y39.9858
G01 X-41.3246 Y40.0484
G01 X-41.3077 Y40.1037
G01 X-41.3031 Y40.1205
G01 X-41.2911 Y40.1681
G01 X-41.2873 Y40.1851
G01 X-41.2762 Y40.2418
G01 X-41.2676 Y40.2989
G01 X-41.2654 Y40.3162
G01 X-41.2606 Y40.3651
G01 X-41.2593 Y40.3824
G01 X-41.2566 Y40.4402
G01 X-41.2566 Y40.5066
G01 X-41.2599 Y40.5731
G01 X-41.2654 Y40.6306
G01 X-41.2676 Y40.6479
G01 X-41.2748 Y40.6964
G01 X-41.2778 Y40.7136
G01 X-41.2891 Y40.7702
G01 X-41.3053 Y40.8347
G01 X-41.3246 Y40.8984
G01 X-41.3440 Y40.9528
G01 X-41.3502 Y40.9691
G01 X-41.3690 Y41.0144
G01 X-41.3761 Y41.0303
G01 X-41.4009 Y41.0825
G01 X-41.4322 Y41.1411
G01 X-41.4664 Y41.1982
G01 X-41.4984 Y41.2463
G01 X-41.5084 Y41.2605
G01 X-41.5377 Y41.2999
G01 X-41.5484 Y41.3137
G01 X-41.5851 Y41.3583
G01 X-41.6298 Y41.4075
G01 X-41.6768 Y41.4546
G01 X-41.7195 Y41.4934
G01 X-41.7327 Y41.5048
G01 X-41.7707 Y41.5360
G01 X-41.7844 Y41.5467
G01 X-41.8309 Y41.5810
G01 X-41.8862 Y41.6180
G01 X-41.9432 Y41.6521
G01 X-41.9809 Y41.6724
G01 X-32.3448 Y44.8679
G01 X-14.7227 Y44.8426
G01 X-9.8884 Y44.8666
G01 X-2.6556 Y37.6338
G01 X-2.6063 Y20.4055
G01 X-3.1962 Y19.8304
G01 X-3.1839 Y19.8801
G01 X-3.1803 Y19.8981
G01 X-3.1646 Y20.0028
G01 X-3.1617 Y20.0297
G01 X-3.1564 Y20.1355
G01 X-3.1559 Y20.1539
G01 X-3.1564 Y20.1713
G01 X-3.1611 Y20.2684
G01 X-3.1635 Y20.2953
G01 X-3.1789 Y20.4001
G01 X-3.1820 Y20.4182
G01 X-3.1859 Y20.4352
G01 X-3.2095 Y20.5295
G01 X-3.2144 Y20.5472
G01 X-3.2199 Y20.5637
G01 X-3.2526 Y20.6553
G01 X-3.2589 Y20.6715
G01 X-3.2663 Y20.6883
G01 X-3.3079 Y20.7762
G01 X-3.3157 Y20.7917
G01 X-3.3247 Y20.8077
G01 X-3.3747 Y20.8911
G01 X-3.3840 Y20.9058
G01 X-3.3946 Y20.9208
G01 X-3.4525 Y20.9989
G01 X-3.4632 Y21.0127
G01 X-3.4752 Y21.0266
G01 X-3.5405 Y21.0986
G01 X-3.5525 Y21.1112
G01 X-3.5657 Y21.1239
G01 X-3.6443 Y21.1949
G01 X-3.6654 Y21.2119
G01 X-3.7435 Y21.2698
G01 X-3.7578 Y21.2798
G01 X-3.7732 Y21.2896
G01 X-3.8642 Y21.3440
G01 X-3.8882 Y21.3565
G01 X-3.9840 Y21.4017
G01 X-4.0009 Y21.4087
G01 X-4.0417 Y21.4234
G01 X-4.0009 Y21.4381
G01 X-3.9840 Y21.4451
G01 X-3.8803 Y21.4941
G01 X-3.8566 Y21.5072
G01 X-3.7732 Y21.5572
G01 X-3.7506 Y21.5719
G01 X-3.6654 Y21.6349
G01 X-3.6517 Y21.6457
G01 X-3.6378 Y21.6576
G01 X-3.5657 Y21.7229
G01 X-3.5525 Y21.7356
G01 X-3.5405 Y21.7482
G01 X-3.4752 Y21.8202
G01 X-3.4578 Y21.8409
G01 X-3.3946 Y21.9260
G01 X-3.3845 Y21.9402
G01 X-3.3747 Y21.9557
G01 X-3.3247 Y22.0391
G01 X-3.3157 Y22.0551
G01 X-3.3079 Y22.0706
G01 X-3.2663 Y22.1585
G01 X-3.2592 Y22.1744
G01 X-3.2526 Y22.1915
G01 X-3.2199 Y22.2831
G01 X-3.2144 Y22.2996
G01 X-3.2095 Y22.3173
G01 X-3.1859 Y22.4116
G01 X-3.1819 Y22.4295
G01 X-3.1789 Y22.4467
G01 X-3.1635 Y22.5515
G01 X-3.1611 Y22.5784
G01 X-3.1564 Y22.6755
G01 X-3.1559 Y22.6929
G01 X-3.1564 Y22.7113
G01 X-3.1611 Y22.8084
G01 X-3.1625 Y22.8267
G01 X-3.1646 Y22.8440
G01 X-3.1803 Y22.9487
G01 X-3.1859 Y22.9752
G01 X-3.2095 Y23.0695
G01 X-3.2144 Y23.0872
G01 X-3.2199 Y23.1037
G01 X-3.2526 Y23.1953
G01 X-3.2592 Y23.2124
G01 X-3.2663 Y23.2283
G01 X-3.3079 Y23.3162
G01 X-3.3157 Y23.3317
G01 X-3.3247 Y23.3477
G01 X-3.3793 Y23.4385
G01 X-3.3946 Y23.4608
G01 X-3.4525 Y23.5389
G01 X-3.4632 Y23.5527
G01 X-3.4752 Y23.5666
G01 X-3.5405 Y23.6386
G01 X-3.5525 Y23.6512
G01 X-3.5657 Y23.6639
G01 X-3.6378 Y23.7292
G01 X-3.6585 Y23.7466
G01 X-3.7435 Y23.8098
G01 X-3.7585 Y23.8203
G01 X-3.7732 Y23.8296
G01 X-3.8642 Y23.8840
G01 X-3.8882 Y23.8965
G01 X-3.9840 Y23.9417
G01 X-4.0009 Y23.9487
G01 X-4.0417 Y23.9634
G01 X-4.0009 Y23.9781
G01 X-3.9840 Y23.9851
G01 X-3.8803 Y24.0341
G01 X-3.8566 Y24.0472
G01 X-3.7732 Y24.0972
G01 X-3.7506 Y24.1119
G01 X-3.6654 Y24.1749
G01 X-3.6517 Y24.1857
G01 X-3.6378 Y24.1976
G01 X-3.5657 Y24.2629
G01 X-3.5525 Y24.2756
G01 X-3.5405 Y24.2882
G01 X-3.4694 Y24.3667
G01 X-3.4525 Y24.3879
G01 X-3.3946 Y24.4660
G01 X-3.3840 Y24.4810
G01 X-3.3747 Y24.4957
G01 X-3.3247 Y24.5791
G01 X-3.3157 Y24.5951
G01 X-3.3079 Y24.6106
G01 X-3.2663 Y24.6985
G01 X-3.2589 Y24.7153
G01 X-3.2526 Y24.7315
G01 X-3.2199 Y24.8231
G01 X-3.2144 Y24.8396
G01 X-3.2095 Y24.8573
G01 X-3.1859 Y24.9516
G01 X-3.1819 Y24.9695
G01 X-3.1789 Y24.9867
G01 X-3.1646 Y25.0828
G01 X-3.1625 Y25.1001
G01 X-3.1611 Y25.1184
G01 X-3.1564 Y25.2155
G01 X-3.1559 Y25.2329
G01 X-3.1564 Y25.2513
G01 X-3.1611 Y25.3484
G01 X-3.1624 Y25.3658
G01 X-3.1646 Y25.3840
G01 X-3.1789 Y25.4801
G01 X-3.1820 Y25.4982
G01 X-3.1859 Y25.5152
G01 X-3.2117 Y25.6179
G01 X-3.2199 Y25.6437
G01 X-3.2526 Y25.7353
G01 X-3.2592 Y25.7524
G01 X-3.2663 Y25.7683
G01 X-3.3079 Y25.8562
G01 X-3.3203 Y25.8802
G01 X-3.3747 Y25.9711
G01 X-3.3845 Y25.9866
G01 X-3.3946 Y26.0008
G01 X-3.4525 Y26.0789
G01 X-3.4632 Y26.0927
G01 X-3.4752 Y26.1066
G01 X-3.5405 Y26.1786
G01 X-3.5525 Y26.1912
G01 X-3.5657 Y26.2039
G01 X-3.6443 Y26.2749
G01 X-3.6654 Y26.2919
G01 X-3.7435 Y26.3498
G01 X-3.7578 Y26.3598
G01 X-3.7732 Y26.3696
G01 X-3.8642 Y26.4240
G01 X-3.8882 Y26.4365
G01 X-3.9840 Y26.4817
G01 X-4.0009 Y26.4887
G01 X-4.0417 Y26.5034
G01 X-4.0009 Y26.5181
G01 X-3.9840 Y26.5251
G01 X-3.8882 Y26.5703
G01 X-3.8642 Y26.5828
G01 X-3.7732 Y26.6372
G01 X-3.7578 Y26.6470
G01 X-3.7435 Y26.6570
G01 X-3.6654 Y26.7149
G01 X-3.6443 Y26.7319
G01 X-3.5657 Y26.8029
G01 X-3.5525 Y26.8156
G01 X-3.5405 Y26.8282
G01 X-3.4752 Y26.9002
G01 X-3.4632 Y26.9141
G01 X-3.4525 Y26.9279
G01 X-3.3946 Y27.0060
G01 X-3.3840 Y27.0210
G01 X-3.3747 Y27.0357
G01 X-3.3247 Y27.1191
G01 X-3.3117 Y27.1428
G01 X-3.2663 Y27.2385
G01 X-3.2589 Y27.2553
G01 X-3.2526 Y27.2715
G01 X-3.2199 Y27.3631
G01 X-3.2141 Y27.3805
G01 X-3.2095 Y27.3973
G01 X-3.1859 Y27.4916
G01 X-3.1819 Y27.5095
G01 X-3.1789 Y27.5267
G01 X-3.1646 Y27.6228
G01 X-3.1624 Y27.6410
G01 X-3.1611 Y27.6584
G01 X-3.1564 Y27.7555
G01 X-3.1559 Y27.7729
G01 X-3.1564 Y27.7913
G01 X-3.1611 Y27.8884
G01 X-3.1624 Y27.9058
G01 X-3.1646 Y27.9240
G01 X-3.1789 Y28.0201
G01 X-3.1819 Y28.0373
G01 X-3.1859 Y28.0552
G01 X-3.2117 Y28.1579
G01 X-3.2199 Y28.1837
G01 X-3.2526 Y28.2753
G01 X-3.2589 Y28.2915
G01 X-3.2663 Y28.3083
G01 X-3.3079 Y28.3962
G01 X-3.3157 Y28.4117
G01 X-3.3247 Y28.4277
G01 X-3.3747 Y28.5111
G01 X-3.3840 Y28.5258
G01 X-3.3946 Y28.5408
G01 X-3.4525 Y28.6189
G01 X-3.4632 Y28.6327
G01 X-3.4752 Y28.6466
G01 X-3.5405 Y28.7186
G01 X-3.5525 Y28.7312
G01 X-3.5657 Y28.7439
G01 X-3.6378 Y28.8092
G01 X-3.6510 Y28.8206
G01 X-3.6654 Y28.8319
G01 X-3.7435 Y28.8898
G01 X-3.7578 Y28.8998
G01 X-3.7732 Y28.9096
G01 X-3.8566 Y28.9596
G01 X-3.8718 Y28.9682
G01 X-3.8882 Y28.9765
G01 X-3.9760 Y29.0180
G01 X-3.9920 Y29.0251
G01 X-4.0091 Y29.0317
G01 X-4.1006 Y29.0645
G01 X-4.1172 Y29.0699
G01 X-4.1348 Y29.0749
G01 X-4.2291 Y29.0985
G01 X-4.2461 Y29.1023
G01 X-4.2642 Y29.1055
G01 X-4.3604 Y29.1197
G01 X-4.3777 Y29.1219
G01 X-4.3960 Y29.1232
G01 X-4.4931 Y29.1280
G01 X-4.5105 Y29.1284
G01 X-4.5288 Y29.1280
G01 X-4.6259 Y29.1232
G01 X-4.6433 Y29.1219
G01 X-4.6615 Y29.1197
G01 X-4.7577 Y29.1055
G01 X-4.7749 Y29.1025
G01 X-4.7928 Y29.0985
G01 X-4.8955 Y29.0726
G01 X-4.9213 Y29.0645
G01 X-5.0128 Y29.0317
G01 X-5.0299 Y29.0251
G01 X-5.0459 Y29.0180
G01 X-5.1337 Y28.9765
G01 X-5.1501 Y28.9682
G01 X-5.1653 Y28.9596
G01 X-5.2487 Y28.9096
G01 X-5.2634 Y28.9003
G01 X-5.2784 Y28.8898
G01 X-5.3565 Y28.8319
G01 X-5.3702 Y28.8211
G01 X-5.3841 Y28.8092
G01 X-5.4562 Y28.7439
G01 X-5.4694 Y28.7312
G01 X-5.4814 Y28.7186
G01 X-5.5467 Y28.6466
G01 X-5.5587 Y28.6327
G01 X-5.5694 Y28.6189
G01 X-5.6273 Y28.5408
G01 X-5.6374 Y28.5266
G01 X-5.6472 Y28.5111
G01 X-5.6972 Y28.4277
G01 X-5.7062 Y28.4117
G01 X-5.7140 Y28.3962
G01 X-5.7556 Y28.3083
G01 X-5.7630 Y28.2915
G01 X-5.7693 Y28.2753
G01 X-5.8020 Y28.1837
G01 X-5.8075 Y28.1672
G01 X-5.8124 Y28.1495
G01 X-5.8360 Y28.0552
G01 X-5.8416 Y28.0287
G01 X-5.8573 Y27.9240
G01 X-5.8594 Y27.9067
G01 X-5.8608 Y27.8884
G01 X-5.8656 Y27.7913
G01 X-5.8660 Y27.7690
G01 X-5.8608 Y27.6584
G01 X-5.8594 Y27.6401
G01 X-5.8573 Y27.6228
G01 X-5.8430 Y27.5267
G01 X-5.8400 Y27.5095
G01 X-5.8360 Y27.4916
G01 X-5.8124 Y27.3973
G01 X-5.8049 Y27.3713
G01 X-5.7693 Y27.2715
G01 X-5.7630 Y27.2553
G01 X-5.7556 Y27.2385
G01 X-5.7140 Y27.1506
G01 X-5.7058 Y27.1342
G01 X-5.6972 Y27.1191
G01 X-5.6426 Y27.0283
G01 X-5.6273 Y27.0060
G01 X-5.5694 Y26.9279
G01 X-5.5587 Y26.9141
G01 X-5.5467 Y26.9002
G01 X-5.4814 Y26.8282
G01 X-5.4694 Y26.8156
G01 X-5.4562 Y26.8029
G01 X-5.3841 Y26.7376
G01 X-5.3634 Y26.7202
G01 X-5.2784 Y26.6570
G01 X-5.2634 Y26.6465
G01 X-5.2487 Y26.6372
G01 X-5.1578 Y26.5828
G01 X-5.1337 Y26.5703
G01 X-5.0379 Y26.5251
G01 X-5.0210 Y26.5181
G01 X-4.9802 Y26.5034
G01 X-5.0210 Y26.4887
G01 X-5.0379 Y26.4817
G01 X-5.1416 Y26.4327
G01 X-5.1653 Y26.4196
G01 X-5.2487 Y26.3696
G01 X-5.2713 Y26.3549
G01 X-5.3565 Y26.2919
G01 X-5.3702 Y26.2811
G01 X-5.3841 Y26.2692
G01 X-5.4562 Y26.2039
G01 X-5.4694 Y26.1912
G01 X-5.4814 Y26.1786
G01 X-5.5467 Y26.1066
G01 X-5.5641 Y26.0859
G01 X-5.6273 Y26.0008
G01 X-5.6374 Y25.9866
G01 X-5.6472 Y25.9711
G01 X-5.6972 Y25.8877
G01 X-5.7062 Y25.8717
G01 X-5.7140 Y25.8562
G01 X-5.7556 Y25.7683
G01 X-5.7630 Y25.7515
G01 X-5.7693 Y25.7353
G01 X-5.8020 Y25.6437
G01 X-5.8075 Y25.6272
G01 X-5.8124 Y25.6095
G01 X-5.8360 Y25.5152
G01 X-5.8400 Y25.4973
G01 X-5.8430 Y25.4801
G01 X-5.8573 Y25.3840
G01 X-5.8602 Y25.3571
G01 X-5.8656 Y25.2513
G01 X-5.8660 Y25.2290
G01 X-5.8608 Y25.1184
G01 X-5.8595 Y25.1010
G01 X-5.8573 Y25.0828
G01 X-5.8430 Y24.9867
G01 X-5.8400 Y24.9695
G01 X-5.8360 Y24.9516
G01 X-5.8124 Y24.8573
G01 X-5.8049 Y24.8313
G01 X-5.7693 Y24.7315
G01 X-5.7630 Y24.7153
G01 X-5.7556 Y24.6985
G01 X-5.7140 Y24.6106
G01 X-5.7058 Y24.5942
G01 X-5.6972 Y24.5791
G01 X-5.6426 Y24.4883
G01 X-5.6273 Y24.4660
G01 X-5.5694 Y24.3879
G01 X-5.5587 Y24.3741
G01 X-5.5467 Y24.3602
G01 X-5.4814 Y24.2882
G01 X-5.4694 Y24.2756
G01 X-5.4562 Y24.2629
G01 X-5.3841 Y24.1976
G01 X-5.3634 Y24.1802
G01 X-5.2784 Y24.1170
G01 X-5.2634 Y24.1065
G01 X-5.2487 Y24.0972
G01 X-5.1578 Y24.0428
G01 X-5.1337 Y24.0303
G01 X-5.0379 Y23.9851
G01 X-5.0210 Y23.9781
G01 X-4.9802 Y23.9634
G01 X-5.0210 Y23.9487
G01 X-5.0379 Y23.9417
G01 X-5.1416 Y23.8927
G01 X-5.1653 Y23.8796
G01 X-5.2487 Y23.8296
G01 X-5.2713 Y23.8149
G01 X-5.3565 Y23.7519
G01 X-5.3702 Y23.7411
G01 X-5.3841 Y23.7292
G01 X-5.4562 Y23.6639
G01 X-5.4694 Y23.6512
G01 X-5.4814 Y23.6386
G01 X-5.5467 Y23.5666
G01 X-5.5641 Y23.5459
G01 X-5.6273 Y23.4608
G01 X-5.6374 Y23.4466
G01 X-5.6472 Y23.4311
G01 X-5.6972 Y23.3477
G01 X-5.7062 Y23.3317
G01 X-5.7140 Y23.3162
G01 X-5.7556 Y23.2283
G01 X-5.7627 Y23.2124
G01 X-5.7693 Y23.1953
G01 X-5.8020 Y23.1037
G01 X-5.8075 Y23.0872
G01 X-5.8124 Y23.0695
G01 X-5.8360 Y22.9752
G01 X-5.8400 Y22.9573
G01 X-5.8430 Y22.9401
G01 X-5.8584 Y22.8353
G01 X-5.8608 Y22.8084
G01 X-5.8660 Y22.6978
G01 X-5.8656 Y22.6755
G01 X-5.8608 Y22.5784
G01 X-5.8594 Y22.5601
G01 X-5.8573 Y22.5428
G01 X-5.8416 Y22.4381
G01 X-5.8360 Y22.4116
G01 X-5.8124 Y22.3173
G01 X-5.8075 Y22.2996
G01 X-5.8020 Y22.2831
G01 X-5.7693 Y22.1915
G01 X-5.7627 Y22.1744
G01 X-5.7556 Y22.1585
G01 X-5.7140 Y22.0706
G01 X-5.7062 Y22.0551
G01 X-5.6972 Y22.0391
G01 X-5.6426 Y21.9483
G01 X-5.6273 Y21.9260
G01 X-5.5694 Y21.8479
G01 X-5.5587 Y21.8341
G01 X-5.5467 Y21.8202
G01 X-5.4814 Y21.7482
G01 X-5.4694 Y21.7356
G01 X-5.4562 Y21.7229
G01 X-5.3841 Y21.6576
G01 X-5.3634 Y21.6402
G01 X-5.2784 Y21.5770
G01 X-5.2634 Y21.5665
G01 X-5.2487 Y21.5572
G01 X-5.1578 Y21.5028
G01 X-5.1337 Y21.4903
G01 X-5.0379 Y21.4451
G01 X-5.0210 Y21.4381
G01 X-4.9802 Y21.4234
G01 X-5.0210 Y21.4087
G01 X-5.0379 Y21.4017
G01 X-5.1337 Y21.3565
G01 X-5.1578 Y21.3440
G01 X-5.2487 Y21.2896
G01 X-5.2641 Y21.2798
G01 X-5.2784 Y21.2698
G01 X-5.3565 Y21.2119
G01 X-5.3776 Y21.1949
G01 X-5.4562 Y21.1239
G01 X-5.4694 Y21.1112
G01 X-5.4814 Y21.0986
G01 X-5.5467 Y21.0266
G01 X-5.5587 Y21.0127
G01 X-5.5694 Y20.9989
G01 X-5.6273 Y20.9208
G01 X-5.6374 Y20.9066
G01 X-5.6472 Y20.8911
G01 X-5.7016 Y20.8002
G01 X-5.7140 Y20.7762
G01 X-5.7556 Y20.6883
G01 X-5.7627 Y20.6724
G01 X-5.7693 Y20.6553
G01 X-5.8020 Y20.5637
G01 X-5.8075 Y20.5472
G01 X-5.8124 Y20.5295
G01 X-5.8360 Y20.4352
G01 X-5.8399 Y20.4182
G01 X-5.8430 Y20.4001
G01 X-5.8573 Y20.3040
G01 X-5.8594 Y20.2867
G01 X-5.8608 Y20.2684
G01 X-5.8657 Y20.1669
G01 X-5.8660 Y20.1490
G01 X-5.8656 Y20.1355
G01 X-5.8608 Y20.0384
G01 X-5.8594 Y20.0201
G01 X-5.8573 Y20.0028
G01 X-5.8430 Y19.9067
G01 X-5.8380 Y19.8801
G01 X-5.8124 Y19.7773
G01 X-5.8075 Y19.7596
G01 X-5.8020 Y19.7431
G01 X-5.7693 Y19.6515
G01 X-5.7630 Y19.6353
G01 X-5.7556 Y19.6185
G01 X-5.7140 Y19.5306
G01 X-5.7062 Y19.5151
G01 X-5.6972 Y19.4991
G01 X-5.6472 Y19.4157
G01 X-5.6379 Y19.4010
G01 X-5.6273 Y19.3860
G01 X-5.5694 Y19.3079
G01 X-5.5525 Y19.2867
G01 X-5.4814 Y19.2082
G01 X-5.4694 Y19.1956
G01 X-5.4562 Y19.1829
G01 X-5.3841 Y19.1176
G01 X-5.3702 Y19.1057
G01 X-5.3565 Y19.0949
G01 X-5.2713 Y19.0319
G01 X-5.2487 Y19.0172
G01 X-5.1653 Y18.9672
G01 X-5.1416 Y18.9541
G01 X-5.0379 Y18.9051
G01 X-5.0210 Y18.8981
G01 X-4.9802 Y18.8834
G01 X-5.0210 Y18.8687
G01 X-5.0379 Y18.8617
G01 X-5.1337 Y18.8165
G01 X-5.1578 Y18.8040
G01 X-5.2487 Y18.7496
G01 X-5.2634 Y18.7403
G01 X-5.2784 Y18.7298
G01 X-5.3634 Y18.6666
G01 X-5.3841 Y18.6492
G01 X-5.4562 Y18.5839
G01 X-5.4694 Y18.5712
G01 X-5.4814 Y18.5586
G01 X-5.5467 Y18.4866
G01 X-5.5587 Y18.4727
G01 X-5.5694 Y18.4589
G01 X-5.6273 Y18.3808
G01 X-5.6426 Y18.3585
G01 X-5.6972 Y18.2677
G01 X-5.7062 Y18.2517
G01 X-5.7140 Y18.2362
G01 X-5.7556 Y18.1483
G01 X-5.7627 Y18.1324
G01 X-5.7693 Y18.1153
G01 X-5.8020 Y18.0237
G01 X-5.8075 Y18.0072
G01 X-5.8124 Y17.9895
G01 X-5.8360 Y17.8952
G01 X-5.8416 Y17.8687
G01 X-5.8573 Y17.7640
G01 X-5.8594 Y17.7467
G01 X-5.8608 Y17.7284
G01 X-5.8656 Y17.6313
G01 X-5.8660 Y17.6090
G01 X-5.8608 Y17.4984
G01 X-5.8595 Y17.4810
G01 X-5.8573 Y17.4628
G01 X-5.8430 Y17.3667
G01 X-5.8400 Y17.3495
G01 X-5.8360 Y17.3316
G01 X-5.8124 Y17.2373
G01 X-5.8075 Y17.2196
G01 X-5.8020 Y17.2031
G01 X-5.7693 Y17.1115
G01 X-5.7630 Y17.0953
G01 X-5.7556 Y17.0785
G01 X-5.7140 Y16.9906
G01 X-5.7062 Y16.9751
G01 X-5.6972 Y16.9591
G01 X-5.6472 Y16.8757
G01 X-5.6374 Y16.8602
G01 X-5.6273 Y16.8460
G01 X-5.5641 Y16.7609
G01 X-5.5467 Y16.7402
G01 X-5.4814 Y16.6682
G01 X-5.4694 Y16.6556
G01 X-5.4562 Y16.6429
G01 X-5.3841 Y16.5776
G01 X-5.3702 Y16.5657
G01 X-5.3565 Y16.5549
G01 X-5.2713 Y16.4919
G01 X-5.2487 Y16.4772
G01 X-5.1653 Y16.4272
G01 X-5.1416 Y16.4141
G01 X-5.0379 Y16.3651
G01 X-5.0210 Y16.3581
G01 X-4.9802 Y16.3434
G01 X-5.0210 Y16.3287
G01 X-5.0379 Y16.3217
G01 X-5.1337 Y16.2765
G01 X-5.1578 Y16.2640
G01 X-5.2487 Y16.2096
G01 X-5.2634 Y16.2003
G01 X-5.2784 Y16.1898
G01 X-5.3634 Y16.1266
G01 X-5.3841 Y16.1092
G01 X-5.4562 Y16.0439
G01 X-5.4694 Y16.0312
G01 X-5.4814 Y16.0186
G01 X-5.5467 Y15.9466
G01 X-5.5587 Y15.9327
G01 X-5.5694 Y15.9189
G01 X-5.6273 Y15.8408
G01 X-5.6426 Y15.8185
G01 X-5.6972 Y15.7277
G01 X-5.7058 Y15.7126
G01 X-5.7140 Y15.6962
G01 X-5.7556 Y15.6083
G01 X-5.7630 Y15.5915
G01 X-5.7693 Y15.5753
G01 X-5.8049 Y15.4755
G01 X-5.8124 Y15.4495
G01 X-5.8360 Y15.3552
G01 X-5.8400 Y15.3373
G01 X-5.8430 Y15.3201
G01 X-5.8573 Y15.2240
G01 X-5.8595 Y15.2058
G01 X-5.8608 Y15.1884
G01 X-5.8660 Y15.0778
G01 X-5.8656 Y15.0555
G01 X-5.8602 Y14.9497
G01 X-5.8573 Y14.9228
G01 X-5.8430 Y14.8267
G01 X-5.8399 Y14.8086
G01 X-5.8360 Y14.7916
G01 X-5.8124 Y14.6973
G01 X-5.8075 Y14.6796
G01 X-5.8020 Y14.6631
G01 X-5.7693 Y14.5715
G01 X-5.7630 Y14.5553
G01 X-5.7556 Y14.5385
G01 X-5.7140 Y14.4506
G01 X-5.7062 Y14.4351
G01 X-5.6972 Y14.4191
G01 X-5.6472 Y14.3357
G01 X-5.6374 Y14.3202
G01 X-5.6273 Y14.3060
G01 X-5.5641 Y14.2209
G01 X-5.5467 Y14.2002
G01 X-5.4814 Y14.1282
G01 X-5.4688 Y14.1149
G01 X-5.4562 Y14.1029
G01 X-5.3841 Y14.0376
G01 X-5.3702 Y14.0257
G01 X-5.3565 Y14.0149
G01 X-5.2713 Y13.9519
G01 X-5.2487 Y13.9372
G01 X-5.1653 Y13.8872
G01 X-5.1416 Y13.8741
G01 X-5.0379 Y13.8251
G01 X-5.0210 Y13.8181
G01 X-4.9802 Y13.8034
G01 X-5.0210 Y13.7887
G01 X-5.0379 Y13.7817
G01 X-5.1337 Y13.7365
G01 X-5.1577 Y13.7240
G01 X-5.2487 Y13.6696
G01 X-5.2634 Y13.6603
G01 X-5.2784 Y13.6498
G01 X-5.3634 Y13.5866
G01 X-5.3841 Y13.5692
G01 X-5.4562 Y13.5039
G01 X-5.4688 Y13.4919
G01 X-5.4814 Y13.4786
G01 X-5.5467 Y13.4066
G01 X-5.5587 Y13.3927
G01 X-5.5694 Y13.3789
G01 X-5.6324 Y13.2938
G01 X-5.6472 Y13.2711
G01 X-5.6972 Y13.1877
G01 X-5.7062 Y13.1717
G01 X-5.7140 Y13.1562
G01 X-5.7556 Y13.0683
G01 X-5.7630 Y13.0515
G01 X-5.7693 Y13.0353
G01 X-5.8020 Y12.9437
G01 X-5.8075 Y12.9272
G01 X-5.8124 Y12.9095
G01 X-5.8360 Y12.8152
G01 X-5.8399 Y12.7982
G01 X-5.8430 Y12.7801
G01 X-5.8573 Y12.6840
G01 X-5.8595 Y12.6658
G01 X-5.8608 Y12.6484
G01 X-5.8660 Y12.5378
G00 Z2.0000
G00 X-5.6377 Y15.0750
G01 F60.00
G01 Z-0.1000
G01 F100.00
G01 X-5.6324 Y14.9634
G01 X-5.6162 Y14.8540
G01 X-5.5894 Y14.7468
G01 X-5.5521 Y14.6426
G01 X-5.5049 Y14.5426
G01 X-5.4481 Y14.4478
G01 X-5.3823 Y14.3589
G01 X-5.3080 Y14.2770
G01 X-5.2261 Y14.2027
G01 X-5.1373 Y14.1368
G01 X-5.0425 Y14.0799
G01 X-4.9426 Y14.0326
G01 X-4.8385 Y13.9953
G01 X-4.7312 Y13.9684
G01 X-4.6219 Y13.9521
G01 X-4.5114 Y13.9466
G01 X-4.4010 Y13.9520
G01 X-4.2916 Y13.9682
G01 X-4.1843 Y13.9950
G01 X-4.0802 Y14.0322
G01 X-3.9802 Y14.0794
G01 X-3.8853 Y14.1363
G01 X-3.7965 Y14.2021
G01 X-3.7145 Y14.2763
G01 X-3.6402 Y14.3582
G01 X-3.5743 Y14.4470
G01 X-3.5174 Y14.5418
G01 X-3.4701 Y14.6418
G01 X-3.4328 Y14.7459
G01 X-3.4059 Y14.8531
G01 X-3.3896 Y14.9625
G01 X-3.3842 Y15.0729
G01 X-3.3895 Y15.1834
G01 X-3.4057 Y15.2928
G01 X-3.4325 Y15.4000
G01 X-3.4698 Y15.5042
G01 X-3.5170 Y15.6042
G01 X-3.5738 Y15.6990
G01 X-3.6396 Y15.7879
G01 X-3.7139 Y15.8698
G01 X-3.7958 Y15.9441
G01 X-3.8846 Y16.0100
G01 X-3.9794 Y16.0669
G01 X-4.0793 Y16.1142
G01 X-4.1834 Y16.1515
G01 X-4.2907 Y16.1784
G01 X-4.4000 Y16.1947
G01 X-4.5105 Y16.2002
G01 X-4.6209 Y16.1948
G01 X-4.7303 Y16.1786
G01 X-4.8376 Y16.1518
G01 X-4.9417 Y16.1146
G01 X-5.0417 Y16.0674
G01 X-5.1366 Y16.0105
G01 X-5.2254 Y15.9447
G01 X-5.3074 Y15.8705
G01 X-5.3817 Y15.7886
G01 X-5.4476 Y15.6998
G01 X-5.5045 Y15.6050
G01 X-5.5518 Y15.5050
G01 X-5.5891 Y15.4009
G01 X-5.6160 Y15.2937
G01 X-5.6323 Y15.1843
G01 X-5.6377 Y15.0750
G00 Z2.0000
G00 X-5.6377 Y20.1550
G01 F60.00
G01 Z-0.1000
G01 F100.00
G01 X-5.6324 Y20.0434
G01 X-5.6162 Y19.9340
G01 X-5.5894 Y19.8268
G01 X-5.5521 Y19.7226
G01 X-5.5049 Y19.6226
G01 X-5.4481 Y19.5278
G01 X-5.3823 Y19.4389
G01 X-5.3080 Y19.3570
G01 X-5.2261 Y19.2827
G01 X-5.1373 Y19.2168
G01 X-5.0425 Y19.1599
G01 X-4.9426 Y19.1126
G01 X-4.8385 Y19.0753
G01 X-4.7312 Y19.0484
G01 X-4.6219 Y19.0321
G01 X-4.5114 Y19.0266
G01 X-4.4010 Y19.0320
G01 X-4.2916 Y19.0482
G01 X-4.1843 Y19.0750
G01 X-4.0802 Y19.1122
G01 X-3.9802 Y19.1594
G01 X-3.8853 Y19.2163
G01 X-3.7965 Y19.2821
G01 X-3.7145 Y19.3563
G01 X-3.6402 Y19.4382
G01 X-3.5743 Y19.5270
G01 X-3.5174 Y19.6218
G01 X-3.4701 Y19.7218
G01 X-3.4328 Y19.8259
G01 X-3.4059 Y19.9331
G01 X-3.3896 Y20.0425
G01 X-3.3842 Y20.1529
G01 X-3.3895 Y20.2634
G01 X-3.4057 Y20.3728
G01 X-3.4325 Y20.4800
G01 X-3.4698 Y20.5842
G01 X-3.5170 Y20.6842
G01 X-3.5738 Y20.7790
G01 X-3.6396 Y20.8679
G01 X-3.7139 Y20.9498
G01 X-3.7958 Y21.0241
G01 X-3.8846 Y21.0900
G01 X-3.9794 Y21.1469
G01 X-4.0793 Y21.1942
G01 X-4.1834 Y21.2315
G01 X-4.2907 Y21.2584
G01 X-4.4000 Y21.2747
G01 X-4.5105 Y21.2802
G01 X-4.6209 Y21.2748
G01 X-4.7303 Y21.2586
G01 X-4.8376 Y21.2318
G01 X-4.9417 Y21.1946
G01 X-5.0417 Y21.1474
G01 X-5.1366 Y21.0905
G01 X-5.2254 Y21.0247
G01 X-5.3074 Y20.9505
G01 X-5.3817 Y20.8686
G01 X-5.4476 Y20.7798
G01 X-5.5045 Y20.6850
G01 X-5.5518 Y20.5850
G01 X-5.5891 Y20.4809
G01 X-5.6160 Y20.3737
G01 X-5.6323 Y20.2643
G01 X-5.6377 Y20.1550
G00 Z2.0000
G00 X-5.6377 Y22.6950
G01 F60.00
G01 Z-0.1000
G01 F100.00
G01 X-5.6324 Y22.5834
G01 X-5.6162 Y22.4740
G01 X-5.5894 Y22.3668
G01 X-5.5521 Y22.2626
G01 X-5.5049 Y22.1626
G01 X-5.4481 Y22.0678
G01 X-5.3823 Y21.9789
G01 X-5.3080 Y21.8970
G01 X-5.2261 Y21.8227
G01 X-5.1373 Y21.7568
G01 X-5.0425 Y21.6999
G01 X-4.9426 Y21.6526
G01 X-4.8385 Y21.6153
G01 X-4.7312 Y21.5884
G01 X-4.6219 Y21.5721
G01 X-4.5114 Y21.5666
G01 X-4.4010 Y21.5720
G01 X-4.2916 Y21.5882
G01 X-4.1843 Y21.6150
G01 X-4.0802 Y21.6522
G01 X-3.9802 Y21.6994
G01 X-3.8853 Y21.7563
G01 X-3.7965 Y21.8221
G01 X-3.7145 Y21.8963
G01 X-3.6402 Y21.9782
G01 X-3.5743 Y22.0670
G01 X-3.5174 Y22.1618
G01 X-3.4701 Y22.2618
G01 X-3.4328 Y22.3659
G01 X-3.4059 Y22.4731
G01 X-3.3896 Y22.5825
G01 X-3.3842 Y22.6929
G01 X-3.3895 Y22.8034
G01 X-3.4057 Y22.9128
G01 X-3.4325 Y23.0200
G01 X-3.4698 Y23.1242
G01 X-3.5170 Y23.2242
G01 X-3.5738 Y23.3190
G01 X-3.6396 Y23.4079
G01 X-3.7139 Y23.4898
G01 X-3.7958 Y23.5641
G01 X-3.8846 Y23.6300
G01 X-3.9794 Y23.6869
G01 X-4.0793 Y23.7342
G01 X-4.1834 Y23.7715
G01 X-4.2907 Y23.7984
G01 X-4.4000 Y23.8147
G01 X-4.5105 Y23.8202
G01 X-4.6209 Y23.8148
G01 X-4.7303 Y23.7986
G01 X-4.8376 Y23.7718
G01 X-4.9417 Y23.7346
G01 X-5.0417 Y23.6874
G01 X-5.1366 Y23.6305
G01 X-5.2254 Y23.5647
G01 X-5.3074 Y23.4905
G01 X-5.3817 Y23.4086
G01 X-5.4476 Y23.3198
G01 X-5.5045 Y23.2250
G01 X-5.5518 Y23.1250
G01 X-5.5891 Y23.0209
G01 X-5.6160 Y22.9137
G01 X-5.6323 Y22.8043
G01 X-5.6377 Y22.6950
G00 Z2.0000
G00 X-5.6377 Y25.2350
G01 F60.00
G01 Z-0.1000
G01 F100.00
G01 X-5.6324 Y25.1234
G01 X-5.6162 Y25.0140
G01 X-5.5894 Y24.9068
G01 X-5.5521 Y24.8026
G01 X-5.5049 Y24.7026
G01 X-5.4481 Y24.6078
G01 X-5.3823 Y24.5189
G01 X-5.3080 Y24.4370
G01 X-5.2261 Y24.3627
G01 X-5.1373 Y24.2968
G01 X-5.0425 Y24.2399
G01 X-4.9426 Y24.1926
G01 X-4.8385 Y24.1553
G01 X-4.7312 Y24.1284
G01 X-4.6219 Y24.1121
G01 X-4.5114 Y24.1066
G01 X-4.4010 Y24.1120
G01 X-4.2916 Y24.1282
G01 X-4.1843 Y24.1550
G01 X-4.0802 Y24.1922
G01 X-3.9802 Y24.2394
G01 X-3.8853 Y24.2963
G01 X-3.7965 Y24.3621
G01 X-3.7145 Y24.4363
G01 X-3.6402 Y24.5182
G01 X-3.5743 Y24.6070
G01 X-3.5174 Y24.7018
G01 X-3.4701 Y24.8018
G01 X-3.4328 Y24.9059
G01 X-3.4059 Y25.0131
G01 X-3.3896 Y25.1225
G01 X-3.3842 Y25.2329
G01 X-3.3895 Y25.3434
G01 X-3.4057 Y25.4528
G01 X-3.4325 Y25.5600
G01 X-3.4698 Y25.6642
G01 X-3.5170 Y25.7642
G01 X-3.5738 Y25.8590
G01 X-3.6396 Y25.9479
G01 X-3.7139 Y26.0298
G01 X-3.7958 Y26.1041
G01 X-3.8846 Y26.1700
G01 X-3.9794 Y26.2269
G01 X-4.0793 Y26.2742
G01 X-4.1834 Y26.3115
G01 X-4.2907 Y26.3384
G01 X-4.4000 Y26.3547
G01 X-4.5105 Y26.3602
G01 X-4.6209 Y26.3548
G01 X-4.7303 Y26.3386
G01 X-4.8376 Y26.3118
G01 X-4.9417 Y26.2746
G01 X-5.0417 Y26.2274
G01 X-5.1366 Y26.1705
G01 X-5.2254 Y26.1047
G01 X-5.3074 Y26.0305
G01 X-5.3817 Y25.9486
G01 X-5.4476 Y25.8598
G01 X-5.5045 Y25.7650
G01 X-5.5518 Y25.6650
G01 X-5.5891 Y25.5609
G01 X-5.6160 Y25.4537
G01 X-5.6323 Y25.3443
G01 X-5.6377 Y25.2350
G00 Z2.0000
G00 X-5.6377 Y27.7750
G01 F60.00
G01 Z-0.1000
G01 F100.00
G01 X-5.6324 Y27.6634
G01 X-5.6162 Y27.5540
G01 X-5.5894 Y27.4468
G01 X-5.5521 Y27.3426
G01 X-5.5049 Y27.2426
G01 X-5.4481 Y27.1478
G01 X-5.3823 Y27.0589
G01 X-5.3080 Y26.9770
G01 X-5.2261 Y26.9027
G01 X-5.1373 Y26.8368
G01 X-5.0425 Y26.7799
G01 X-4.9426 Y26.7326
G01 X-4.8385 Y26.6953
G01 X-4.7312 Y26.6684
G01 X-4.6219 Y26.6521
G01 X-4.5114 Y26.6466
G01 X-4.4010 Y26.6520
G01 X-4.2916 Y26.6682
G01 X-4.1843 Y26.6950
G01 X-4.0802 Y26.7322
G01 X-3.9802 Y26.7794
G01 X-3.8853 Y26.8363
G01 X-3.7965 Y26.9021
G01 X-3.7145 Y26.9763
G01 X-3.6402 Y27.0582
G01 X-3.5743 Y27.1470
G01 X-3.5174 Y27.2418
G01 X-3.4701 Y27.3418
G01 X-3.4328 Y27.4459
G01 X-3.4059 Y27.5531
G01 X-3.3896 Y27.6625
G01 X-3.3842 Y27.7729
G01 X-3.3895 Y27.8834
G01 X-3.4057 Y27.9928
G01 X-3.4325 Y28.1000
G01 X-3.4698 Y28.2042
G01 X-3.5170 Y28.3042
G01 X-3.5738 Y28.3990
G01 X-3.6396 Y28.4879
G01 X-3.7139 Y28.5698
G01 X-3.7958 Y28.6441
G01 X-3.8846 Y28.7100
G01 X-3.9794 Y28.7669
G01 X-4.0793 Y28.8142
G01 X-4.1834 Y28.8515
G01 X-4.2907 Y28.8784
G01 X-4.4000 Y28.8947
G01 X-4.5105 Y28.9002
G01 X-4.6209 Y28.8948
G01 X-4.7303 Y28.8786
G01 X-4.8376 Y28.8518
G01 X-4.9417 Y28.8146
G01 X-5.0417 Y28.7674
G01 X-5.1366 Y28.7105
G01 X-5.2254 Y28.6447
G01 X-5.3074 Y28.5705
G01 X-5.3817 Y28.4886
G01 X-5.4476 Y28.3998
G01 X-5.5045 Y28.3050
G01 X-5.5518 Y28.2050
G01 X-5.5891 Y28.1009
G01 X-5.6160 Y27.9937
G01 X-5.6323 Y27.8843
G01 X-5.6377 Y27.7750
G00 Z2.0000
G00 X-10.7177 Y35.3950
G01 F60.00
G01 Z-0.1000
G01 F100.00
G01 X-10.7175 Y35.3842
G01 X-10.7125 Y35.2859
G01 X-10.7112 Y35.2738
G01 X-10.6966 Y35.1765
G01 X-10.6941 Y35.1646
G01 X-10.6700 Y35.0692
G01 X-10.6664 Y35.0576
G01 X-10.6330 Y34.9649
G01 X-10.6283 Y34.9538
G01 X-10.5860 Y34.8649
G01 X-10.5802 Y34.8542
G01 X-10.5294 Y34.7699
G01 X-10.5226 Y34.7599
G01 X-10.4638 Y34.6809
G01 X-10.4560 Y34.6716
G01 X-10.3898 Y34.5988
G01 X-10.3811 Y34.5903
G01 X-10.3080 Y34.5243
G01 X-10.2985 Y34.5167
G01 X-10.2194 Y34.4582
G01 X-10.2092 Y34.4516
G01 X-10.1247 Y34.4011
G01 X-10.1139 Y34.3955
G01 X-10.0249 Y34.3536
G01 X-10.0136 Y34.3491
G01 X-9.9208 Y34.3160
G01 X-9.9092 Y34.3127
G01 X-9.8137 Y34.2889
G01 X-9.8017 Y34.2867
G01 X-9.7043 Y34.2724
G01 X-9.6922 Y34.2714
G01 X-9.5939 Y34.2667
G01 X-9.5818 Y34.2668
G01 X-9.4835 Y34.2718
G01 X-9.4714 Y34.2731
G01 X-9.3740 Y34.2877
G01 X-9.3622 Y34.2903
G01 X-9.2667 Y34.3143
G01 X-9.2551 Y34.3180
G01 X-9.1625 Y34.3513
G01 X-9.1514 Y34.3561
G01 X-9.0624 Y34.3983
G01 X-9.0518 Y34.4042
G01 X-8.9674 Y34.4549
G01 X-8.9574 Y34.4618
G01 X-8.8784 Y34.5206
G01 X-8.8692 Y34.5284
G01 X-8.7963 Y34.5946
G01 X-8.7879 Y34.6033
G01 X-8.7219 Y34.6763
G01 X-8.7143 Y34.6858
G01 X-8.6558 Y34.7650
G01 X-8.6491 Y34.7751
G01 X-8.5987 Y34.8597
G01 X-8.5931 Y34.8704
G01 X-8.5511 Y34.9595
G01 X-8.5466 Y34.9708
G01 X-8.5136 Y35.0635
G01 X-8.5102 Y35.0752
G01 X-8.4864 Y35.1707
G01 X-8.4842 Y35.1826
G01 X-8.4699 Y35.2800
G01 X-8.4689 Y35.2921
G01 X-8.4642 Y35.3904
G01 X-8.4644 Y35.4026
G01 X-8.4694 Y35.5009
G01 X-8.4707 Y35.5130
G01 X-8.4853 Y35.6103
G01 X-8.4878 Y35.6222
G01 X-8.5119 Y35.7176
G01 X-8.5155 Y35.7292
G01 X-8.5489 Y35.8219
G01 X-8.5536 Y35.8330
G01 X-8.5959 Y35.9219
G01 X-8.6017 Y35.9326
G01 X-8.6525 Y36.0169
G01 X-8.6593 Y36.0269
G01 X-8.7181 Y36.1059
G01 X-8.7259 Y36.1152
G01 X-8.7921 Y36.1880
G01 X-8.8008 Y36.1965
G01 X-8.8739 Y36.2625
G01 X-8.8834 Y36.2701
G01 X-8.9625 Y36.3286
G01 X-8.9727 Y36.3352
G01 X-9.0572 Y36.3857
G01 X-9.0680 Y36.3913
G01 X-9.1570 Y36.4332
G01 X-9.1683 Y36.4377
G01 X-9.2611 Y36.4708
G01 X-9.2727 Y36.4741
G01 X-9.3682 Y36.4979
G01 X-9.3802 Y36.5001
G01 X-9.4776 Y36.5144
G01 X-9.4897 Y36.5154
G01 X-9.5880 Y36.5201
G01 X-9.6001 Y36.5200
G01 X-9.6985 Y36.5150
G01 X-9.7105 Y36.5137
G01 X-9.8079 Y36.4991
G01 X-9.8197 Y36.4965
G01 X-9.9152 Y36.4725
G01 X-9.9268 Y36.4688
G01 X-10.0194 Y36.4355
G01 X-10.0305 Y36.4307
G01 X-10.1195 Y36.3885
G01 X-10.1301 Y36.3826
G01 X-10.2145 Y36.3319
G01 X-10.2245 Y36.3250
G01 X-10.3035 Y36.2662
G01 X-10.3127 Y36.2584
G01 X-10.3856 Y36.1922
G01 X-10.3940 Y36.1835
G01 X-10.4600 Y36.1105
G01 X-10.4676 Y36.1010
G01 X-10.5261 Y36.0218
G01 X-10.5328 Y36.0117
G01 X-10.5832 Y35.9271
G01 X-10.5888 Y35.9164
G01 X-10.6308 Y35.8273
G01 X-10.6353 Y35.8160
G01 X-10.6683 Y35.7233
G01 X-10.6717 Y35.7116
G01 X-10.6955 Y35.6161
G01 X-10.6977 Y35.6042
G01 X-10.7120 Y35.5068
G01 X-10.7130 Y35.4947
G01 X-10.7177 Y35.3950
G00 Z2.0000
G00 X-10.7175 Y40.4826
G01 F60.00
G01 Z-0.1000
G01 F100.00
G01 X-10.7175 Y40.4642
G01 X-10.7125 Y40.3659
G01 X-10.7112 Y40.3538
G01 X-10.6966 Y40.2565
G01 X-10.6941 Y40.2446
G01 X-10.6700 Y40.1492
G01 X-10.6664 Y40.1376
G01 X-10.6330 Y40.0449
G01 X-10.6283 Y40.0338
G01 X-10.5860 Y39.9449
G01 X-10.5802 Y39.9342
G01 X-10.5294 Y39.8499
G01 X-10.5226 Y39.8399
G01 X-10.4638 Y39.7609
G01 X-10.4560 Y39.7516
G01 X-10.3898 Y39.6788
G01 X-10.3811 Y39.6703
G01 X-10.3080 Y39.6043
G01 X-10.2985 Y39.5967
G01 X-10.2194 Y39.5382
G01 X-10.2092 Y39.5316
G01 X-10.1247 Y39.4811
G01 X-10.1139 Y39.4755
G01 X-10.0249 Y39.4336
G01 X-10.0136 Y39.4291
G01 X-9.9208 Y39.3960
G01 X-9.9092 Y39.3927
G01 X-9.8137 Y39.3689
G01 X-9.8017 Y39.3667
G01 X-9.7043 Y39.3524
G01 X-9.6922 Y39.3514
G01 X-9.5939 Y39.3467
G01 X-9.5818 Y39.3468
G01 X-9.4835 Y39.3518
G01 X-9.4714 Y39.3531
G01 X-9.3740 Y39.3677
G01 X-9.3622 Y39.3703
G01 X-9.2667 Y39.3943
G01 X-9.2551 Y39.3980
G01 X-9.1625 Y39.4313
G01 X-9.1514 Y39.4361
G01 X-9.0624 Y39.4783
G01 X-9.0518 Y39.4842
G01 X-8.9674 Y39.5349
G01 X-8.9574 Y39.5418
G01 X-8.8784 Y39.6006
G01 X-8.8692 Y39.6084
G01 X-8.7963 Y39.6746
G01 X-8.7879 Y39.6833
G01 X-8.7219 Y39.7563
G01 X-8.7143 Y39.7658
G01 X-8.6558 Y39.8450
G01 X-8.6491 Y39.8551
G01 X-8.5987 Y39.9397
G01 X-8.5931 Y39.9504
G01 X-8.5511 Y40.0395
G01 X-8.5466 Y40.0508
G01 X-8.5136 Y40.1435
G01 X-8.5102 Y40.1552
G01 X-8.4864 Y40.2507
G01 X-8.4842 Y40.2626
G01 X-8.4699 Y40.3600
G01 X-8.4689 Y40.3721
G01 X-8.4642 Y40.4704
G01 X-8.4644 Y40.4826
G01 X-8.4694 Y40.5809
G01 X-8.4707 Y40.5930
G01 X-8.4853 Y40.6903
G01 X-8.4878 Y40.7022
G01 X-8.5119 Y40.7976
G01 X-8.5155 Y40.8092
G01 X-8.5489 Y40.9019
G01 X-8.5536 Y40.9130
G01 X-8.5959 Y41.0019
G01 X-8.6017 Y41.0126
G01 X-8.6525 Y41.0969
G01 X-8.6593 Y41.1069
G01 X-8.7181 Y41.1859
G01 X-8.7259 Y41.1952
G01 X-8.7921 Y41.2680
G01 X-8.8008 Y41.2765
G01 X-8.8739 Y41.3425
G01 X-8.8834 Y41.3501
G01 X-8.9625 Y41.4086
G01 X-8.9727 Y41.4152
G01 X-9.0572 Y41.4657
G01 X-9.0680 Y41.4713
G01 X-9.1570 Y41.5132
G01 X-9.1683 Y41.5177
G01 X-9.2611 Y41.5508
G01 X-9.2727 Y41.5541
G01 X-9.3682 Y41.5779
G01 X-9.3802 Y41.5801
G01 X-9.4776 Y41.5944
G01 X-9.4897 Y41.5954
G01 X-9.5880 Y41.6001
G01 X-9.6001 Y41.6000
G01 X-9.6985 Y41.5950
G01 X-9.7105 Y41.5937
G01 X-9.8079 Y41.5791
G01 X-9.8197 Y41.5765
G01 X-9.9152 Y41.5525
G01 X-9.9268 Y41.5488
G01 X-10.0194 Y41.5155
G01 X-10.0305 Y41.5107
G01 X-10.1195 Y41.4685
G01 X-10.1301 Y41.4626
G01 X-10.2145 Y41.4119
G01 X-10.2245 Y41.4050
G01 X-10.3035 Y41.3462
G01 X-10.3127 Y41.3384
G01 X-10.3856 Y41.2722
G01 X-10.3940 Y41.2635
G01 X-10.4600 Y41.1905
G01 X-10.4676 Y41.1810
G01 X-10.5261 Y41.1018
G01 X-10.5328 Y41.0917
G01 X-10.5832 Y41.0071
G01 X-10.5888 Y40.9964
G01 X-10.6308 Y40.9073
G01 X-10.6353 Y40.8960
G01 X-10.6683 Y40.8033
G01 X-10.6717 Y40.7916
G01 X-10.6955 Y40.6961
G01 X-10.6977 Y40.6842
G01 X-10.7120 Y40.5868
G01 X-10.7130 Y40.5747
G01 X-10.7175 Y40.4826
G00 Z2.0000
G00 X-15.7977 Y43.0150
G01 F60.00
G01 Z-0.1000
G01 F100.00
G01 X-15.7971 Y42.9842
G01 X-15.7941 Y42.9274
G01 X-15.7890 Y42.8755
G01 X-15.7803 Y42.8178
G01 X-15.7701 Y42.7666
G01 X-15.7566 Y42.7129
G01 X-15.7406 Y42.6600
G01 X-15.7220 Y42.6080
G01 X-15.7008 Y42.5569
G01 X-15.6772 Y42.5069
G01 X-15.6511 Y42.4581
G01 X-15.6227 Y42.4107
G01 X-15.5920 Y42.3647
G01 X-15.5590 Y42.3203
G01 X-15.5239 Y42.2776
G01 X-15.4868 Y42.2366
G01 X-15.4477 Y42.1975
G01 X-15.4067 Y42.1604
G01 X-15.3640 Y42.1253
G01 X-15.3196 Y42.0924
G01 X-15.2736 Y42.0617
G01 X-15.2262 Y42.0332
G01 X-15.1774 Y42.0072
G01 X-15.1275 Y41.9835
G01 X-15.0764 Y41.9624
G01 X-15.0243 Y41.9438
G01 X-14.9714 Y41.9277
G01 X-14.9178 Y41.9143
G01 X-14.8635 Y41.9035
G01 X-14.8088 Y41.8954
G01 X-14.7538 Y41.8900
G01 X-14.6986 Y41.8872
G01 X-14.6433 Y41.8872
G01 X-14.5881 Y41.8900
G01 X-14.5331 Y41.8954
G01 X-14.4784 Y41.9035
G01 X-14.4241 Y41.9143
G01 X-14.3705 Y41.9277
G01 X-14.3176 Y41.9438
G01 X-14.2655 Y41.9624
G01 X-14.2144 Y41.9835
G01 X-14.1645 Y42.0072
G01 X-14.1157 Y42.0332
G01 X-14.0683 Y42.0617
G01 X-14.0223 Y42.0924
G01 X-13.9779 Y42.1253
G01 X-13.9352 Y42.1604
G01 X-13.8942 Y42.1975
G01 X-13.8551 Y42.2366
G01 X-13.8180 Y42.2776
G01 X-13.7829 Y42.3203
G01 X-13.7499 Y42.3647
G01 X-13.7192 Y42.4107
G01 X-13.6908 Y42.4581
G01 X-13.6647 Y42.5069
G01 X-13.6411 Y42.5569
G01 X-13.6199 Y42.6080
G01 X-13.6013 Y42.6600
G01 X-13.5853 Y42.7129
G01 X-13.5718 Y42.7666
G01 X-13.5610 Y42.8208
G01 X-13.5529 Y42.8755
G01 X-13.5475 Y42.9305
G01 X-13.5448 Y42.9858
G01 X-13.5448 Y43.0410
G01 X-13.5475 Y43.0963
G01 X-13.5529 Y43.1513
G01 X-13.5610 Y43.2060
G01 X-13.5718 Y43.2602
G01 X-13.5853 Y43.3139
G01 X-13.6013 Y43.3668
G01 X-13.6199 Y43.4188
G01 X-13.6411 Y43.4699
G01 X-13.6647 Y43.5199
G01 X-13.6908 Y43.5687
G01 X-13.7192 Y43.6161
G01 X-13.7499 Y43.6621
G01 X-13.7829 Y43.7065
G01 X-13.8180 Y43.7492
G01 X-13.8551 Y43.7902
G01 X-13.8942 Y43.8293
G01 X-13.9352 Y43.8664
G01 X-13.9779 Y43.9015
G01 X-14.0223 Y43.9344
G01 X-14.0683 Y43.9651
G01 X-14.1157 Y43.9936
G01 X-14.1645 Y44.0196
G01 X-14.2144 Y44.0433
G01 X-14.2655 Y44.0644
G01 X-14.3176 Y44.0830
G01 X-14.3705 Y44.0991
G01 X-14.4241 Y44.1125
G01 X-14.4784 Y44.1233
G01 X-14.5331 Y44.1314
G01 X-14.5881 Y44.1368
G01 X-14.6433 Y44.1396
G01 X-14.6986 Y44.1396
G01 X-14.7538 Y44.1368
G01 X-14.8088 Y44.1314
G01 X-14.8635 Y44.1233
G01 X-14.9178 Y44.1125
G01 X-14.9714 Y44.0991
G01 X-15.0243 Y44.0830
G01 X-15.0764 Y44.0644
G01 X-15.1275 Y44.0433
G01 X-15.1774 Y44.0196
G01 X-15.2262 Y43.9936
G01 X-15.2736 Y43.9651
G01 X-15.3196 Y43.9344
G01 X-15.3640 Y43.9015
G01 X-15.4067 Y43.8664
G01 X-15.4477 Y43.8293
G01 X-15.4868 Y43.7902
G01 X-15.5239 Y43.7492
G01 X-15.5590 Y43.7065
G01 X-15.5920 Y43.6621
G01 X-15.6227 Y43.6161
G01 X-15.6511 Y43.5687
G01 X-15.6772 Y43.5199
G01 X-15.7008 Y43.4699
G01 X-15.7220 Y43.4188
G01 X-15.7406 Y43.3668
G01 X-15.7566 Y43.3139
G01 X-15.7701 Y43.2602
G01 X-15.7809 Y43.2060
G01 X-15.7890 Y43.1513
G01 X-15.7944 Y43.0963
G01 X-15.7971 Y43.0426
G01 X-15.7977 Y43.0150
G00 Z2.0000
G00 X-16.0843 Y37.9273
G01 F60.00
G01 Z-0.1000
G01 F100.00
G01 X-16.0844 Y37.9426
G01 X-16.0894 Y38.0409
G01 X-16.0907 Y38.0530
G01 X-16.1053 Y38.1503
G01 X-16.1078 Y38.1622
G01 X-16.1319 Y38.2576
G01 X-16.1355 Y38.2692
G01 X-16.1689 Y38.3619
G01 X-16.1736 Y38.3730
G01 X-16.2159 Y38.4619
G01 X-16.2217 Y38.4726
G01 X-16.2725 Y38.5569
G01 X-16.2793 Y38.5669
G01 X-16.3381 Y38.6459
G01 X-16.3459 Y38.6552
G01 X-16.4121 Y38.7280
G01 X-16.4208 Y38.7365
G01 X-16.4939 Y38.8025
G01 X-16.5034 Y38.8101
G01 X-16.5825 Y38.8686
G01 X-16.5927 Y38.8752
G01 X-16.6772 Y38.9257
G01 X-16.6880 Y38.9313
G01 X-16.7770 Y38.9732
G01 X-16.7883 Y38.9777
G01 X-16.8811 Y39.0108
G01 X-16.8927 Y39.0141
G01 X-16.9882 Y39.0379
G01 X-17.0002 Y39.0401
G01 X-17.0976 Y39.0544
G01 X-17.1097 Y39.0554
G01 X-17.2080 Y39.0601
G01 X-17.2201 Y39.0600
G01 X-17.3185 Y39.0550
G01 X-17.3305 Y39.0537
G01 X-17.4279 Y39.0391
G01 X-17.4397 Y39.0365
G01 X-17.5352 Y39.0125
G01 X-17.5468 Y39.0088
G01 X-17.6394 Y38.9755
G01 X-17.6505 Y38.9707
G01 X-17.7395 Y38.9285
G01 X-17.7501 Y38.9226
G01 X-17.8345 Y38.8719
G01 X-17.8445 Y38.8650
G01 X-17.9235 Y38.8062
G01 X-17.9327 Y38.7984
G01 X-18.0056 Y38.7322
G01 X-18.0140 Y38.7235
G01 X-18.0800 Y38.6505
G01 X-18.0876 Y38.6410
G01 X-18.1461 Y38.5618
G01 X-18.1528 Y38.5517
G01 X-18.2032 Y38.4671
G01 X-18.2088 Y38.4564
G01 X-18.2508 Y38.3673
G01 X-18.2553 Y38.3560
G01 X-18.2883 Y38.2633
G01 X-18.2917 Y38.2516
G01 X-18.3155 Y38.1561
G01 X-18.3177 Y38.1442
G01 X-18.3320 Y38.0468
G01 X-18.3330 Y38.0347
G01 X-18.3377 Y37.9350
G01 X-18.3375 Y37.9242
G01 X-18.3325 Y37.8259
G01 X-18.3312 Y37.8138
G01 X-18.3166 Y37.7165
G01 X-18.3141 Y37.7046
G01 X-18.2900 Y37.6092
G01 X-18.2864 Y37.5976
G01 X-18.2530 Y37.5049
G01 X-18.2483 Y37.4938
G01 X-18.2060 Y37.4049
G01 X-18.2002 Y37.3942
G01 X-18.1494 Y37.3099
G01 X-18.1426 Y37.2999
G01 X-18.0838 Y37.2209
G01 X-18.0760 Y37.2116
G01 X-18.0098 Y37.1388
G01 X-18.0011 Y37.1303
G01 X-17.9280 Y37.0643
G01 X-17.9185 Y37.0567
G01 X-17.8394 Y36.9982
G01 X-17.8292 Y36.9916
G01 X-17.7447 Y36.9411
G01 X-17.7339 Y36.9355
G01 X-17.6449 Y36.8936
G01 X-17.6336 Y36.8891
G01 X-17.5408 Y36.8560
G01 X-17.5292 Y36.8527
G01 X-17.4337 Y36.8289
G01 X-17.4217 Y36.8267
G01 X-17.3243 Y36.8124
G01 X-17.3122 Y36.8114
G01 X-17.2139 Y36.8067
G01 X-17.2018 Y36.8068
G01 X-17.1035 Y36.8118
G01 X-17.0914 Y36.8131
G01 X-16.9940 Y36.8277
G01 X-16.9822 Y36.8303
G01 X-16.8867 Y36.8543
G01 X-16.8751 Y36.8580
G01 X-16.7825 Y36.8913
G01 X-16.7714 Y36.8961
G01 X-16.6824 Y36.9383
G01 X-16.6718 Y36.9442
G01 X-16.5874 Y36.9949
G01 X-16.5774 Y37.0018
G01 X-16.4984 Y37.0606
G01 X-16.4892 Y37.0684
G01 X-16.4163 Y37.1346
G01 X-16.4079 Y37.1433
G01 X-16.3419 Y37.2163
G01 X-16.3343 Y37.2258
G01 X-16.2758 Y37.3050
G01 X-16.2691 Y37.3151
G01 X-16.2187 Y37.3997
G01 X-16.2131 Y37.4104
G01 X-16.1711 Y37.4995
G01 X-16.1666 Y37.5108
G01 X-16.1336 Y37.6035
G01 X-16.1302 Y37.6152
G01 X-16.1064 Y37.7107
G01 X-16.1042 Y37.7226
G01 X-16.0899 Y37.8200
G01 X-16.0889 Y37.8321
G01 X-16.0843 Y37.9273
G00 Z2.0000
G00 X-16.0843 Y35.3873
G01 F60.00
G01 Z-0.1000
G01 F100.00
G01 X-16.0844 Y35.4026
G01 X-16.0894 Y35.5009
G01 X-16.0907 Y35.5130
G01 X-16.1053 Y35.6103
G01 X-16.1078 Y35.6222
G01 X-16.1319 Y35.7176
G01 X-16.1355 Y35.7292
G01 X-16.1689 Y35.8219
G01 X-16.1736 Y35.8330
G01 X-16.2159 Y35.9219
G01 X-16.2217 Y35.9326
G01 X-16.2725 Y36.0169
G01 X-16.2793 Y36.0269
G01 X-16.3381 Y36.1059
G01 X-16.3459 Y36.1152
G01 X-16.4121 Y36.1880
G01 X-16.4208 Y36.1965
G01 X-16.4939 Y36.2625
G01 X-16.5034 Y36.2701
G01 X-16.5825 Y36.3286
G01 X-16.5927 Y36.3352
G01 X-16.6772 Y36.3857
G01 X-16.6880 Y36.3913
G01 X-16.7770 Y36.4332
G01 X-16.7883 Y36.4377
G01 X-16.8811 Y36.4708
G01 X-16.8927 Y36.4741
G01 X-16.9882 Y36.4979
G01 X-17.0002 Y36.5001
G01 X-17.0976 Y36.5144
G01 X-17.1097 Y36.5154
G01 X-17.2080 Y36.5201
G01 X-17.2201 Y36.5200
G01 X-17.3185 Y36.5150
G01 X-17.3305 Y36.5137
G01 X-17.4279 Y36.4991
G01 X-17.4397 Y36.4965
G01 X-17.5352 Y36.4725
G01 X-17.5468 Y36.4688
G01 X-17.6394 Y36.4355
G01 X-17.6505 Y36.4307
G01 X-17.7395 Y36.3885
G01 X-17.7501 Y36.3826
G01 X-17.8345 Y36.3319
G01 X-17.8445 Y36.3250
G01 X-17.9235 Y36.2662
G01 X-17.9327 Y36.2584
G01 X-18.0056 Y36.1922
G01 X-18.0140 Y36.1835
G01 X-18.0800 Y36.1105
G01 X-18.0876 Y36.1010
G01 X-18.1461 Y36.0218
G01 X-18.1528 Y36.0117
G01 X-18.2032 Y35.9271
G01 X-18.2088 Y35.9164
G01 X-18.2508 Y35.8273
G01 X-18.2553 Y35.8160
G01 X-18.2883 Y35.7233
G01 X-18.2917 Y35.7116
G01 X-18.3155 Y35.6161
G01 X-18.3177 Y35.6042
G01 X-18.3320 Y35.5068
G01 X-18.3330 Y35.4947
G01 X-18.3377 Y35.3950
G01 X-18.3375 Y35.3842
G01 X-18.3325 Y35.2859
G01 X-18.3312 Y35.2738
G01 X-18.3166 Y35.1765
G01 X-18.3141 Y35.1646
G01 X-18.2900 Y35.0692
G01 X-18.2864 Y35.0576
G01 X-18.2530 Y34.9649
G01 X-18.2483 Y34.9538
G01 X-18.2060 Y34.8649
G01 X-18.2002 Y34.8542
G01 X-18.1494 Y34.7699
G01 X-18.1426 Y34.7599
G01 X-18.0838 Y34.6809
G01 X-18.0760 Y34.6716
G01 X-18.0098 Y34.5988
G01 X-18.0011 Y34.5903
G01 X-17.9280 Y34.5243
G01 X-17.9185 Y34.5167
G01 X-17.8394 Y34.4582
G01 X-17.8292 Y34.4516
G01 X-17.7447 Y34.4011
G01 X-17.7339 Y34.3955
G01 X-17.6449 Y34.3536
G01 X-17.6336 Y34.3491
G01 X-17.5408 Y34.3160
G01 X-17.5292 Y34.3127
G01 X-17.4337 Y34.2889
G01 X-17.4217 Y34.2867
G01 X-17.3243 Y34.2724
G01 X-17.3122 Y34.2714
G01 X-17.2139 Y34.2667
G01 X-17.2018 Y34.2668
G01 X-17.1035 Y34.2718
G01 X-17.0914 Y34.2731
G01 X-16.9940 Y34.2877
G01 X-16.9822 Y34.2903
G01 X-16.8867 Y34.3143
G01 X-16.8751 Y34.3180
G01 X-16.7825 Y34.3513
G01 X-16.7714 Y34.3561
G01 X-16.6824 Y34.3983
G01 X-16.6718 Y34.4042
G01 X-16.5874 Y34.4549
G01 X-16.5774 Y34.4618
G01 X-16.4984 Y34.5206
G01 X-16.4892 Y34.5284
G01 X-16.4163 Y34.5946
G01 X-16.4079 Y34.6033
G01 X-16.3419 Y34.6763
G01 X-16.3343 Y34.6858
G01 X-16.2758 Y34.7650
G01 X-16.2691 Y34.7751
G01 X-16.2187 Y34.8597
G01 X-16.2131 Y34.8704
G01 X-16.1711 Y34.9595
G01 X-16.1666 Y34.9708
G01 X-16.1336 Y35.0635
G01 X-16.1302 Y35.0752
G01 X-16.1064 Y35.1707
G01 X-16.1042 Y35.1826
G01 X-16.0899 Y35.2800
G01 X-16.0889 Y35.2921
G01 X-16.0843 Y35.3873
G00 Z2.0000
G00 X-16.0843 Y32.8473
G01 F60.00
G01 Z-0.1000
G01 F100.00
G01 X-16.0844 Y32.8626
G01 X-16.0894 Y32.9609
G01 X-16.0907 Y32.9730
G01 X-16.1053 Y33.0703
G01 X-16.1078 Y33.0822
G01 X-16.1319 Y33.1776
G01 X-16.1355 Y33.1892
G01 X-16.1689 Y33.2819
G01 X-16.1736 Y33.2930
G01 X-16.2159 Y33.3819
G01 X-16.2217 Y33.3926
G01 X-16.2725 Y33.4769
G01 X-16.2793 Y33.4869
G01 X-16.3381 Y33.5659
G01 X-16.3459 Y33.5752
G01 X-16.4121 Y33.6480
G01 X-16.4208 Y33.6565
G01 X-16.4939 Y33.7225
G01 X-16.5034 Y33.7301
G01 X-16.5825 Y33.7886
G01 X-16.5927 Y33.7952
G01 X-16.6772 Y33.8457
G01 X-16.6880 Y33.8513
G01 X-16.7770 Y33.8932
G01 X-16.7883 Y33.8977
G01 X-16.8811 Y33.9308
G01 X-16.8927 Y33.9341
G01 X-16.9882 Y33.9579
G01 X-17.0002 Y33.9601
G01 X-17.0976 Y33.9744
G01 X-17.1097 Y33.9754
G01 X-17.2080 Y33.9801
G01 X-17.2201 Y33.9800
G01 X-17.3185 Y33.9750
G01 X-17.3305 Y33.9737
G01 X-17.4279 Y33.9591
G01 X-17.4397 Y33.9565
G01 X-17.5352 Y33.9325
G01 X-17.5468 Y33.9288
G01 X-17.6394 Y33.8955
G01 X-17.6505 Y33.8907
G01 X-17.7395 Y33.8485
G01 X-17.7501 Y33.8426
G01 X-17.8345 Y33.7919
G01 X-17.8445 Y33.7850
G01 X-17.9235 Y33.7262
G01 X-17.9327 Y33.7184
G01 X-18.0056 Y33.6522
G01 X-18.0140 Y33.6435
G01 X-18.0800 Y33.5705
G01 X-18.0876 Y33.5610
G01 X-18.1461 Y33.4818
G01 X-18.1528 Y33.4717
G01 X-18.2032 Y33.3871
G01 X-18.2088 Y33.3764
G01 X-18.2508 Y33.2873
G01 X-18.2553 Y33.2760
G01 X-18.2883 Y33.1833
G01 X-18.2917 Y33.1716
G01 X-18.3155 Y33.0761
G01 X-18.3177 Y33.0642
G01 X-18.3320 Y32.9668
G01 X-18.3330 Y32.9547
G01 X-18.3377 Y32.8550
G01 X-18.3375 Y32.8442
G01 X-18.3325 Y32.7459
G01 X-18.3312 Y32.7338
G01 X-18.3166 Y32.6365
G01 X-18.3141 Y32.6246
G01 X-18.2900 Y32.5292
G01 X-18.2864 Y32.5176
G01 X-18.2530 Y32.4249
G01 X-18.2483 Y32.4138
G01 X-18.2060 Y32.3249
G01 X-18.2002 Y32.3142
G01 X-18.1494 Y32.2299
G01 X-18.1426 Y32.2199
G01 X-18.0838 Y32.1409
G01 X-18.0760 Y32.1316
G01 X-18.0098 Y32.0588
G01 X-18.0011 Y32.0503
G01 X-17.9280 Y31.9843
G01 X-17.9185 Y31.9767
G01 X-17.8394 Y31.9182
G01 X-17.8292 Y31.9116
G01 X-17.7447 Y31.8611
G01 X-17.7339 Y31.8555
G01 X-17.6449 Y31.8136
G01 X-17.6336 Y31.8091
G01 X-17.5408 Y31.7760
G01 X-17.5292 Y31.7727
G01 X-17.4337 Y31.7489
G01 X-17.4217 Y31.7467
G01 X-17.3243 Y31.7324
G01 X-17.3122 Y31.7314
G01 X-17.2139 Y31.7267
G01 X-17.2018 Y31.7268
G01 X-17.1035 Y31.7318
G01 X-17.0914 Y31.7331
G01 X-16.9940 Y31.7477
G01 X-16.9822 Y31.7503
G01 X-16.8867 Y31.7743
G01 X-16.8751 Y31.7780
G01 X-16.7825 Y31.8113
G01 X-16.7714 Y31.8161
G01 X-16.6824 Y31.8583
G01 X-16.6718 Y31.8642
G01 X-16.5874 Y31.9149
G01 X-16.5774 Y31.9218
G01 X-16.4984 Y31.9806
G01 X-16.4892 Y31.9884
G01 X-16.4163 Y32.0546
G01 X-16.4079 Y32.0633
G01 X-16.3419 Y32.1363
G01 X-16.3343 Y32.1458
G01 X-16.2758 Y32.2250
G01 X-16.2691 Y32.2351
G01 X-16.2187 Y32.3197
G01 X-16.2131 Y32.3304
G01 X-16.1711 Y32.4195
G01 X-16.1666 Y32.4308
G01 X-16.1336 Y32.5235
G01 X-16.1302 Y32.5352
G01 X-16.1064 Y32.6307
G01 X-16.1042 Y32.6426
G01 X-16.0899 Y32.7400
G01 X-16.0889 Y32.7521
G01 X-16.0843 Y32.8473
G00 Z2.0000
G00 X-15.7977 Y32.8550
G01 F60.00
G01 Z-0.1000
G01 F100.00
G01 X-15.7971 Y32.8242
G01 X-15.7941 Y32.7674
G01 X-15.7890 Y32.7155
G01 X-15.7803 Y32.6578
G01 X-15.7701 Y32.6066
G01 X-15.7566 Y32.5529
G01 X-15.7406 Y32.5000
G01 X-15.7220 Y32.4480
G01 X-15.7008 Y32.3969
G01 X-15.6772 Y32.3469
G01 X-15.6511 Y32.2981
G01 X-15.6227 Y32.2507
G01 X-15.5920 Y32.2047
G01 X-15.5590 Y32.1603
G01 X-15.5239 Y32.1176
G01 X-15.4868 Y32.0766
G01 X-15.4477 Y32.0375
G01 X-15.4067 Y32.0004
G01 X-15.3640 Y31.9653
G01 X-15.3196 Y31.9324
G01 X-15.2736 Y31.9017
G01 X-15.2262 Y31.8732
G01 X-15.1774 Y31.8472
G01 X-15.1275 Y31.8235
G01 X-15.0764 Y31.8024
G01 X-15.0243 Y31.7838
G01 X-14.9714 Y31.7677
G01 X-14.9178 Y31.7543
G01 X-14.8635 Y31.7435
G01 X-14.8088 Y31.7354
G01 X-14.7538 Y31.7300
G01 X-14.6986 Y31.7272
G01 X-14.6433 Y31.7272
G01 X-14.5881 Y31.7300
G01 X-14.5331 Y31.7354
G01 X-14.4784 Y31.7435
G01 X-14.4241 Y31.7543
G01 X-14.3705 Y31.7677
G01 X-14.3176 Y31.7838
G01 X-14.2655 Y31.8024
G01 X-14.2144 Y31.8235
G01 X-14.1645 Y31.8472
G01 X-14.1157 Y31.8732
G01 X-14.0683 Y31.9017
G01 X-14.0223 Y31.9324
G01 X-13.9779 Y31.9653
G01 X-13.9352 Y32.0004
G01 X-13.8942 Y32.0375
G01 X-13.8551 Y32.0766
G01 X-13.8180 Y32.1176
G01 X-13.7829 Y32.1603
G01 X-13.7499 Y32.2047
G01 X-13.7192 Y32.2507
G01 X-13.6908 Y32.2981
G01 X-13.6647 Y32.3469
G01 X-13.6411 Y32.3969
G01 X-13.6199 Y32.4480
G01 X-13.6013 Y32.5000
G01 X-13.5853 Y32.5529
G01 X-13.5718 Y32.6066
G01 X-13.5610 Y32.6608
G01 X-13.5529 Y32.7155
G01 X-13.5475 Y32.7705
G01 X-13.5448 Y32.8258
G01 X-13.5448 Y32.8810
G01 X-13.5475 Y32.9363
G01 X-13.5529 Y32.9913
G01 X-13.5610 Y33.0460
G01 X-13.5718 Y33.1002
G01 X-13.5853 Y33.1539
G01 X-13.6013 Y33.2068
G01 X-13.6199 Y33.2588
G01 X-13.6411 Y33.3099
G01 X-13.6647 Y33.3599
G01 X-13.6908 Y33.4087
G01 X-13.7192 Y33.4561
G01 X-13.7499 Y33.5021
G01 X-13.7829 Y33.5465
G01 X-13.8180 Y33.5892
G01 X-13.8551 Y33.6302
G01 X-13.8942 Y33.6693
G01 X-13.9352 Y33.7064
G01 X-13.9779 Y33.7415
G01 X-14.0223 Y33.7744
G01 X-14.0683 Y33.8051
G01 X-14.1157 Y33.8336
G01 X-14.1645 Y33.8596
G01 X-14.2144 Y33.8833
G01 X-14.2655 Y33.9044
G01 X-14.3176 Y33.9230
G01 X-14.3705 Y33.9391
G01 X-14.4241 Y33.9525
G01 X-14.4784 Y33.9633
G01 X-14.5331 Y33.9714
G01 X-14.5881 Y33.9768
G01 X-14.6433 Y33.9796
G01 X-14.6986 Y33.9796
G01 X-14.7538 Y33.9768
G01 X-14.8088 Y33.9714
G01 X-14.8635 Y33.9633
G01 X-14.9178 Y33.9525
G01 X-14.9714 Y33.9391
G01 X-15.0243 Y33.9230
G01 X-15.0764 Y33.9044
G01 X-15.1275 Y33.8833
G01 X-15.1774 Y33.8596
G01 X-15.2262 Y33.8336
G01 X-15.2736 Y33.8051
G01 X-15.3196 Y33.7744
G01 X-15.3640 Y33.7415
G01 X-15.4067 Y33.7064
G01 X-15.4477 Y33.6693
G01 X-15.4868 Y33.6302
G01 X-15.5239 Y33.5892
G01 X-15.5590 Y33.5465
G01 X-15.5920 Y33.5021
G01 X-15.6227 Y33.4561
G01 X-15.6511 Y33.4087
G01 X-15.6772 Y33.3599
G01 X-15.7008 Y33.3099
G01 X-15.7220 Y33.2588
G01 X-15.7406 Y33.2068
G01 X-15.7566 Y33.1539
G01 X-15.7701 Y33.1002
G01 X-15.7809 Y33.0460
G01 X-15.7890 Y32.9913
G01 X-15.7944 Y32.9363
G01 X-15.7971 Y32.8826
G01 X-15.7977 Y32.8550
G00 Z2.0000
G00 X-16.0843 Y30.3073
G01 F60.00
G01 Z-0.1000
G01 F100.00
G01 X-16.0844 Y30.3226
G01 X-16.0894 Y30.4209
G01 X-16.0907 Y30.4330
G01 X-16.1053 Y30.5303
G01 X-16.1078 Y30.5422
G01 X-16.1319 Y30.6376
G01 X-16.1355 Y30.6492
G01 X-16.1689 Y30.7419
G01 X-16.1736 Y30.7530
G01 X-16.2159 Y30.8419
G01 X-16.2217 Y30.8526
G01 X-16.2725 Y30.9369
G01 X-16.2793 Y30.9469
G01 X-16.3381 Y31.0259
G01 X-16.3459 Y31.0352
G01 X-16.4121 Y31.1080
G01 X-16.4208 Y31.1165
G01 X-16.4939 Y31.1825
G01 X-16.5034 Y31.1901
G01 X-16.5825 Y31.2486
G01 X-16.5927 Y31.2552
G01 X-16.6772 Y31.3057
G01 X-16.6880 Y31.3113
G01 X-16.7770 Y31.3532
G01 X-16.7883 Y31.3577
G01 X-16.8811 Y31.3908
G01 X-16.8927 Y31.3941
G01 X-16.9882 Y31.4179
G01 X-17.0002 Y31.4201
G01 X-17.0976 Y31.4344
G01 X-17.1097 Y31.4354
G01 X-17.2080 Y31.4401
G01 X-17.2201 Y31.4400
G01 X-17.3185 Y31.4350
G01 X-17.3305 Y31.4337
G01 X-17.4279 Y31.4191
G01 X-17.4397 Y31.4165
G01 X-17.5352 Y31.3925
G01 X-17.5468 Y31.3888
G01 X-17.6394 Y31.3555
G01 X-17.6505 Y31.3507
G01 X-17.7395 Y31.3085
G01 X-17.7501 Y31.3026
G01 X-17.8345 Y31.2519
G01 X-17.8445 Y31.2450
G01 X-17.9235 Y31.1862
G01 X-17.9327 Y31.1784
G01 X-18.0056 Y31.1122
G01 X-18.0140 Y31.1035
G01 X-18.0800 Y31.0305
G01 X-18.0876 Y31.0210
G01 X-18.1461 Y30.9418
G01 X-18.1528 Y30.9317
G01 X-18.2032 Y30.8471
G01 X-18.2088 Y30.8364
G01 X-18.2508 Y30.7473
G01 X-18.2553 Y30.7360
G01 X-18.2883 Y30.6433
G01 X-18.2917 Y30.6316
G01 X-18.3155 Y30.5361
G01 X-18.3177 Y30.5242
G01 X-18.3320 Y30.4268
G01 X-18.3330 Y30.4147
G01 X-18.3377 Y30.3150
G01 X-18.3375 Y30.3042
G01 X-18.3325 Y30.2059
G01 X-18.3312 Y30.1938
G01 X-18.3166 Y30.0965
G01 X-18.3141 Y30.0846
G01 X-18.2900 Y29.9892
G01 X-18.2864 Y29.9776
G01 X-18.2530 Y29.8849
G01 X-18.2483 Y29.8738
G01 X-18.2060 Y29.7849
G01 X-18.2002 Y29.7742
G01 X-18.1494 Y29.6899
G01 X-18.1426 Y29.6799
G01 X-18.0838 Y29.6009
G01 X-18.0760 Y29.5916
G01 X-18.0098 Y29.5188
G01 X-18.0011 Y29.5103
G01 X-17.9280 Y29.4443
G01 X-17.9185 Y29.4367
G01 X-17.8394 Y29.3782
G01 X-17.8292 Y29.3716
G01 X-17.7447 Y29.3211
G01 X-17.7339 Y29.3155
G01 X-17.6449 Y29.2736
G01 X-17.6336 Y29.2691
G01 X-17.5408 Y29.2360
G01 X-17.5292 Y29.2327
G01 X-17.4337 Y29.2089
G01 X-17.4217 Y29.2067
G01 X-17.3243 Y29.1924
G01 X-17.3122 Y29.1914
G01 X-17.2139 Y29.1867
G01 X-17.2018 Y29.1868
G01 X-17.1035 Y29.1918
G01 X-17.0914 Y29.1931
G01 X-16.9940 Y29.2077
G01 X-16.9822 Y29.2103
G01 X-16.8867 Y29.2343
G01 X-16.8751 Y29.2380
G01 X-16.7825 Y29.2713
G01 X-16.7714 Y29.2761
G01 X-16.6824 Y29.3183
G01 X-16.6718 Y29.3242
G01 X-16.5874 Y29.3749
G01 X-16.5774 Y29.3818
G01 X-16.4984 Y29.4406
G01 X-16.4892 Y29.4484
G01 X-16.4163 Y29.5146
G01 X-16.4079 Y29.5233
G01 X-16.3419 Y29.5963
G01 X-16.3343 Y29.6058
G01 X-16.2758 Y29.6850
G01 X-16.2691 Y29.6951
G01 X-16.2187 Y29.7797
G01 X-16.2131 Y29.7904
G01 X-16.1711 Y29.8795
G01 X-16.1666 Y29.8908
G01 X-16.1336 Y29.9835
G01 X-16.1302 Y29.9952
G01 X-16.1064 Y30.0907
G01 X-16.1042 Y30.1026
G01 X-16.0899 Y30.2000
G01 X-16.0889 Y30.2121
G01 X-16.0843 Y30.3073
G00 Z2.0000
G00 X-16.0843 Y27.7673
G01 F60.00
G01 Z-0.1000
G01 F100.00
G01 X-16.0844 Y27.7826
G01 X-16.0894 Y27.8809
G01 X-16.0907 Y27.8930
G01 X-16.1053 Y27.9903
G01 X-16.1078 Y28.0022
G01 X-16.1319 Y28.0976
G01 X-16.1355 Y28.1092
G01 X-16.1689 Y28.2019
G01 X-16.1736 Y28.2130
G01 X-16.2159 Y28.3019
G01 X-16.2217 Y28.3126
G01 X-16.2725 Y28.3969
G01 X-16.2793 Y28.4069
G01 X-16.3381 Y28.4859
G01 X-16.3459 Y28.4952
G01 X-16.4121 Y28.5680
G01 X-16.4208 Y28.5765
G01 X-16.4939 Y28.6425
G01 X-16.5034 Y28.6501
G01 X-16.5825 Y28.7086
G01 X-16.5927 Y28.7152
G01 X-16.6772 Y28.7657
G01 X-16.6880 Y28.7713
G01 X-16.7770 Y28.8132
G01 X-16.7883 Y28.8177
G01 X-16.8811 Y28.8508
G01 X-16.8927 Y28.8541
G01 X-16.9882 Y28.8779
G01 X-17.0002 Y28.8801
G01 X-17.0976 Y28.8944
G01 X-17.1097 Y28.8954
G01 X-17.2080 Y28.9001
G01 X-17.2201 Y28.9000
G01 X-17.3185 Y28.8950
G01 X-17.3305 Y28.8937
G01 X-17.4279 Y28.8791
G01 X-17.4397 Y28.8765
G01 X-17.5352 Y28.8525
G01 X-17.5468 Y28.8488
G01 X-17.6394 Y28.8155
G01 X-17.6505 Y28.8107
G01 X-17.7395 Y28.7685
G01 X-17.7501 Y28.7626
G01 X-17.8345 Y28.7119
G01 X-17.8445 Y28.7050
G01 X-17.9235 Y28.6462
G01 X-17.9327 Y28.6384
G01 X-18.0056 Y28.5722
G01 X-18.0140 Y28.5635
G01 X-18.0800 Y28.4905
G01 X-18.0876 Y28.4810
G01 X-18.1461 Y28.4018
G01 X-18.1528 Y28.3917
G01 X-18.2032 Y28.3071
G01 X-18.2088 Y28.2964
G01 X-18.2508 Y28.2073
G01 X-18.2553 Y28.1960
G01 X-18.2883 Y28.1033
G01 X-18.2917 Y28.0916
G01 X-18.3155 Y27.9961
G01 X-18.3177 Y27.9842
G01 X-18.3320 Y27.8868
G01 X-18.3330 Y27.8747
G01 X-18.3377 Y27.7750
G01 X-18.3375 Y27.7642
G01 X-18.3325 Y27.6659
G01 X-18.3312 Y27.6538
G01 X-18.3166 Y27.5565
G01 X-18.3141 Y27.5446
G01 X-18.2900 Y27.4492
G01 X-18.2864 Y27.4376
G01 X-18.2530 Y27.3449
G01 X-18.2483 Y27.3338
G01 X-18.2060 Y27.2449
G01 X-18.2002 Y27.2342
G01 X-18.1494 Y27.1499
G01 X-18.1426 Y27.1399
G01 X-18.0838 Y27.0609
G01 X-18.0760 Y27.0516
G01 X-18.0098 Y26.9788
G01 X-18.0011 Y26.9703
G01 X-17.9280 Y26.9043
G01 X-17.9185 Y26.8967
G01 X-17.8394 Y26.8382
G01 X-17.8292 Y26.8316
G01 X-17.7447 Y26.7811
G01 X-17.7339 Y26.7755
G01 X-17.6449 Y26.7336
G01 X-17.6336 Y26.7291
G01 X-17.5408 Y26.6960
G01 X-17.5292 Y26.6927
G01 X-17.4337 Y26.6689
G01 X-17.4217 Y26.6667
G01 X-17.3243 Y26.6524
G01 X-17.3122 Y26.6514
G01 X-17.2139 Y26.6467
G01 X-17.2018 Y26.6468
G01 X-17.1035 Y26.6518
G01 X-17.0914 Y26.6531
G01 X-16.9940 Y26.6677
G01 X-16.9822 Y26.6703
G01 X-16.8867 Y26.6943
G01 X-16.8751 Y26.6980
G01 X-16.7825 Y26.7313
G01 X-16.7714 Y26.7361
G01 X-16.6824 Y26.7783
G01 X-16.6718 Y26.7842
G01 X-16.5874 Y26.8349
G01 X-16.5774 Y26.8418
G01 X-16.4984 Y26.9006
G01 X-16.4892 Y26.9084
G01 X-16.4163 Y26.9746
G01 X-16.4079 Y26.9833
G01 X-16.3419 Y27.0563
G01 X-16.3343 Y27.0658
G01 X-16.2758 Y27.1450
G01 X-16.2691 Y27.1551
G01 X-16.2187 Y27.2397
G01 X-16.2131 Y27.2504
G01 X-16.1711 Y27.3395
G01 X-16.1666 Y27.3508
G01 X-16.1336 Y27.4435
G01 X-16.1302 Y27.4552
G01 X-16.1064 Y27.5507
G01 X-16.1042 Y27.5626
G01 X-16.0899 Y27.6600
G01 X-16.0889 Y27.6721
G01 X-16.0843 Y27.7673
G00 Z2.0000
G00 X-16.0843 Y25.2273
G01 F60.00
G01 Z-0.1000
G01 F100.00
G01 X-16.0844 Y25.2426
G01 X-16.0894 Y25.3409
G01 X-16.0907 Y25.3530
G01 X-16.1053 Y25.4503
G01 X-16.1078 Y25.4622
G01 X-16.1319 Y25.5576
G01 X-16.1355 Y25.5692
G01 X-16.1689 Y25.6619
G01 X-16.1736 Y25.6730
G01 X-16.2159 Y25.7619
G01 X-16.2217 Y25.7726
G01 X-16.2725 Y25.8569
G01 X-16.2793 Y25.8669
G01 X-16.3381 Y25.9459
G01 X-16.3459 Y25.9552
G01 X-16.4121 Y26.0280
G01 X-16.4208 Y26.0365
G01 X-16.4939 Y26.1025
G01 X-16.5034 Y26.1101
G01 X-16.5825 Y26.1686
G01 X-16.5927 Y26.1752
G01 X-16.6772 Y26.2257
G01 X-16.6880 Y26.2313
G01 X-16.7770 Y26.2732
G01 X-16.7883 Y26.2777
G01 X-16.8811 Y26.3108
G01 X-16.8927 Y26.3141
G01 X-16.9882 Y26.3379
G01 X-17.0002 Y26.3401
G01 X-17.0976 Y26.3544
G01 X-17.1097 Y26.3554
G01 X-17.2080 Y26.3601
G01 X-17.2201 Y26.3600
G01 X-17.3185 Y26.3550
G01 X-17.3305 Y26.3537
G01 X-17.4279 Y26.3391
G01 X-17.4397 Y26.3365
G01 X-17.5352 Y26.3125
G01 X-17.5468 Y26.3088
G01 X-17.6394 Y26.2755
G01 X-17.6505 Y26.2707
G01 X-17.7395 Y26.2285
G01 X-17.7501 Y26.2226
G01 X-17.8345 Y26.1719
G01 X-17.8445 Y26.1650
G01 X-17.9235 Y26.1062
G01 X-17.9327 Y26.0984
G01 X-18.0056 Y26.0322
G01 X-18.0140 Y26.0235
G01 X-18.0800 Y25.9505
G01 X-18.0876 Y25.9410
G01 X-18.1461 Y25.8618
G01 X-18.1528 Y25.8517
G01 X-18.2032 Y25.7671
G01 X-18.2088 Y25.7564
G01 X-18.2508 Y25.6673
G01 X-18.2553 Y25.6560
G01 X-18.2883 Y25.5633
G01 X-18.2917 Y25.5516
G01 X-18.3155 Y25.4561
G01 X-18.3177 Y25.4442
G01 X-18.3320 Y25.3468
G01 X-18.3330 Y25.3347
G01 X-18.3377 Y25.2350
G01 X-18.3375 Y25.2242
G01 X-18.3325 Y25.1259
G01 X-18.3312 Y25.1138
G01 X-18.3166 Y25.0165
G01 X-18.3141 Y25.0046
G01 X-18.2900 Y24.9092
G01 X-18.2864 Y24.8976
G01 X-18.2530 Y24.8049
G01 X-18.2483 Y24.7938
G01 X-18.2060 Y24.7049
G01 X-18.2002 Y24.6942
G01 X-18.1494 Y24.6099
G01 X-18.1426 Y24.5999
G01 X-18.0838 Y24.5209
G01 X-18.0760 Y24.5116
G01 X-18.0098 Y24.4388
G01 X-18.0011 Y24.4303
G01 X-17.9280 Y24.3643
G01 X-17.9185 Y24.3567
G01 X-17.8394 Y24.2982
G01 X-17.8292 Y24.2916
G01 X-17.7447 Y24.2411
G01 X-17.7339 Y24.2355
G01 X-17.6449 Y24.1936
G01 X-17.6336 Y24.1891
G01 X-17.5408 Y24.1560
G01 X-17.5292 Y24.1527
G01 X-17.4337 Y24.1289
G01 X-17.4217 Y24.1267
G01 X-17.3243 Y24.1124
G01 X-17.3122 Y24.1114
G01 X-17.2139 Y24.1067
G01 X-17.2018 Y24.1068
G01 X-17.1035 Y24.1118
G01 X-17.0914 Y24.1131
G01 X-16.9940 Y24.1277
G01 X-16.9822 Y24.1303
G01 X-16.8867 Y24.1543
G01 X-16.8751 Y24.1580
G01 X-16.7825 Y24.1913
G01 X-16.7714 Y24.1961
G01 X-16.6824 Y24.2383
G01 X-16.6718 Y24.2442
G01 X-16.5874 Y24.2949
G01 X-16.5774 Y24.3018
G01 X-16.4984 Y24.3606
G01 X-16.4892 Y24.3684
G01 X-16.4163 Y24.4346
G01 X-16.4079 Y24.4433
G01 X-16.3419 Y24.5163
G01 X-16.3343 Y24.5258
G01 X-16.2758 Y24.6050
G01 X-16.2691 Y24.6151
G01 X-16.2187 Y24.6997
G01 X-16.2131 Y24.7104
G01 X-16.1711 Y24.7995
G01 X-16.1666 Y24.8108
G01 X-16.1336 Y24.9035
G01 X-16.1302 Y24.9152
G01 X-16.1064 Y25.0107
G01 X-16.1042 Y25.0226
G01 X-16.0899 Y25.1200
G01 X-16.0889 Y25.1321
G01 X-16.0843 Y25.2273
G00 Z2.0000
G00 X-16.0843 Y22.6873
G01 F60.00
G01 Z-0.1000
G01 F100.00
G01 X-16.0844 Y22.7026
G01 X-16.0894 Y22.8009
G01 X-16.0907 Y22.8130
G01 X-16.1053 Y22.9103
G01 X-16.1078 Y22.9222
G01 X-16.1319 Y23.0176
G01 X-16.1355 Y23.0292
G01 X-16.1689 Y23.1219
G01 X-16.1736 Y23.1330
G01 X-16.2159 Y23.2219
G01 X-16.2217 Y23.2326
G01 X-16.2725 Y23.3169
G01 X-16.2793 Y23.3269
G01 X-16.3381 Y23.4059
G01 X-16.3459 Y23.4152
G01 X-16.4121 Y23.4880
G01 X-16.4208 Y23.4965
G01 X-16.4939 Y23.5625
G01 X-16.5034 Y23.5701
G01 X-16.5825 Y23.6286
G01 X-16.5927 Y23.6352
G01 X-16.6772 Y23.6857
G01 X-16.6880 Y23.6913
G01 X-16.7770 Y23.7332
G01 X-16.7883 Y23.7377
G01 X-16.8811 Y23.7708
G01 X-16.8927 Y23.7741
G01 X-16.9882 Y23.7979
G01 X-17.0002 Y23.8001
G01 X-17.0976 Y23.8144
G01 X-17.1097 Y23.8154
G01 X-17.2080 Y23.8201
G01 X-17.2201 Y23.8200
G01 X-17.3185 Y23.8150
G01 X-17.3305 Y23.8137
G01 X-17.4279 Y23.7991
G01 X-17.4397 Y23.7965
G01 X-17.5352 Y23.7725
G01 X-17.5468 Y23.7688
G01 X-17.6394 Y23.7355
G01 X-17.6505 Y23.7307
G01 X-17.7395 Y23.6885
G01 X-17.7501 Y23.6826
G01 X-17.8345 Y23.6319
G01 X-17.8445 Y23.6250
G01 X-17.9235 Y23.5662
G01 X-17.9327 Y23.5584
G01 X-18.0056 Y23.4922
G01 X-18.0140 Y23.4835
G01 X-18.0800 Y23.4105
G01 X-18.0876 Y23.4010
G01 X-18.1461 Y23.3218
G01 X-18.1528 Y23.3117
G01 X-18.2032 Y23.2271
G01 X-18.2088 Y23.2164
G01 X-18.2508 Y23.1273
G01 X-18.2553 Y23.1160
G01 X-18.2883 Y23.0233
G01 X-18.2917 Y23.0116
G01 X-18.3155 Y22.9161
G01 X-18.3177 Y22.9042
G01 X-18.3320 Y22.8068
G01 X-18.3330 Y22.7947
G01 X-18.3377 Y22.6950
G01 X-18.3375 Y22.6842
G01 X-18.3325 Y22.5859
G01 X-18.3312 Y22.5738
G01 X-18.3166 Y22.4765
G01 X-18.3141 Y22.4646
G01 X-18.2900 Y22.3692
G01 X-18.2864 Y22.3576
G01 X-18.2530 Y22.2649
G01 X-18.2483 Y22.2538
G01 X-18.2060 Y22.1649
G01 X-18.2002 Y22.1542
G01 X-18.1494 Y22.0699
G01 X-18.1426 Y22.0599
G01 X-18.0838 Y21.9809
G01 X-18.0760 Y21.9716
G01 X-18.0098 Y21.8988
G01 X-18.0011 Y21.8903
G01 X-17.9280 Y21.8243
G01 X-17.9185 Y21.8167
G01 X-17.8394 Y21.7582
G01 X-17.8292 Y21.7516
G01 X-17.7447 Y21.7011
G01 X-17.7339 Y21.6955
G01 X-17.6449 Y21.6536
G01 X-17.6336 Y21.6491
G01 X-17.5408 Y21.6160
G01 X-17.5292 Y21.6127
G01 X-17.4337 Y21.5889
G01 X-17.4217 Y21.5867
G01 X-17.3243 Y21.5724
G01 X-17.3122 Y21.5714
G01 X-17.2139 Y21.5667
G01 X-17.2018 Y21.5668
G01 X-17.1035 Y21.5718
G01 X-17.0914 Y21.5731
G01 X-16.9940 Y21.5877
G01 X-16.9822 Y21.5903
G01 X-16.8867 Y21.6143
G01 X-16.8751 Y21.6180
G01 X-16.7825 Y21.6513
G01 X-16.7714 Y21.6561
G01 X-16.6824 Y21.6983
G01 X-16.6718 Y21.7042
G01 X-16.5874 Y21.7549
G01 X-16.5774 Y21.7618
G01 X-16.4984 Y21.8206
G01 X-16.4892 Y21.8284
G01 X-16.4163 Y21.8946
G01 X-16.4079 Y21.9033
G01 X-16.3419 Y21.9763
G01 X-16.3343 Y21.9858
G01 X-16.2758 Y22.0650
G01 X-16.2691 Y22.0751
G01 X-16.2187 Y22.1597
G01 X-16.2131 Y22.1704
G01 X-16.1711 Y22.2595
G01 X-16.1666 Y22.2708
G01 X-16.1336 Y22.3635
G01 X-16.1302 Y22.3752
G01 X-16.1064 Y22.4707
G01 X-16.1042 Y22.4826
G01 X-16.0899 Y22.5800
G01 X-16.0889 Y22.5921
G01 X-16.0843 Y22.6873
G00 Z2.0000
G00 X-16.0843 Y20.1473
G01 F60.00
G01 Z-0.1000
G01 F100.00
G01 X-16.0844 Y20.1626
G01 X-16.0894 Y20.2609
G01 X-16.0907 Y20.2730
G01 X-16.1053 Y20.3703
G01 X-16.1078 Y20.3822
G01 X-16.1319 Y20.4776
G01 X-16.1355 Y20.4892
G01 X-16.1689 Y20.5819
G01 X-16.1736 Y20.5930
G01 X-16.2159 Y20.6819
G01 X-16.2217 Y20.6926
G01 X-16.2725 Y20.7769
G01 X-16.2793 Y20.7869
G01 X-16.3381 Y20.8659
G01 X-16.3459 Y20.8752
G01 X-16.4121 Y20.9480
G01 X-16.4208 Y20.9565
G01 X-16.4939 Y21.0225
G01 X-16.5034 Y21.0301
G01 X-16.5825 Y21.0886
G01 X-16.5927 Y21.0952
G01 X-16.6772 Y21.1457
G01 X-16.6880 Y21.1513
G01 X-16.7770 Y21.1932
G01 X-16.7883 Y21.1977
G01 X-16.8811 Y21.2308
G01 X-16.8927 Y21.2341
G01 X-16.9882 Y21.2579
G01 X-17.0002 Y21.2601
G01 X-17.0976 Y21.2744
G01 X-17.1097 Y21.2754
G01 X-17.2080 Y21.2801
G01 X-17.2201 Y21.2800
G01 X-17.3185 Y21.2750
G01 X-17.3305 Y21.2737
G01 X-17.4279 Y21.2591
G01 X-17.4397 Y21.2565
G01 X-17.5352 Y21.2325
G01 X-17.5468 Y21.2288
G01 X-17.6394 Y21.1955
G01 X-17.6505 Y21.1907
G01 X-17.7395 Y21.1485
G01 X-17.7501 Y21.1426
G01 X-17.8345 Y21.0919
G01 X-17.8445 Y21.0850
G01 X-17.9235 Y21.0262
G01 X-17.9327 Y21.0184
G01 X-18.0056 Y20.9522
G01 X-18.0140 Y20.9435
G01 X-18.0800 Y20.8705
G01 X-18.0876 Y20.8610
G01 X-18.1461 Y20.7818
G01 X-18.1528 Y20.7717
G01 X-18.2032 Y20.6871
G01 X-18.2088 Y20.6764
G01 X-18.2508 Y20.5873
G01 X-18.2553 Y20.5760
G01 X-18.2883 Y20.4833
G01 X-18.2917 Y20.4716
G01 X-18.3155 Y20.3761
G01 X-18.3177 Y20.3642
G01 X-18.3320 Y20.2668
G01 X-18.3330 Y20.2547
G01 X-18.3377 Y20.1550
G01 X-18.3375 Y20.1442
G01 X-18.3325 Y20.0459
G01 X-18.3312 Y20.0338
G01 X-18.3166 Y19.9365
G01 X-18.3141 Y19.9246
G01 X-18.2900 Y19.8292
G01 X-18.2864 Y19.8176
G01 X-18.2530 Y19.7249
G01 X-18.2483 Y19.7138
G01 X-18.2060 Y19.6249
G01 X-18.2002 Y19.6142
G01 X-18.1494 Y19.5299
G01 X-18.1426 Y19.5199
G01 X-18.0838 Y19.4409
G01 X-18.0760 Y19.4316
G01 X-18.0098 Y19.3588
G01 X-18.0011 Y19.3503
G01 X-17.9280 Y19.2843
G01 X-17.9185 Y19.2767
G01 X-17.8394 Y19.2182
G01 X-17.8292 Y19.2116
G01 X-17.7447 Y19.1611
G01 X-17.7339 Y19.1555
G01 X-17.6449 Y19.1136
G01 X-17.6336 Y19.1091
G01 X-17.5408 Y19.0760
G01 X-17.5292 Y19.0727
G01 X-17.4337 Y19.0489
G01 X-17.4217 Y19.0467
G01 X-17.3243 Y19.0324
G01 X-17.3122 Y19.0314
G01 X-17.2139 Y19.0267
G01 X-17.2018 Y19.0268
G01 X-17.1035 Y19.0318
G01 X-17.0914 Y19.0331
G01 X-16.9940 Y19.0477
G01 X-16.9822 Y19.0503
G01 X-16.8867 Y19.0743
G01 X-16.8751 Y19.0780
G01 X-16.7825 Y19.1113
G01 X-16.7714 Y19.1161
G01 X-16.6824 Y19.1583
G01 X-16.6718 Y19.1642
G01 X-16.5874 Y19.2149
G01 X-16.5774 Y19.2218
G01 X-16.4984 Y19.2806
G01 X-16.4892 Y19.2884
G01 X-16.4163 Y19.3546
G01 X-16.4079 Y19.3633
G01 X-16.3419 Y19.4363
G01 X-16.3343 Y19.4458
G01 X-16.2758 Y19.5250
G01 X-16.2691 Y19.5351
G01 X-16.2187 Y19.6197
G01 X-16.2131 Y19.6304
G01 X-16.1711 Y19.7195
G01 X-16.1666 Y19.7308
G01 X-16.1336 Y19.8235
G01 X-16.1302 Y19.8352
G01 X-16.1064 Y19.9307
G01 X-16.1042 Y19.9426
G01 X-16.0899 Y20.0400
G01 X-16.0889 Y20.0521
G01 X-16.0843 Y20.1473
G00 Z2.0000
G00 X-16.0843 Y17.6073
G01 F60.00
G01 Z-0.1000
G01 F100.00
G01 X-16.0844 Y17.6226
G01 X-16.0894 Y17.7209
G01 X-16.0907 Y17.7330
G01 X-16.1053 Y17.8303
G01 X-16.1078 Y17.8422
G01 X-16.1319 Y17.9376
G01 X-16.1355 Y17.9492
G01 X-16.1689 Y18.0419
G01 X-16.1736 Y18.0530
G01 X-16.2159 Y18.1419
G01 X-16.2217 Y18.1526
G01 X-16.2725 Y18.2369
G01 X-16.2793 Y18.2469
G01 X-16.3381 Y18.3259
G01 X-16.3459 Y18.3352
G01 X-16.4121 Y18.4080
G01 X-16.4208 Y18.4165
G01 X-16.4939 Y18.4825
G01 X-16.5034 Y18.4901
G01 X-16.5825 Y18.5486
G01 X-16.5927 Y18.5552
G01 X-16.6772 Y18.6057
G01 X-16.6880 Y18.6113
G01 X-16.7770 Y18.6532
G01 X-16.7883 Y18.6577
G01 X-16.8811 Y18.6908
G01 X-16.8927 Y18.6941
G01 X-16.9882 Y18.7179
G01 X-17.0002 Y18.7201
G01 X-17.0976 Y18.7344
G01 X-17.1097 Y18.7354
G01 X-17.2080 Y18.7401
G01 X-17.2201 Y18.7400
G01 X-17.3185 Y18.7350
G01 X-17.3305 Y18.7337
G01 X-17.4279 Y18.7191
G01 X-17.4397 Y18.7165
G01 X-17.5352 Y18.6925
G01 X-17.5468 Y18.6888
G01 X-17.6394 Y18.6555
G01 X-17.6505 Y18.6507
G01 X-17.7395 Y18.6085
G01 X-17.7501 Y18.6026
G01 X-17.8345 Y18.5519
G01 X-17.8445 Y18.5450
G01 X-17.9235 Y18.4862
G01 X-17.9327 Y18.4784
G01 X-18.0056 Y18.4122
G01 X-18.0140 Y18.4035
G01 X-18.0800 Y18.3305
G01 X-18.0876 Y18.3210
G01 X-18.1461 Y18.2418
G01 X-18.1528 Y18.2317
G01 X-18.2032 Y18.1471
G01 X-18.2088 Y18.1364
G01 X-18.2508 Y18.0473
G01 X-18.2553 Y18.0360
G01 X-18.2883 Y17.9433
G01 X-18.2917 Y17.9316
G01 X-18.3155 Y17.8361
G01 X-18.3177 Y17.8242
G01 X-18.3320 Y17.7268
G01 X-18.3330 Y17.7147
G01 X-18.3377 Y17.6150
G01 X-18.3375 Y17.6042
G01 X-18.3325 Y17.5059
G01 X-18.3312 Y17.4938
G01 X-18.3166 Y17.3965
G01 X-18.3141 Y17.3846
G01 X-18.2900 Y17.2892
G01 X-18.2864 Y17.2776
G01 X-18.2530 Y17.1849
G01 X-18.2483 Y17.1738
G01 X-18.2060 Y17.0849
G01 X-18.2002 Y17.0742
G01 X-18.1494 Y16.9899
G01 X-18.1426 Y16.9799
G01 X-18.0838 Y16.9009
G01 X-18.0760 Y16.8916
G01 X-18.0098 Y16.8188
G01 X-18.0011 Y16.8103
G01 X-17.9280 Y16.7443
G01 X-17.9185 Y16.7367
G01 X-17.8394 Y16.6782
G01 X-17.8292 Y16.6716
G01 X-17.7447 Y16.6211
G01 X-17.7339 Y16.6155
G01 X-17.6449 Y16.5736
G01 X-17.6336 Y16.5691
G01 X-17.5408 Y16.5360
G01 X-17.5292 Y16.5327
G01 X-17.4337 Y16.5089
G01 X-17.4217 Y16.5067
G01 X-17.3243 Y16.4924
G01 X-17.3122 Y16.4914
G01 X-17.2139 Y16.4867
G01 X-17.2018 Y16.4868
G01 X-17.1035 Y16.4918
G01 X-17.0914 Y16.4931
G01 X-16.9940 Y16.5077
G01 X-16.9822 Y16.5103
G01 X-16.8867 Y16.5343
G01 X-16.8751 Y16.5380
G01 X-16.7825 Y16.5713
G01 X-16.7714 Y16.5761
G01 X-16.6824 Y16.6183
G01 X-16.6718 Y16.6242
G01 X-16.5874 Y16.6749
G01 X-16.5774 Y16.6818
G01 X-16.4984 Y16.7406
G01 X-16.4892 Y16.7484
G01 X-16.4163 Y16.8146
G01 X-16.4079 Y16.8233
G01 X-16.3419 Y16.8963
G01 X-16.3343 Y16.9058
G01 X-16.2758 Y16.9850
G01 X-16.2691 Y16.9951
G01 X-16.2187 Y17.0797
G01 X-16.2131 Y17.0904
G01 X-16.1711 Y17.1795
G01 X-16.1666 Y17.1908
G01 X-16.1336 Y17.2835
G01 X-16.1302 Y17.2952
G01 X-16.1064 Y17.3907
G01 X-16.1042 Y17.4026
G01 X-16.0899 Y17.5000
G01 X-16.0889 Y17.5121
G01 X-16.0843 Y17.6073
G00 Z2.0000
G00 X-16.0843 Y15.0673
G01 F60.00
G01 Z-0.1000
G01 F100.00
G01 X-16.0844 Y15.0826
G01 X-16.0894 Y15.1809
G01 X-16.0907 Y15.1930
G01 X-16.1053 Y15.2903
G01 X-16.1078 Y15.3022
G01 X-16.1319 Y15.3976
G01 X-16.1355 Y15.4092
G01 X-16.1689 Y15.5019
G01 X-16.1736 Y15.5130
G01 X-16.2159 Y15.6019
G01 X-16.2217 Y15.6126
G01 X-16.2725 Y15.6969
G01 X-16.2793 Y15.7069
G01 X-16.3381 Y15.7859
G01 X-16.3459 Y15.7952
G01 X-16.4121 Y15.8680
G01 X-16.4208 Y15.8765
G01 X-16.4939 Y15.9425
G01 X-16.5034 Y15.9501
G01 X-16.5825 Y16.0086
G01 X-16.5927 Y16.0152
G01 X-16.6772 Y16.0657
G01 X-16.6880 Y16.0713
G01 X-16.7770 Y16.1132
G01 X-16.7883 Y16.1177
G01 X-16.8811 Y16.1508
G01 X-16.8927 Y16.1541
G01 X-16.9882 Y16.1779
G01 X-17.0002 Y16.1801
G01 X-17.0976 Y16.1944
G01 X-17.1097 Y16.1954
G01 X-17.2080 Y16.2001
G01 X-17.2201 Y16.2000
G01 X-17.3185 Y16.1950
G01 X-17.3305 Y16.1937
G01 X-17.4279 Y16.1791
G01 X-17.4397 Y16.1765
G01 X-17.5352 Y16.1525
G01 X-17.5468 Y16.1488
G01 X-17.6394 Y16.1155
G01 X-17.6505 Y16.1107
G01 X-17.7395 Y16.0685
G01 X-17.7501 Y16.0626
G01 X-17.8345 Y16.0119
G01 X-17.8445 Y16.0050
G01 X-17.9235 Y15.9462
G01 X-17.9327 Y15.9384
G01 X-18.0056 Y15.8722
G01 X-18.0140 Y15.8635
G01 X-18.0800 Y15.7905
G01 X-18.0876 Y15.7810
G01 X-18.1461 Y15.7018
G01 X-18.1528 Y15.6917
G01 X-18.2032 Y15.6071
G01 X-18.2088 Y15.5964
G01 X-18.2508 Y15.5073
G01 X-18.2553 Y15.4960
G01 X-18.2883 Y15.4033
G01 X-18.2917 Y15.3916
G01 X-18.3155 Y15.2961
G01 X-18.3177 Y15.2842
G01 X-18.3320 Y15.1868
G01 X-18.3330 Y15.1747
G01 X-18.3377 Y15.0750
G01 X-18.3375 Y15.0642
G01 X-18.3325 Y14.9659
G01 X-18.3312 Y14.9538
G01 X-18.3166 Y14.8565
G01 X-18.3141 Y14.8446
G01 X-18.2900 Y14.7492
G01 X-18.2864 Y14.7376
G01 X-18.2530 Y14.6449
G01 X-18.2483 Y14.6338
G01 X-18.2060 Y14.5449
G01 X-18.2002 Y14.5342
G01 X-18.1494 Y14.4499
G01 X-18.1426 Y14.4399
G01 X-18.0838 Y14.3609
G01 X-18.0760 Y14.3516
G01 X-18.0098 Y14.2788
G01 X-18.0011 Y14.2703
G01 X-17.9280 Y14.2043
G01 X-17.9185 Y14.1967
G01 X-17.8394 Y14.1382
G01 X-17.8292 Y14.1316
G01 X-17.7447 Y14.0811
G01 X-17.7339 Y14.0755
G01 X-17.6449 Y14.0336
G01 X-17.6336 Y14.0291
G01 X-17.5408 Y13.9960
G01 X-17.5292 Y13.9927
G01 X-17.4337 Y13.9689
G01 X-17.4217 Y13.9667
G01 X-17.3243 Y13.9524
G01 X-17.3122 Y13.9514
G01 X-17.2139 Y13.9467
G01 X-17.2018 Y13.9468
G01 X-17.1035 Y13.9518
G01 X-17.0914 Y13.9531
G01 X-16.9940 Y13.9677
G01 X-16.9822 Y13.9703
G01 X-16.8867 Y13.9943
G01 X-16.8751 Y13.9980
G01 X-16.7825 Y14.0313
G01 X-16.7714 Y14.0361
G01 X-16.6824 Y14.0783
G01 X-16.6718 Y14.0842
G01 X-16.5874 Y14.1349
G01 X-16.5774 Y14.1418
G01 X-16.4984 Y14.2006
G01 X-16.4892 Y14.2084
G01 X-16.4163 Y14.2746
G01 X-16.4079 Y14.2833
G01 X-16.3419 Y14.3563
G01 X-16.3343 Y14.3658
G01 X-16.2758 Y14.4450
G01 X-16.2691 Y14.4551
G01 X-16.2187 Y14.5397
G01 X-16.2131 Y14.5504
G01 X-16.1711 Y14.6395
G01 X-16.1666 Y14.6508
G01 X-16.1336 Y14.7435
G01 X-16.1302 Y14.7552
G01 X-16.1064 Y14.8507
G01 X-16.1042 Y14.8626
G01 X-16.0899 Y14.9600
G01 X-16.0889 Y14.9721
G01 X-16.0843 Y15.0673
G00 Z2.0000
G00 X-16.0843 Y12.5273
G01 F60.00
G01 Z-0.1000
G01 F100.00
G01 X-16.0844 Y12.5426
G01 X-16.0894 Y12.6409
G01 X-16.0907 Y12.6530
G01 X-16.1053 Y12.7503
G01 X-16.1078 Y12.7622
G01 X-16.1319 Y12.8576
G01 X-16.1355 Y12.8692
G01 X-16.1689 Y12.9619
G01 X-16.1736 Y12.9730
G01 X-16.2159 Y13.0619
G01 X-16.2217 Y13.0726
G01 X-16.2725 Y13.1569
G01 X-16.2793 Y13.1669
G01 X-16.3381 Y13.2459
G01 X-16.3459 Y13.2552
G01 X-16.4121 Y13.3280
G01 X-16.4208 Y13.3365
G01 X-16.4939 Y13.4025
G01 X-16.5034 Y13.4101
G01 X-16.5825 Y13.4686
G01 X-16.5927 Y13.4752
G01 X-16.6772 Y13.5257
G01 X-16.6880 Y13.5313
G01 X-16.7770 Y13.5732
G01 X-16.7883 Y13.5777
G01 X-16.8811 Y13.6108
G01 X-16.8927 Y13.6141
G01 X-16.9882 Y13.6379
G01 X-17.0002 Y13.6401
G01 X-17.0976 Y13.6544
G01 X-17.1097 Y13.6554
G01 X-17.2080 Y13.6601
G01 X-17.2201 Y13.6600
G01 X-17.3185 Y13.6550
G01 X-17.3305 Y13.6537
G01 X-17.4279 Y13.6391
G01 X-17.4397 Y13.6365
G01 X-17.5352 Y13.6125
G01 X-17.5468 Y13.6088
G01 X-17.6394 Y13.5755
G01 X-17.6505 Y13.5707
G01 X-17.7395 Y13.5285
G01 X-17.7501 Y13.5226
G01 X-17.8345 Y13.4719
G01 X-17.8445 Y13.4650
G01 X-17.9235 Y13.4062
G01 X-17.9327 Y13.3984
G01 X-18.0056 Y13.3322
G01 X-18.0140 Y13.3235
G01 X-18.0800 Y13.2505
G01 X-18.0876 Y13.2410
G01 X-18.1461 Y13.1618
G01 X-18.1528 Y13.1517
G01 X-18.2032 Y13.0671
G01 X-18.2088 Y13.0564
G01 X-18.2508 Y12.9673
G01 X-18.2553 Y12.9560
G01 X-18.2883 Y12.8633
G01 X-18.2917 Y12.8516
G01 X-18.3155 Y12.7561
G01 X-18.3177 Y12.7442
G01 X-18.3320 Y12.6468
G01 X-18.3330 Y12.6347
G01 X-18.3377 Y12.5350
G01 X-18.3375 Y12.5242
G01 X-18.3325 Y12.4259
G01 X-18.3312 Y12.4138
G01 X-18.3166 Y12.3165
G01 X-18.3141 Y12.3046
G01 X-18.2900 Y12.2092
G01 X-18.2864 Y12.1976
G01 X-18.2530 Y12.1049
G01 X-18.2483 Y12.0938
G01 X-18.2060 Y12.0049
G01 X-18.2002 Y11.9942
G01 X-18.1494 Y11.9099
G01 X-18.1426 Y11.8999
G01 X-18.0838 Y11.8209
G01 X-18.0760 Y11.8116
G01 X-18.0098 Y11.7388
G01 X-18.0011 Y11.7303
G01 X-17.9280 Y11.6643
G01 X-17.9185 Y11.6567
G01 X-17.8394 Y11.5982
G01 X-17.8292 Y11.5916
G01 X-17.7447 Y11.5411
G01 X-17.7339 Y11.5355
G01 X-17.6449 Y11.4936
G01 X-17.6336 Y11.4891
G01 X-17.5408 Y11.4560
G01 X-17.5292 Y11.4527
G01 X-17.4337 Y11.4289
G01 X-17.4217 Y11.4267
G01 X-17.3243 Y11.4124
G01 X-17.3122 Y11.4114
G01 X-17.2139 Y11.4067
G01 X-17.2018 Y11.4068
G01 X-17.1035 Y11.4118
G01 X-17.0914 Y11.4131
G01 X-16.9940 Y11.4277
G01 X-16.9822 Y11.4303
G01 X-16.8867 Y11.4543
G01 X-16.8751 Y11.4580
G01 X-16.7825 Y11.4913
G01 X-16.7714 Y11.4961
G01 X-16.6824 Y11.5383
G01 X-16.6718 Y11.5442
G01 X-16.5874 Y11.5949
G01 X-16.5774 Y11.6018
G01 X-16.4984 Y11.6606
G01 X-16.4892 Y11.6684
G01 X-16.4163 Y11.7346
G01 X-16.4079 Y11.7433
G01 X-16.3419 Y11.8163
G01 X-16.3343 Y11.8258
G01 X-16.2758 Y11.9050
G01 X-16.2691 Y11.9151
G01 X-16.2187 Y11.9997
G01 X-16.2131 Y12.0104
G01 X-16.1711 Y12.0995
G01 X-16.1666 Y12.1108
G01 X-16.1336 Y12.2035
G01 X-16.1302 Y12.2152
G01 X-16.1064 Y12.3107
G01 X-16.1042 Y12.3226
G01 X-16.0899 Y12.4200
G01 X-16.0889 Y12.4321
G01 X-16.0843 Y12.5273
G00 Z2.0000
G00 X-16.0843 Y9.9873
G01 F60.00
G01 Z-0.1000
G01 F100.00
G01 X-16.0844 Y10.0026
G01 X-16.0894 Y10.1009
G01 X-16.0907 Y10.1130
G01 X-16.1053 Y10.2103
G01 X-16.1078 Y10.2222
G01 X-16.1319 Y10.3176
G01 X-16.1355 Y10.3292
G01 X-16.1689 Y10.4219
G01 X-16.1736 Y10.4330
G01 X-16.2159 Y10.5219
G01 X-16.2217 Y10.5326
G01 X-16.2725 Y10.6169
G01 X-16.2793 Y10.6269
G01 X-16.3381 Y10.7059
G01 X-16.3459 Y10.7152
G01 X-16.4121 Y10.7880
G01 X-16.4208 Y10.7965
G01 X-16.4939 Y10.8625
G01 X-16.5034 Y10.8701
G01 X-16.5825 Y10.9286
G01 X-16.5927 Y10.9352
G01 X-16.6772 Y10.9857
G01 X-16.6880 Y10.9913
G01 X-16.7770 Y11.0332
G01 X-16.7883 Y11.0377
G01 X-16.8811 Y11.0708
G01 X-16.8927 Y11.0741
G01 X-16.9882 Y11.0979
G01 X-17.0002 Y11.1001
G01 X-17.0976 Y11.1144
G01 X-17.1097 Y11.1154
G01 X-17.2080 Y11.1201
G01 X-17.2201 Y11.1200
G01 X-17.3185 Y11.1150
G01 X-17.3305 Y11.1137
G01 X-17.4279 Y11.0991
G01 X-17.4397 Y11.0965
G01 X-17.5352 Y11.0725
G01 X-17.5468 Y11.0688
G01 X-17.6394 Y11.0355
G01 X-17.6505 Y11.0307
G01 X-17.7395 Y10.9885
G01 X-17.7501 Y10.9826
G01 X-17.8345 Y10.9319
G01 X-17.8445 Y10.9250
G01 X-17.9235 Y10.8662
G01 X-17.9327 Y10.8584
G01 X-18.0056 Y10.7922
G01 X-18.0140 Y10.7835
G01 X-18.0800 Y10.7105
G01 X-18.0876 Y10.7010
G01 X-18.1461 Y10.6218
G01 X-18.1528 Y10.6117
G01 X-18.2032 Y10.5271
G01 X-18.2088 Y10.5164
G01 X-18.2508 Y10.4273
G01 X-18.2553 Y10.4160
G01 X-18.2883 Y10.3233
G01 X-18.2917 Y10.3116
G01 X-18.3155 Y10.2161
G01 X-18.3177 Y10.2042
G01 X-18.3320 Y10.1068
G01 X-18.3330 Y10.0947
G01 X-18.3377 Y9.9950
G01 X-18.3375 Y9.9842
G01 X-18.3325 Y9.8859
G01 X-18.3312 Y9.8738
G01 X-18.3166 Y9.7765
G01 X-18.3141 Y9.7646
G01 X-18.2900 Y9.6692
G01 X-18.2864 Y9.6576
G01 X-18.2530 Y9.5649
G01 X-18.2483 Y9.5538
G01 X-18.2060 Y9.4649
G01 X-18.2002 Y9.4542
G01 X-18.1494 Y9.3699
G01 X-18.1426 Y9.3599
G01 X-18.0838 Y9.2809
G01 X-18.0760 Y9.2716
G01 X-18.0098 Y9.1988
G01 X-18.0011 Y9.1903
G01 X-17.9280 Y9.1243
G01 X-17.9185 Y9.1167
G01 X-17.8394 Y9.0582
G01 X-17.8292 Y9.0516
G01 X-17.7447 Y9.0011
G01 X-17.7339 Y8.9955
G01 X-17.6449 Y8.9536
G01 X-17.6336 Y8.9491
G01 X-17.5408 Y8.9160
G01 X-17.5292 Y8.9127
G01 X-17.4337 Y8.8889
G01 X-17.4217 Y8.8867
G01 X-17.3243 Y8.8724
G01 X-17.3122 Y8.8714
G01 X-17.2139 Y8.8667
G01 X-17.2018 Y8.8668
G01 X-17.1035 Y8.8718
G01 X-17.0914 Y8.8731
G01 X-16.9940 Y8.8877
G01 X-16.9822 Y8.8903
G01 X-16.8867 Y8.9143
G01 X-16.8751 Y8.9180
G01 X-16.7825 Y8.9513
G01 X-16.7714 Y8.9561
G01 X-16.6824 Y8.9983
G01 X-16.6718 Y9.0042
G01 X-16.5874 Y9.0549
G01 X-16.5774 Y9.0618
G01 X-16.4984 Y9.1206
G01 X-16.4892 Y9.1284
G01 X-16.4163 Y9.1946
G01 X-16.4079 Y9.2033
G01 X-16.3419 Y9.2763
G01 X-16.3343 Y9.2858
G01 X-16.2758 Y9.3650
G01 X-16.2691 Y9.3751
G01 X-16.2187 Y9.4597
G01 X-16.2131 Y9.4704
G01 X-16.1711 Y9.5595
G01 X-16.1666 Y9.5708
G01 X-16.1336 Y9.6635
G01 X-16.1302 Y9.6752
G01 X-16.1064 Y9.7707
G01 X-16.1042 Y9.7826
G01 X-16.0899 Y9.8800
G01 X-16.0889 Y9.8921
G01 X-16.0843 Y9.9873
G00 Z2.0000
G00 X-18.3377 Y7.4550
G01 F60.00
G01 Z-0.1000
G01 F100.00
G01 X-18.3371 Y7.4242
G01 X-18.3341 Y7.3674
G01 X-18.3290 Y7.3155
G01 X-18.3209 Y7.2608
G01 X-18.3101 Y7.2066
G01 X-18.2966 Y7.1529
G01 X-18.2806 Y7.1000
G01 X-18.2620 Y7.0480
G01 X-18.2408 Y6.9969
G01 X-18.2172 Y6.9469
G01 X-18.1911 Y6.8982
G01 X-18.1627 Y6.8507
G01 X-18.1320 Y6.8048
G01 X-18.0990 Y6.7603
G01 X-18.0639 Y6.7176
G01 X-18.0268 Y6.6766
G01 X-17.9877 Y6.6375
G01 X-17.9468 Y6.6004
G01 X-17.9040 Y6.5653
G01 X-17.8596 Y6.5324
G01 X-17.8136 Y6.5017
G01 X-17.7662 Y6.4732
G01 X-17.7174 Y6.4472
G01 X-17.6675 Y6.4235
G01 X-17.6164 Y6.4024
G01 X-17.5643 Y6.3838
G01 X-17.5114 Y6.3677
G01 X-17.4578 Y6.3543
G01 X-17.4035 Y6.3435
G01 X-17.3488 Y6.3354
G01 X-17.2938 Y6.3300
G01 X-17.2386 Y6.3272
G01 X-17.1833 Y6.3272
G01 X-17.1281 Y6.3300
G01 X-17.0731 Y6.3354
G01 X-17.0184 Y6.3435
G01 X-16.9641 Y6.3543
G01 X-16.9105 Y6.3677
G01 X-16.8576 Y6.3838
G01 X-16.8055 Y6.4024
G01 X-16.7544 Y6.4235
G01 X-16.7045 Y6.4472
G01 X-16.6557 Y6.4732
G01 X-16.6083 Y6.5017
G01 X-16.5623 Y6.5324
G01 X-16.5179 Y6.5653
G01 X-16.4752 Y6.6004
G01 X-16.4342 Y6.6375
G01 X-16.3951 Y6.6766
G01 X-16.3580 Y6.7176
G01 X-16.3229 Y6.7603
G01 X-16.2899 Y6.8048
G01 X-16.2592 Y6.8507
G01 X-16.2308 Y6.8982
G01 X-16.2047 Y6.9469
G01 X-16.1811 Y6.9969
G01 X-16.1599 Y7.0480
G01 X-16.1413 Y7.1000
G01 X-16.1253 Y7.1529
G01 X-16.1118 Y7.2066
G01 X-16.1010 Y7.2608
G01 X-16.0929 Y7.3155
G01 X-16.0875 Y7.3705
G01 X-16.0848 Y7.4258
G01 X-16.0848 Y7.4810
G01 X-16.0875 Y7.5363
G01 X-16.0929 Y7.5913
G01 X-16.1010 Y7.6460
G01 X-16.1118 Y7.7002
G01 X-16.1253 Y7.7539
G01 X-16.1413 Y7.8068
G01 X-16.1599 Y7.8588
G01 X-16.1811 Y7.9099
G01 X-16.2047 Y7.9599
G01 X-16.2308 Y8.0086
G01 X-16.2592 Y8.0561
G01 X-16.2899 Y8.1020
G01 X-16.3229 Y8.1465
G01 X-16.3580 Y8.1892
G01 X-16.3951 Y8.2302
G01 X-16.4342 Y8.2693
G01 X-16.4752 Y8.3064
G01 X-16.5179 Y8.3415
G01 X-16.5623 Y8.3744
G01 X-16.6083 Y8.4051
G01 X-16.6557 Y8.4336
G01 X-16.7045 Y8.4596
G01 X-16.7544 Y8.4833
G01 X-16.8055 Y8.5044
G01 X-16.8576 Y8.5230
G01 X-16.9105 Y8.5391
G01 X-16.9641 Y8.5525
G01 X-17.0184 Y8.5633
G01 X-17.0731 Y8.5714
G01 X-17.1281 Y8.5768
G01 X-17.1833 Y8.5796
G01 X-17.2386 Y8.5796
G01 X-17.2938 Y8.5768
G01 X-17.3488 Y8.5714
G01 X-17.4035 Y8.5633
G01 X-17.4578 Y8.5525
G01 X-17.5114 Y8.5391
G01 X-17.5643 Y8.5230
G01 X-17.6164 Y8.5044
G01 X-17.6675 Y8.4833
G01 X-17.7174 Y8.4596
G01 X-17.7662 Y8.4336
G01 X-17.8136 Y8.4051
G01 X-17.8596 Y8.3744
G01 X-17.9040 Y8.3415
G01 X-17.9468 Y8.3064
G01 X-17.9877 Y8.2693
G01 X-18.0268 Y8.2302
G01 X-18.0639 Y8.1892
G01 X-18.0990 Y8.1465
G01 X-18.1320 Y8.1020
G01 X-18.1627 Y8.0561
G01 X-18.1911 Y8.0086
G01 X-18.2172 Y7.9599
G01 X-18.2408 Y7.9099
G01 X-18.2620 Y7.8588
G01 X-18.2806 Y7.8068
G01 X-18.2966 Y7.7539
G01 X-18.3101 Y7.7002
G01 X-18.3209 Y7.6460
G01 X-18.3290 Y7.5913
G01 X-18.3344 Y7.5363
G01 X-18.3371 Y7.4826
G01 X-18.3377 Y7.4550
G00 Z2.0000
G00 X-31.3243 Y9.9873
G01 F60.00
G01 Z-0.1000
G01 F100.00
G01 X-31.3244 Y10.0026
G01 X-31.3294 Y10.1009
G01 X-31.3307 Y10.1130
G01 X-31.3453 Y10.2103
G01 X-31.3478 Y10.2222
G01 X-31.3719 Y10.3176
G01 X-31.3755 Y10.3292
G01 X-31.4089 Y10.4219
G01 X-31.4136 Y10.4330
G01 X-31.4559 Y10.5219
G01 X-31.4617 Y10.5326
G01 X-31.5125 Y10.6169
G01 X-31.5193 Y10.6269
G01 X-31.5781 Y10.7059
G01 X-31.5859 Y10.7152
G01 X-31.6521 Y10.7880
G01 X-31.6608 Y10.7965
G01 X-31.7339 Y10.8625
G01 X-31.7434 Y10.8701
G01 X-31.8225 Y10.9286
G01 X-31.8327 Y10.9352
G01 X-31.9172 Y10.9857
G01 X-31.9280 Y10.9913
G01 X-32.0170 Y11.0332
G01 X-32.0283 Y11.0377
G01 X-32.1211 Y11.0708
G01 X-32.1327 Y11.0741
G01 X-32.2282 Y11.0979
G01 X-32.2402 Y11.1001
G01 X-32.3376 Y11.1144
G01 X-32.3497 Y11.1154
G01 X-32.4480 Y11.1201
G01 X-32.4601 Y11.1200
G01 X-32.5585 Y11.1150
G01 X-32.5705 Y11.1137
G01 X-32.6679 Y11.0991
G01 X-32.6797 Y11.0965
G01 X-32.7752 Y11.0725
G01 X-32.7868 Y11.0688
G01 X-32.8794 Y11.0355
G01 X-32.8905 Y11.0307
G01 X-32.9795 Y10.9885
G01 X-32.9901 Y10.9826
G01 X-33.0745 Y10.9319
G01 X-33.0845 Y10.9250
G01 X-33.1635 Y10.8662
G01 X-33.1727 Y10.8584
G01 X-33.2456 Y10.7922
G01 X-33.2540 Y10.7835
G01 X-33.3200 Y10.7105
G01 X-33.3276 Y10.7010
G01 X-33.3861 Y10.6218
G01 X-33.3928 Y10.6117
G01 X-33.4432 Y10.5271
G01 X-33.4488 Y10.5164
G01 X-33.4908 Y10.4273
G01 X-33.4953 Y10.4160
G01 X-33.5283 Y10.3233
G01 X-33.5317 Y10.3116
G01 X-33.5555 Y10.2161
G01 X-33.5577 Y10.2042
G01 X-33.5720 Y10.1068
G01 X-33.5730 Y10.0947
G01 X-33.5777 Y9.9950
G01 X-33.5775 Y9.9842
G01 X-33.5725 Y9.8859
G01 X-33.5712 Y9.8738
G01 X-33.5566 Y9.7765
G01 X-33.5541 Y9.7646
G01 X-33.5300 Y9.6692
G01 X-33.5264 Y9.6576
G01 X-33.4930 Y9.5649
G01 X-33.4883 Y9.5538
G01 X-33.4460 Y9.4649
G01 X-33.4402 Y9.4542
G01 X-33.3894 Y9.3699
G01 X-33.3826 Y9.3599
G01 X-33.3238 Y9.2809
G01 X-33.3160 Y9.2716
G01 X-33.2498 Y9.1988
G01 X-33.2411 Y9.1903
G01 X-33.1680 Y9.1243
G01 X-33.1585 Y9.1167
G01 X-33.0794 Y9.0582
G01 X-33.0692 Y9.0516
G01 X-32.9847 Y9.0011
G01 X-32.9739 Y8.9955
G01 X-32.8849 Y8.9536
G01 X-32.8736 Y8.9491
G01 X-32.7808 Y8.9160
G01 X-32.7692 Y8.9127
G01 X-32.6737 Y8.8889
G01 X-32.6617 Y8.8867
G01 X-32.5643 Y8.8724
G01 X-32.5522 Y8.8714
G01 X-32.4539 Y8.8667
G01 X-32.4418 Y8.8668
G01 X-32.3435 Y8.8718
G01 X-32.3314 Y8.8731
G01 X-32.2340 Y8.8877
G01 X-32.2222 Y8.8903
G01 X-32.1267 Y8.9143
G01 X-32.1151 Y8.9180
G01 X-32.0225 Y8.9513
G01 X-32.0114 Y8.9561
G01 X-31.9224 Y8.9983
G01 X-31.9118 Y9.0042
G01 X-31.8274 Y9.0549
G01 X-31.8174 Y9.0618
G01 X-31.7384 Y9.1206
G01 X-31.7292 Y9.1284
G01 X-31.6563 Y9.1946
G01 X-31.6479 Y9.2033
G01 X-31.5819 Y9.2763
G01 X-31.5743 Y9.2858
G01 X-31.5158 Y9.3650
G01 X-31.5091 Y9.3751
G01 X-31.4587 Y9.4597
G01 X-31.4531 Y9.4704
G01 X-31.4111 Y9.5595
G01 X-31.4066 Y9.5708
G01 X-31.3736 Y9.6635
G01 X-31.3702 Y9.6752
G01 X-31.3464 Y9.7707
G01 X-31.3442 Y9.7826
G01 X-31.3299 Y9.8800
G01 X-31.3289 Y9.8921
G01 X-31.3243 Y9.9873
G00 Z2.0000
G00 X-33.5777 Y7.4550
G01 F60.00
G01 Z-0.1000
G01 F100.00
G01 X-33.5771 Y7.4242
G01 X-33.5741 Y7.3674
G01 X-33.5690 Y7.3155
G01 X-33.5609 Y7.2608
G01 X-33.5501 Y7.2066
G01 X-33.5366 Y7.1529
G01 X-33.5206 Y7.1000
G01 X-33.5020 Y7.0480
G01 X-33.4808 Y6.9969
G01 X-33.4572 Y6.9469
G01 X-33.4311 Y6.8982
G01 X-33.4027 Y6.8507
G01 X-33.3720 Y6.8048
G01 X-33.3390 Y6.7603
G01 X-33.3039 Y6.7176
G01 X-33.2668 Y6.6766
G01 X-33.2277 Y6.6375
G01 X-33.1868 Y6.6004
G01 X-33.1440 Y6.5653
G01 X-33.0996 Y6.5324
G01 X-33.0536 Y6.5017
G01 X-33.0062 Y6.4732
G01 X-32.9574 Y6.4472
G01 X-32.9075 Y6.4235
G01 X-32.8564 Y6.4024
G01 X-32.8043 Y6.3838
G01 X-32.7514 Y6.3677
G01 X-32.6978 Y6.3543
G01 X-32.6435 Y6.3435
G01 X-32.5888 Y6.3354
G01 X-32.5338 Y6.3300
G01 X-32.4786 Y6.3272
G01 X-32.4233 Y6.3272
G01 X-32.3681 Y6.3300
G01 X-32.3131 Y6.3354
G01 X-32.2584 Y6.3435
G01 X-32.2041 Y6.3543
G01 X-32.1505 Y6.3677
G01 X-32.0976 Y6.3838
G01 X-32.0455 Y6.4024
G01 X-31.9944 Y6.4235
G01 X-31.9445 Y6.4472
G01 X-31.8957 Y6.4732
G01 X-31.8483 Y6.5017
G01 X-31.8023 Y6.5324
G01 X-31.7579 Y6.5653
G01 X-31.7152 Y6.6004
G01 X-31.6742 Y6.6375
G01 X-31.6351 Y6.6766
G01 X-31.5980 Y6.7176
G01 X-31.5629 Y6.7603
G01 X-31.5299 Y6.8048
G01 X-31.4992 Y6.8507
G01 X-31.4708 Y6.8982
G01 X-31.4447 Y6.9469
G01 X-31.4211 Y6.9969
G01 X-31.3999 Y7.0480
G01 X-31.3813 Y7.1000
G01 X-31.3653 Y7.1529
G01 X-31.3518 Y7.2066
G01 X-31.3410 Y7.2608
G01 X-31.3329 Y7.3155
G01 X-31.3275 Y7.3705
G01 X-31.3248 Y7.4258
G01 X-31.3248 Y7.4810
G01 X-31.3275 Y7.5363
G01 X-31.3329 Y7.5913
G01 X-31.3410 Y7.6460
G01 X-31.3518 Y7.7002
G01 X-31.3653 Y7.7539
G01 X-31.3813 Y7.8068
G01 X-31.3999 Y7.8588
G01 X-31.4211 Y7.9099
G01 X-31.4447 Y7.9599
G01 X-31.4708 Y8.0086
G01 X-31.4992 Y8.0561
G01 X-31.5299 Y8.1020
G01 X-31.5629 Y8.1465
G01 X-31.5980 Y8.1892
G01 X-31.6351 Y8.2302
G01 X-31.6742 Y8.2693
G01 X-31.7152 Y8.3064
G01 X-31.7579 Y8.3415
G01 X-31.8023 Y8.3744
G01 X-31.8483 Y8.4051
G01 X-31.8957 Y8.4336
G01 X-31.9445 Y8.4596
G01 X-31.9944 Y8.4833
G01 X-32.0455 Y8.5044
G01 X-32.0976 Y8.5230
G01 X-32.1505 Y8.5391
G01 X-32.2041 Y8.5525
G01 X-32.2584 Y8.5633
G01 X-32.3131 Y8.5714
G01 X-32.3681 Y8.5768
G01 X-32.4233 Y8.5796
G01 X-32.4786 Y8.5796
G01 X-32.5338 Y8.5768
G01 X-32.5888 Y8.5714
G01 X-32.6435 Y8.5633
G01 X-32.6978 Y8.5525
G01 X-32.7514 Y8.5391
G01 X-32.8043 Y8.5230
G01 X-32.8564 Y8.5044
G01 X-32.9075 Y8.4833
G01 X-32.9574 Y8.4596
G01 X-33.0062 Y8.4336
G01 X-33.0536 Y8.4051
G01 X-33.0996 Y8.3744
G01 X-33.1440 Y8.3415
G01 X-33.1868 Y8.3064
G01 X-33.2277 Y8.2693
G01 X-33.2668 Y8.2302
G01 X-33.3039 Y8.1892
G01 X-33.3390 Y8.1465
G01 X-33.3720 Y8.1020
G01 X-33.4027 Y8.0561
G01 X-33.4311 Y8.0086
G01 X-33.4572 Y7.9599
G01 X-33.4808 Y7.9099
G01 X-33.5020 Y7.8588
G01 X-33.5206 Y7.8068
G01 X-33.5366 Y7.7539
G01 X-33.5501 Y7.7002
G01 X-33.5609 Y7.6460
G01 X-33.5690 Y7.5913
G01 X-33.5744 Y7.5363
G01 X-33.5771 Y7.4826
G01 X-33.5777 Y7.4550
G00 Z2.0000
G00 X-36.1177 Y9.9950
G01 F60.00
G01 Z-0.1000
G01 F100.00
G01 X-36.1171 Y9.9642
G01 X-36.1141 Y9.9074
G01 X-36.1090 Y9.8555
G01 X-36.1009 Y9.8008
G01 X-36.0901 Y9.7466
G01 X-36.0766 Y9.6929
G01 X-36.0606 Y9.6400
G01 X-36.0420 Y9.5880
G01 X-36.0208 Y9.5369
G01 X-35.9972 Y9.4869
G01 X-35.9711 Y9.4382
G01 X-35.9427 Y9.3907
G01 X-35.9120 Y9.3448
G01 X-35.8790 Y9.3003
G01 X-35.8439 Y9.2576
G01 X-35.8068 Y9.2166
G01 X-35.7677 Y9.1775
G01 X-35.7268 Y9.1404
G01 X-35.6840 Y9.1053
G01 X-35.6396 Y9.0724
G01 X-35.5936 Y9.0417
G01 X-35.5462 Y9.0132
G01 X-35.4974 Y8.9872
G01 X-35.4475 Y8.9635
G01 X-35.3964 Y8.9424
G01 X-35.3443 Y8.9238
G01 X-35.2914 Y8.9077
G01 X-35.2378 Y8.8943
G01 X-35.1835 Y8.8835
G01 X-35.1288 Y8.8754
G01 X-35.0738 Y8.8700
G01 X-35.0186 Y8.8672
G01 X-34.9633 Y8.8672
G01 X-34.9081 Y8.8700
G01 X-34.8531 Y8.8754
G01 X-34.7984 Y8.8835
G01 X-34.7441 Y8.8943
G01 X-34.6905 Y8.9077
G01 X-34.6376 Y8.9238
G01 X-34.5855 Y8.9424
G01 X-34.5344 Y8.9635
G01 X-34.4845 Y8.9872
G01 X-34.4357 Y9.0132
G01 X-34.3883 Y9.0417
G01 X-34.3423 Y9.0724
G01 X-34.2979 Y9.1053
G01 X-34.2552 Y9.1404
G01 X-34.2142 Y9.1775
G01 X-34.1751 Y9.2166
G01 X-34.1380 Y9.2576
G01 X-34.1029 Y9.3003
G01 X-34.0699 Y9.3448
G01 X-34.0392 Y9.3907
G01 X-34.0108 Y9.4382
G01 X-33.9847 Y9.4869
G01 X-33.9611 Y9.5369
G01 X-33.9399 Y9.5880
G01 X-33.9213 Y9.6400
G01 X-33.9053 Y9.6929
G01 X-33.8918 Y9.7466
G01 X-33.8810 Y9.8008
G01 X-33.8729 Y9.8555
G01 X-33.8675 Y9.9105
G01 X-33.8648 Y9.9658
G01 X-33.8648 Y10.0210
G01 X-33.8675 Y10.0763
G01 X-33.8729 Y10.1313
G01 X-33.8810 Y10.1860
G01 X-33.8918 Y10.2402
G01 X-33.9053 Y10.2939
G01 X-33.9213 Y10.3468
G01 X-33.9399 Y10.3988
G01 X-33.9611 Y10.4499
G01 X-33.9847 Y10.4999
G01 X-34.0108 Y10.5486
G01 X-34.0392 Y10.5961
G01 X-34.0699 Y10.6420
G01 X-34.1029 Y10.6865
G01 X-34.1380 Y10.7292
G01 X-34.1751 Y10.7702
G01 X-34.2142 Y10.8093
G01 X-34.2552 Y10.8464
G01 X-34.2979 Y10.8815
G01 X-34.3423 Y10.9144
G01 X-34.3883 Y10.9451
G01 X-34.4357 Y10.9736
G01 X-34.4845 Y10.9996
G01 X-34.5344 Y11.0233
G01 X-34.5855 Y11.0444
G01 X-34.6376 Y11.0630
G01 X-34.6905 Y11.0791
G01 X-34.7441 Y11.0925
G01 X-34.7984 Y11.1033
G01 X-34.8531 Y11.1114
G01 X-34.9081 Y11.1168
G01 X-34.9633 Y11.1196
G01 X-35.0186 Y11.1196
G01 X-35.0738 Y11.1168
G01 X-35.1288 Y11.1114
G01 X-35.1835 Y11.1033
G01 X-35.2378 Y11.0925
G01 X-35.2914 Y11.0791
G01 X-35.3443 Y11.0630
G01 X-35.3964 Y11.0444
G01 X-35.4475 Y11.0233
G01 X-35.4974 Y10.9996
G01 X-35.5462 Y10.9736
G01 X-35.5936 Y10.9451
G01 X-35.6396 Y10.9144
G01 X-35.6840 Y10.8815
G01 X-35.7268 Y10.8464
G01 X-35.7677 Y10.8093
G01 X-35.8068 Y10.7702
G01 X-35.8439 Y10.7292
G01 X-35.8790 Y10.6865
G01 X-35.9120 Y10.6420
G01 X-35.9427 Y10.5961
G01 X-35.9711 Y10.5486
G01 X-35.9972 Y10.4999
G01 X-36.0208 Y10.4499
G01 X-36.0420 Y10.3988
G01 X-36.0606 Y10.3468
G01 X-36.0766 Y10.2939
G01 X-36.0901 Y10.2402
G01 X-36.1009 Y10.1860
G01 X-36.1090 Y10.1313
G01 X-36.1144 Y10.0763
G01 X-36.1171 Y10.0226
G01 X-36.1177 Y9.9950
G00 Z2.0000
G00 X-38.6577 Y9.9950
G01 F60.00
G01 Z-0.1000
G01 F100.00
G01 X-38.6571 Y9.9642
G01 X-38.6541 Y9.9074
G01 X-38.6490 Y9.8555
G01 X-38.6403 Y9.7978
G01 X-38.6301 Y9.7466
G01 X-38.6166 Y9.6929
G01 X-38.6006 Y9.6400
G01 X-38.5808 Y9.5851
G01 X-38.5608 Y9.5369
G01 X-38.5372 Y9.4869
G01 X-38.5111 Y9.4382
G01 X-38.4827 Y9.3907
G01 X-38.4520 Y9.3448
G01 X-38.4190 Y9.3003
G01 X-38.3839 Y9.2576
G01 X-38.3446 Y9.2144
G01 X-38.3077 Y9.1775
G01 X-38.2667 Y9.1404
G01 X-38.2240 Y9.1053
G01 X-38.1796 Y9.0724
G01 X-38.1336 Y9.0417
G01 X-38.0862 Y9.0132
G01 X-38.0374 Y8.9872
G01 X-37.9875 Y8.9635
G01 X-37.9364 Y8.9424
G01 X-37.8843 Y8.9238
G01 X-37.8314 Y8.9077
G01 X-37.7778 Y8.8943
G01 X-37.7235 Y8.8835
G01 X-37.6688 Y8.8754
G01 X-37.6138 Y8.8700
G01 X-37.5555 Y8.8672
G01 X-37.5033 Y8.8672
G01 X-37.4481 Y8.8700
G01 X-37.3931 Y8.8754
G01 X-37.3384 Y8.8835
G01 X-37.2841 Y8.8943
G01 X-37.2305 Y8.9077
G01 X-37.1776 Y8.9238
G01 X-37.1255 Y8.9424
G01 X-37.0744 Y8.9635
G01 X-37.0245 Y8.9872
G01 X-36.9757 Y9.0132
G01 X-36.9283 Y9.0417
G01 X-36.8823 Y9.0724
G01 X-36.8379 Y9.1053
G01 X-36.7952 Y9.1404
G01 X-36.7542 Y9.1775
G01 X-36.7151 Y9.2166
G01 X-36.6780 Y9.2576
G01 X-36.6429 Y9.3003
G01 X-36.6099 Y9.3448
G01 X-36.5792 Y9.3907
G01 X-36.5508 Y9.4382
G01 X-36.5247 Y9.4869
G01 X-36.5011 Y9.5369
G01 X-36.4799 Y9.5880
G01 X-36.4613 Y9.6400
G01 X-36.4453 Y9.6929
G01 X-36.4318 Y9.7466
G01 X-36.4210 Y9.8008
G01 X-36.4129 Y9.8555
G01 X-36.4075 Y9.9105
G01 X-36.4048 Y9.9689
G01 X-36.4048 Y10.0210
G01 X-36.4075 Y10.0763
G01 X-36.4129 Y10.1313
G01 X-36.4210 Y10.1860
G01 X-36.4318 Y10.2402
G01 X-36.4453 Y10.2939
G01 X-36.4613 Y10.3468
G01 X-36.4799 Y10.3988
G01 X-36.5011 Y10.4499
G01 X-36.5247 Y10.4999
G01 X-36.5508 Y10.5486
G01 X-36.5792 Y10.5961
G01 X-36.6099 Y10.6420
