(G-CODE GENERATED BY FLATCAM v8.994 - www.flatcam.org - Version Date: 2020/11/7)

(Name: PCB_PCB1_854475050_copperTop.gtl_edit_1_iso_combined_cnc)
(Type: G-code from Geometry)
(Units: MM)

(Created on Sunday, 28 February 2021 at 20:11)

(This preprocessor is the default preprocessor used by FlatCAM.)
(It is made to work with MACH3 compatible motion controllers.)

(TOOL DIAMETER: 0.2536 mm)
(Feedrate_XY: 120.0 mm/min)
(Feedrate_Z: 60.0 mm/min)
(Feedrate rapids 1500.0 mm/min)

(Z_Cut: -0.1 mm)
(Z_Move: 2.0 mm)
(Z Start: None mm)
(Z End: 5.0 mm)
(X,Y End: None mm)
(Steps per circle: 64)
(Preprocessor Geometry: default)

(X range:    1.2198 ...   96.5794  mm)
(Y range:    2.6930 ...   49.1738  mm)

(Spindle Speed: 0.0 RPM)
G21
G90
G94

G01 F120.00

M5
G00 Z15.0000
G00 X0.0000 Y0.0000
T1
M6    
(MSG, Change to Tool Dia = 0.2536)
M0
G00 Z15.0000

M03
G01 F120.00
G00 X3.7344 Y14.2103
G01 F60.00
G01 Z-0.1000
G01 F120.00
G01 X3.6900 Y14.1943
G01 X3.6001 Y14.1518
G01 X3.5123 Y14.0993
G01 X3.4293 Y14.0379
G01 X3.3545 Y13.9701
G01 X3.2849 Y13.8935
G01 X3.2241 Y13.8115
G01 X3.1716 Y13.7239
G01 X3.1285 Y13.6328
G01 X3.0936 Y13.5353
G01 X3.0688 Y13.4363
G01 X3.0538 Y13.3355
G01 X3.0488 Y13.2334
G01 X3.0538 Y13.1313
G01 X3.0688 Y13.0305
G01 X3.0936 Y12.9315
G01 X3.1276 Y12.8363
G01 X3.1716 Y12.7429
G01 X3.2241 Y12.6553
G01 X3.2849 Y12.5733
G01 X3.3536 Y12.4976
G01 X3.4293 Y12.4289
G01 X3.5113 Y12.3681
G01 X3.5989 Y12.3156
G01 X3.6911 Y12.2720
G01 X3.7875 Y12.2376
G01 X3.8865 Y12.2128
G01 X3.9873 Y12.1978
G01 X4.0894 Y12.1928
G01 X4.1915 Y12.1978
G01 X4.2923 Y12.2128
G01 X4.3913 Y12.2376
G01 X4.4865 Y12.2716
G01 X4.5821 Y12.3169
G01 X4.6675 Y12.3681
G01 X4.7495 Y12.4289
G01 X4.8269 Y12.4994
G01 X4.8939 Y12.5733
G01 X4.9547 Y12.6553
G01 X5.0072 Y12.7429
G01 X5.0498 Y12.8329
G01 X5.0852 Y12.9315
G01 X5.1100 Y13.0305
G01 X5.1247 Y13.1290
G01 X5.1300 Y13.2346
G01 X5.1250 Y13.3355
G01 X5.1104 Y13.4340
G01 X5.0852 Y13.5353
G01 X5.0508 Y13.6317
G01 X5.0082 Y13.7217
G01 X4.9539 Y13.8125
G01 X4.8939 Y13.8935
G01 X4.8269 Y13.9674
G01 X4.7486 Y14.0386
G01 X4.6675 Y14.0987
G01 X4.5810 Y14.1506
G01 X4.4888 Y14.1943
G01 X4.4444 Y14.2103
G01 X4.4444 Y14.7965
G01 X4.4888 Y14.8125
G01 X4.5787 Y14.8550
G01 X4.6665 Y14.9075
G01 X4.7495 Y14.9689
G01 X4.8243 Y15.0367
G01 X4.8939 Y15.1133
G01 X4.9547 Y15.1953
G01 X5.0072 Y15.2829
G01 X5.0508 Y15.3751
G01 X5.0852 Y15.4715
G01 X5.1100 Y15.5705
G01 X5.1250 Y15.6713
G01 X5.1300 Y15.7746
G01 X5.1250 Y15.8755
G01 X5.1098 Y15.9775
G01 X5.0848 Y16.0766
G01 X5.0512 Y16.1705
G01 X5.0393 Y16.1960
G01 X6.8566 Y18.0133
G01 X6.8784 Y18.0375
G01 X6.8992 Y18.0654
G01 X6.9171 Y18.0954
G01 X6.9319 Y18.1267
G01 X6.9437 Y18.1597
G01 X6.9521 Y18.1934
G01 X6.9572 Y18.2277
G01 X6.9589 Y18.2614
G01 X6.9590 Y25.9334
G01 X6.9572 Y25.9683
G01 X6.9519 Y26.0037
G01 X6.9442 Y26.0345
G01 X6.9337 Y26.0648
G01 X6.9309 Y26.0715
G01 X6.9171 Y26.1006
G01 X6.9017 Y26.1266
G01 X6.8977 Y26.1326
G01 X6.8784 Y26.1585
G01 X6.8575 Y26.1819
G01 X5.0306 Y28.0324
G01 X5.0512 Y28.0763
G01 X5.0848 Y28.1702
G01 X5.1098 Y28.2693
G01 X5.1250 Y28.3713
G01 X5.1300 Y28.4722
G01 X5.1250 Y28.5755
G01 X5.1100 Y28.6763
G01 X5.0852 Y28.7753
G01 X5.0508 Y28.8717
G01 X5.0072 Y28.9639
G01 X4.9547 Y29.0515
G01 X4.8939 Y29.1335
G01 X4.8243 Y29.2101
G01 X4.7495 Y29.2779
G01 X4.6665 Y29.3393
G01 X4.5787 Y29.3918
G01 X4.4888 Y29.4343
G01 X4.4444 Y29.4503
G01 X4.4444 Y38.4610
G01 X11.8568 Y45.8734
G01 X32.0552 Y45.9238
G01 X47.2009 Y45.9238
G01 X72.5062 Y43.3984
G01 X74.2452 Y41.5877
G01 X74.2300 Y41.5512
G01 X74.2131 Y41.5038
G01 X74.1977 Y41.4534
G01 X74.1852 Y41.4034
G01 X74.1754 Y41.3541
G01 X74.1676 Y41.3019
G01 X74.1625 Y41.2506
G01 X74.1601 Y41.2004
G01 X74.1600 Y41.1476
G01 X74.1625 Y41.0962
G01 X74.1675 Y41.0461
G01 X74.1752 Y40.9939
G01 X74.1855 Y40.9422
G01 X74.1977 Y40.8934
G01 X74.2127 Y40.8442
G01 X74.2305 Y40.7945
G01 X74.2498 Y40.7480
G01 X74.2717 Y40.7016
G01 X74.2967 Y40.6549
G01 X74.3226 Y40.6118
G01 X74.3513 Y40.5689
G01 X74.3819 Y40.5276
G01 X74.4138 Y40.4887
G01 X74.4500 Y40.4487
G01 X74.4856 Y40.4132
G01 X74.5228 Y40.3794
G01 X74.5636 Y40.3459
G01 X74.6060 Y40.3145
G01 X74.6478 Y40.2866
G01 X74.6919 Y40.2601
G01 X74.7385 Y40.2352
G01 X74.7842 Y40.2137
G01 X74.8316 Y40.1940
G01 X74.8801 Y40.1767
G01 X74.9283 Y40.1621
G01 X74.9806 Y40.1490
G01 X75.0299 Y40.1392
G01 X75.0797 Y40.1318
G01 X75.1322 Y40.1265
G01 X75.1836 Y40.1240
G01 X75.2339 Y40.1240
G01 X75.2878 Y40.1267
G01 X75.3379 Y40.1316
G01 X75.3876 Y40.1390
G01 X75.4406 Y40.1495
G01 X75.4894 Y40.1617
G01 X75.5386 Y40.1767
G01 X75.5874 Y40.1941
G01 X75.6132 Y40.2048
G01 X77.3944 Y38.4589
G01 X77.3944 Y31.3684
G01 X73.5924 Y31.3684
G01 X73.5834 Y31.3934
G01 X73.5418 Y31.4810
G01 X73.4924 Y31.5633
G01 X73.4353 Y31.6403
G01 X73.3675 Y31.7150
G01 X73.2972 Y31.7786
G01 X73.2203 Y31.8357
G01 X73.1338 Y31.8874
G01 X73.0482 Y31.9278
G01 X72.9566 Y31.9606
G01 X72.8624 Y31.9842
G01 X72.7689 Y31.9981
G01 X72.6669 Y32.0031
G01 X72.5723 Y31.9984
G01 X72.4764 Y31.9842
G01 X72.3822 Y31.9606
G01 X72.2906 Y31.9278
G01 X72.2029 Y31.8864
G01 X72.1195 Y31.8364
G01 X72.0416 Y31.7786
G01 X71.9713 Y31.7150
G01 X71.9028 Y31.6394
G01 X71.8464 Y31.5633
G01 X71.7954 Y31.4778
G01 X71.7550 Y31.3922
G01 X71.7222 Y31.3006
G01 X71.6986 Y31.2064
G01 X71.6844 Y31.1105
G01 X71.6796 Y31.0134
G01 X71.6844 Y30.9163
G01 X71.6986 Y30.8204
G01 X71.7222 Y30.7262
G01 X71.7550 Y30.6346
G01 X71.7964 Y30.5469
G01 X71.8464 Y30.4635
G01 X71.9042 Y30.3856
G01 X71.9695 Y30.3135
G01 X72.0416 Y30.2482
G01 X72.1195 Y30.1904
G01 X72.2029 Y30.1404
G01 X72.2906 Y30.0990
G01 X72.3822 Y30.0662
G01 X72.4764 Y30.0426
G01 X72.5736 Y30.0283
G01 X72.6694 Y30.0236
G01 X72.7640 Y30.0282
G01 X72.8649 Y30.0432
G01 X72.9566 Y30.0662
G01 X73.0482 Y30.0990
G01 X73.1359 Y30.1404
G01 X73.2183 Y30.1897
G01 X73.2992 Y30.2499
G01 X73.3693 Y30.3135
G01 X73.4346 Y30.3856
G01 X73.4924 Y30.4635
G01 X73.5418 Y30.5458
G01 X73.5834 Y30.6334
G01 X73.5924 Y30.6584
G01 X77.4191 Y30.6584
G01 X77.3944 Y18.3141
G01 X77.3944 Y16.7609
G01 X77.3714 Y16.7527
G01 X77.3251 Y16.7335
G01 X77.2776 Y16.7111
G01 X77.2320 Y16.6867
G01 X77.1888 Y16.6609
G01 X77.1449 Y16.6315
G01 X77.1036 Y16.6009
G01 X77.0638 Y16.5682
G01 X77.0256 Y16.5336
G01 X76.9892 Y16.4972
G01 X76.9546 Y16.4590
G01 X76.9219 Y16.4192
G01 X76.8905 Y16.3768
G01 X76.8626 Y16.3350
G01 X76.8367 Y16.2919
G01 X76.8123 Y16.2464
G01 X76.7897 Y16.1986
G01 X76.7705 Y16.1523
G01 X76.7527 Y16.1027
G01 X76.7377 Y16.0534
G01 X76.7252 Y16.0034
G01 X76.7152 Y15.9529
G01 X76.7076 Y15.9019
G01 X76.7025 Y15.8506
G01 X76.7000 Y15.7992
G01 X76.7000 Y15.7476
G01 X76.7025 Y15.6962
G01 X76.7076 Y15.6449
G01 X76.7152 Y15.5939
G01 X76.7255 Y15.5422
G01 X76.7377 Y15.4934
G01 X76.7531 Y15.4430
G01 X76.7705 Y15.3945
G01 X76.7898 Y15.3480
G01 X76.8001 Y15.3261
G01 X74.9576 Y13.4835
G01 X74.9335 Y13.4566
G01 X74.9142 Y13.4306
G01 X74.8976 Y13.4029
G01 X74.8815 Y13.3693
G01 X74.8701 Y13.3375
G01 X74.8608 Y13.3002
G01 X74.8562 Y13.2683
G01 X74.8544 Y13.2334
G01 X74.8544 Y9.1409
G01 X74.8314 Y9.1327
G01 X74.7851 Y9.1135
G01 X74.7364 Y9.0905
G01 X74.6920 Y9.0667
G01 X74.6488 Y9.0409
G01 X74.6049 Y9.0115
G01 X74.5636 Y8.9809
G01 X74.5247 Y8.9490
G01 X74.4856 Y8.9136
G01 X74.4492 Y8.8772
G01 X74.4154 Y8.8400
G01 X74.3811 Y8.7982
G01 X74.3512 Y8.7578
G01 X74.3232 Y8.7160
G01 X74.2961 Y8.6709
G01 X74.2712 Y8.6243
G01 X74.2497 Y8.5786
G01 X74.2300 Y8.5312
G01 X74.2127 Y8.4827
G01 X74.1981 Y8.4345
G01 X74.1852 Y8.3834
G01 X74.1752 Y8.3329
G01 X74.1678 Y8.2831
G01 X74.1625 Y8.2306
G01 X74.1600 Y8.1792
G01 X74.1600 Y8.1276
G01 X74.1625 Y8.0762
G01 X74.1676 Y8.0249
G01 X74.1752 Y7.9739
G01 X74.1852 Y7.9234
G01 X74.1977 Y7.8734
G01 X74.2131 Y7.8230
G01 X74.2301 Y7.7754
G01 X74.2498 Y7.7280
G01 X74.2717 Y7.6816
G01 X74.2967 Y7.6349
G01 X74.3226 Y7.5918
G01 X74.3519 Y7.5480
G01 X74.3819 Y7.5076
G01 X74.4138 Y7.4687
G01 X74.4483 Y7.4305
G01 X74.4856 Y7.3932
G01 X74.5247 Y7.3578
G01 X74.5636 Y7.3259
G01 X74.6040 Y7.2959
G01 X74.6478 Y7.2666
G01 X74.6931 Y7.2395
G01 X74.7376 Y7.2157
G01 X74.7829 Y7.1943
G01 X74.8316 Y7.1740
G01 X74.8813 Y7.1563
G01 X74.9294 Y7.1417
G01 X74.9782 Y7.1295
G01 X75.0299 Y7.1192
G01 X75.0821 Y7.1115
G01 X75.1322 Y7.1065
G01 X75.1824 Y7.1041
G01 X75.2352 Y7.1040
G01 X75.2878 Y7.1067
G01 X75.3379 Y7.1116
G01 X75.3876 Y7.1190
G01 X75.4394 Y7.1292
G01 X75.4894 Y7.1417
G01 X75.5398 Y7.1571
G01 X75.5874 Y7.1741
G01 X75.6337 Y7.1933
G01 X75.6812 Y7.2157
G01 X75.7279 Y7.2407
G01 X75.7710 Y7.2666
G01 X75.8128 Y7.2945
G01 X75.8552 Y7.3259
G01 X75.8960 Y7.3594
G01 X75.9332 Y7.3932
G01 X75.9688 Y7.4287
G01 X76.0042 Y7.4678
G01 X76.0377 Y7.5086
G01 X76.0676 Y7.5490
G01 X76.0956 Y7.5908
G01 X76.1227 Y7.6359
G01 X76.1476 Y7.6825
G01 X76.1691 Y7.7282
G01 X76.1883 Y7.7745
G01 X76.2057 Y7.8230
G01 X76.2211 Y7.8734
G01 X76.2336 Y7.9234
G01 X76.2436 Y7.9739
G01 X76.2512 Y8.0249
G01 X76.2563 Y8.0762
G01 X76.2588 Y8.1276
G01 X76.2594 Y8.1546
G01 X76.2587 Y8.1804
G01 X76.2563 Y8.2306
G01 X76.2512 Y8.2819
G01 X76.2436 Y8.3329
G01 X76.2336 Y8.3834
G01 X76.2211 Y8.4334
G01 X76.2061 Y8.4826
G01 X76.1887 Y8.5314
G01 X76.1690 Y8.5788
G01 X76.1471 Y8.6252
G01 X76.1227 Y8.6708
G01 X76.0962 Y8.7150
G01 X76.0675 Y8.7579
G01 X76.0369 Y8.7992
G01 X76.0042 Y8.8390
G01 X75.9696 Y8.8772
G01 X75.9332 Y8.9136
G01 X75.8960 Y8.9474
G01 X75.8552 Y8.9809
G01 X75.8138 Y9.0116
G01 X75.7710 Y9.0402
G01 X75.7269 Y9.0667
G01 X75.6812 Y9.0911
G01 X75.6359 Y9.1125
G01 X75.5872 Y9.1328
G01 X75.5644 Y9.1409
G01 X75.5644 Y13.0864
G01 X77.3021 Y14.8241
G01 X77.3242 Y14.8137
G01 X77.3716 Y14.7940
G01 X77.4201 Y14.7767
G01 X77.4706 Y14.7614
G01 X77.5194 Y14.7492
G01 X77.5699 Y14.7392
G01 X77.6209 Y14.7316
G01 X77.6734 Y14.7265
G01 X77.7236 Y14.7240
G01 X77.7752 Y14.7240
G01 X77.8266 Y14.7265
G01 X77.8779 Y14.7316
G01 X77.9289 Y14.7392
G01 X77.9794 Y14.7492
G01 X78.0294 Y14.7617
G01 X78.0798 Y14.7771
G01 X78.1274 Y14.7941
G01 X78.1748 Y14.8138
G01 X78.2212 Y14.8357
G01 X78.2668 Y14.8601
G01 X78.3110 Y14.8866
G01 X78.3539 Y14.9153
G01 X78.3952 Y14.9459
G01 X78.4350 Y14.9786
G01 X78.4732 Y15.0132
G01 X78.5096 Y15.0496
G01 X78.5442 Y15.0878
G01 X78.5769 Y15.1276
G01 X78.6076 Y15.1690
G01 X78.6362 Y15.2118
G01 X78.6627 Y15.2559
G01 X78.6865 Y15.3004
G01 X78.7091 Y15.3482
G01 X78.7288 Y15.3956
G01 X78.7461 Y15.4441
G01 X78.7611 Y15.4934
G01 X78.7736 Y15.5434
G01 X78.7836 Y15.5939
G01 X78.7912 Y15.6449
G01 X78.7963 Y15.6974
G01 X78.7987 Y15.7464
G01 X78.7994 Y15.7722
G01 X78.7987 Y15.8004
G01 X78.7963 Y15.8506
G01 X78.7913 Y15.9007
G01 X78.7838 Y15.9516
G01 X78.7736 Y16.0034
G01 X78.7611 Y16.0534
G01 X78.7461 Y16.1026
G01 X78.7287 Y16.1514
G01 X78.7090 Y16.1988
G01 X78.6865 Y16.2464
G01 X78.6621 Y16.2919
G01 X78.6362 Y16.3350
G01 X78.6083 Y16.3768
G01 X78.5769 Y16.4192
G01 X78.5442 Y16.4590
G01 X78.5096 Y16.4972
G01 X78.4732 Y16.5336
G01 X78.4350 Y16.5682
G01 X78.3952 Y16.6009
G01 X78.3538 Y16.6316
G01 X78.3100 Y16.6609
G01 X78.2669 Y16.6867
G01 X78.2212 Y16.7111
G01 X78.1746 Y16.7331
G01 X78.1272 Y16.7528
G01 X78.1044 Y16.7609
G01 X78.1044 Y17.9584
G01 X84.4464 Y17.9584
G01 X84.4554 Y17.9334
G01 X84.4970 Y17.8458
G01 X84.5464 Y17.7635
G01 X84.6042 Y17.6856
G01 X84.6695 Y17.6135
G01 X84.7396 Y17.5499
G01 X84.8205 Y17.4897
G01 X84.9029 Y17.4404
G01 X84.9884 Y17.3999
G01 X85.0844 Y17.3656
G01 X85.1764 Y17.3426
G01 X85.2723 Y17.3284
G01 X85.3694 Y17.3236
G01 X85.4640 Y17.3282
G01 X85.5624 Y17.3426
G01 X85.6566 Y17.3662
G01 X85.7482 Y17.3990
G01 X85.8359 Y17.4404
G01 X85.9193 Y17.4904
G01 X85.9972 Y17.5482
G01 X86.0693 Y17.6135
G01 X86.1346 Y17.6856
G01 X86.1924 Y17.7635
G01 X86.2424 Y17.8469
G01 X86.2838 Y17.9346
G01 X86.3166 Y18.0262
G01 X86.3402 Y18.1204
G01 X86.3544 Y18.2163
G01 X86.3592 Y18.3134
G01 X86.3546 Y18.4080
G01 X86.3402 Y18.5064
G01 X86.3172 Y18.5984
G01 X86.2829 Y18.6944
G01 X86.2424 Y18.7799
G01 X86.1924 Y18.8633
G01 X86.1346 Y18.9412
G01 X86.0675 Y19.0150
G01 X85.9972 Y19.0786
G01 X85.9193 Y19.1364
G01 X85.8359 Y19.1864
G01 X85.7482 Y19.2278
G01 X85.6566 Y19.2606
G01 X85.5624 Y19.2842
G01 X85.4665 Y19.2984
G01 X85.3706 Y19.3032
G01 X85.2699 Y19.2981
G01 X85.1764 Y19.2842
G01 X85.0822 Y19.2606
G01 X84.9906 Y19.2278
G01 X84.9050 Y19.1874
G01 X84.8185 Y19.1357
G01 X84.7416 Y19.0786
G01 X84.6713 Y19.0150
G01 X84.6035 Y18.9403
G01 X84.5464 Y18.8633
G01 X84.4970 Y18.7810
G01 X84.4554 Y18.6934
G01 X84.4464 Y18.6684
G01 X78.1051 Y18.6684
G01 X78.1298 Y31.0134
G01 X78.1044 Y38.6092
G01 X78.1028 Y38.6411
G01 X78.0979 Y38.6756
G01 X78.0903 Y38.7067
G01 X78.0872 Y38.7168
G01 X78.0786 Y38.7408
G01 X78.0749 Y38.7493
G01 X78.0640 Y38.7724
G01 X78.0607 Y38.7786
G01 X78.0438 Y38.8062
G01 X78.0238 Y38.8331
G01 X78.0026 Y38.8567
G01 X76.1574 Y40.7234
G01 X76.1691 Y40.7482
G01 X76.1899 Y40.7988
G01 X79.3667 Y40.8175
G01 X79.3754 Y40.7934
G01 X79.4170 Y40.7058
G01 X79.4664 Y40.6235
G01 X79.5259 Y40.5436
G01 X79.5895 Y40.4735
G01 X79.6616 Y40.4082
G01 X79.7395 Y40.3504
G01 X79.8240 Y40.2998
G01 X79.9106 Y40.2590
G01 X80.0022 Y40.2262
G01 X80.0964 Y40.2026
G01 X80.1923 Y40.1884
G01 X80.2894 Y40.1836
G01 X80.3865 Y40.1884
G01 X80.4824 Y40.2026
G01 X80.5766 Y40.2262
G01 X80.6704 Y40.2599
G01 X80.7559 Y40.3004
G01 X80.8393 Y40.3504
G01 X80.9172 Y40.4082
G01 X80.9875 Y40.4718
G01 X81.0560 Y40.5474
G01 X81.1124 Y40.6235
G01 X81.1611 Y40.7047
G01 X81.2047 Y40.7969
G01 X81.2366 Y40.8862
G01 X81.2602 Y40.9804
G01 X81.2744 Y41.0763
G01 X81.2791 Y41.1709
G01 X81.2741 Y41.2729
G01 X81.2602 Y41.3664
G01 X81.2366 Y41.4606
G01 X81.2029 Y41.5544
G01 X81.1624 Y41.6399
G01 X81.1124 Y41.7233
G01 X81.0546 Y41.8012
G01 X80.9910 Y41.8715
G01 X80.9172 Y41.9386
G01 X80.8393 Y41.9964
G01 X80.7581 Y42.0451
G01 X80.6671 Y42.0883
G01 X80.5766 Y42.1206
G01 X80.4824 Y42.1442
G01 X80.3865 Y42.1584
G01 X80.2894 Y42.1632
G01 X80.1923 Y42.1584
G01 X80.0964 Y42.1442
G01 X80.0022 Y42.1206
G01 X79.9094 Y42.0874
G01 X79.8229 Y42.0464
G01 X79.7395 Y41.9964
G01 X79.6616 Y41.9386
G01 X79.5886 Y41.8724
G01 X79.5242 Y41.8012
G01 X79.4657 Y41.7223
G01 X79.4158 Y41.6388
G01 X79.3754 Y41.5534
G01 X79.3660 Y41.5274
G01 X76.2039 Y41.5088
G01 X76.1887 Y41.5514
G01 X76.1695 Y41.5977
G01 X76.1476 Y41.6443
G01 X76.1227 Y41.6908
G01 X76.0969 Y41.7340
G01 X76.0675 Y41.7779
G01 X76.0369 Y41.8192
G01 X76.0042 Y41.8590
G01 X75.9696 Y41.8972
G01 X75.9332 Y41.9336
G01 X75.8950 Y41.9682
G01 X75.8552 Y42.0009
G01 X75.8128 Y42.0323
G01 X75.7710 Y42.0602
G01 X75.7279 Y42.0861
G01 X75.6824 Y42.1105
G01 X75.6346 Y42.1331
G01 X75.5883 Y42.1523
G01 X75.5387 Y42.1701
G01 X75.4894 Y42.1851
G01 X75.4394 Y42.1976
G01 X75.3876 Y42.2078
G01 X75.3367 Y42.2153
G01 X75.2866 Y42.2203
G01 X75.2364 Y42.2227
G01 X75.1836 Y42.2228
G01 X75.1334 Y42.2203
G01 X75.0809 Y42.2152
G01 X75.0299 Y42.2076
G01 X74.9794 Y42.1976
G01 X74.9294 Y42.1851
G01 X74.8802 Y42.1701
G01 X74.8314 Y42.1527
G01 X74.7840 Y42.1330
G01 X74.7385 Y42.1116
G01 X74.7304 Y42.1073
G01 X72.9762 Y43.9339
G01 X72.9204 Y43.9898
G01 X72.8949 Y44.0129
G01 X72.8690 Y44.0323
G01 X72.8368 Y44.0518
G01 X72.8056 Y44.0666
G01 X72.7752 Y44.0776
G01 X72.7375 Y44.0872
G01 X72.7046 Y44.0920
G01 X47.2522 Y46.6321
G01 X47.2186 Y46.6338
G01 X32.0540 Y46.6338
G01 X11.7085 Y46.5830
G01 X11.6771 Y46.5814
G01 X11.6402 Y46.5761
G01 X11.6087 Y46.5683
G01 X11.5759 Y46.5568
G01 X11.5705 Y46.5546
G01 X11.5414 Y46.5407
G01 X11.5115 Y46.5227
G01 X11.4842 Y46.5023
G01 X11.4584 Y46.4790
G01 X3.8384 Y38.8590
G01 X3.8150 Y38.8331
G01 X3.7957 Y38.8072
G01 X3.7763 Y38.7752
G01 X3.7606 Y38.7415
G01 X3.7497 Y38.7109
G01 X3.7418 Y38.6796
G01 X3.7362 Y38.6429
G01 X3.7344 Y38.6080
G01 X3.7344 Y29.4503
G01 X3.6900 Y29.4343
G01 X3.5978 Y29.3906
G01 X3.5113 Y29.3387
G01 X3.4302 Y29.2786
G01 X3.3519 Y29.2074
G01 X3.2849 Y29.1335
G01 X3.2235 Y29.0505
G01 X3.1716 Y28.9639
G01 X3.1280 Y28.8717
G01 X3.0936 Y28.7753
G01 X3.0693 Y28.6788
G01 X3.0536 Y28.5729
G01 X3.0488 Y28.4734
G01 X3.0540 Y28.3701
G01 X3.0688 Y28.2705
G01 X3.0936 Y28.1715
G01 X3.1280 Y28.0751
G01 X3.1716 Y27.9829
G01 X3.2241 Y27.8953
G01 X3.2849 Y27.8133
G01 X3.3536 Y27.7376
G01 X3.4293 Y27.6689
G01 X3.5113 Y27.6081
G01 X3.5967 Y27.5569
G01 X3.6911 Y27.5120
G01 X3.7897 Y27.4770
G01 X3.8865 Y27.4528
G01 X3.9861 Y27.4380
G01 X4.0919 Y27.4329
G01 X4.1915 Y27.4378
G01 X4.2912 Y27.4526
G01 X4.3926 Y27.4780
G01 X4.4865 Y27.5116
G01 X4.5280 Y27.5311
G01 X6.2490 Y25.7877
G01 X6.2490 Y18.4096
G01 X4.5465 Y16.7070
G01 X4.4865 Y16.7352
G01 X4.3902 Y16.7696
G01 X4.2923 Y16.7940
G01 X4.1902 Y16.8091
G01 X4.0894 Y16.8140
G01 X3.9873 Y16.8090
G01 X3.8865 Y16.7940
G01 X3.7862 Y16.7688
G01 X3.6911 Y16.7348
G01 X3.5989 Y16.6912
G01 X3.5113 Y16.6387
G01 X3.4293 Y16.5779
G01 X3.3536 Y16.5092
G01 X3.2849 Y16.4335
G01 X3.2241 Y16.3515
G01 X3.1729 Y16.2661
G01 X3.1280 Y16.1717
G01 X3.0936 Y16.0753
G01 X3.0688 Y15.9763
G01 X3.0538 Y15.8755
G01 X3.0488 Y15.7734
G01 X3.0538 Y15.6713
G01 X3.0688 Y15.5705
G01 X3.0932 Y15.4726
G01 X3.1280 Y15.3751
G01 X3.1729 Y15.2807
G01 X3.2241 Y15.1953
G01 X3.2835 Y15.1152
G01 X3.3527 Y15.0385
G01 X3.4293 Y14.9689
G01 X3.5123 Y14.9075
G01 X3.6001 Y14.8550
G01 X3.6900 Y14.8125
G01 X3.7344 Y14.7965
G01 X3.7344 Y14.2103
G00 Z2.0000
G00 X5.1299 Y18.3159
G01 F60.00
G01 Z-0.1000
G01 F120.00
G01 X5.1250 Y18.4155
G01 X5.1100 Y18.5163
G01 X5.0852 Y18.6153
G01 X5.0508 Y18.7117
G01 X5.0072 Y18.8039
G01 X4.9547 Y18.8915
G01 X4.8939 Y18.9735
G01 X4.8252 Y19.0492
G01 X4.7495 Y19.1179
G01 X4.6675 Y19.1787
G01 X4.5799 Y19.2312
G01 X4.4877 Y19.2748
G01 X4.3913 Y19.3092
G01 X4.2923 Y19.3340
G01 X4.1915 Y19.3490
G01 X4.0894 Y19.3540
G01 X3.9873 Y19.3490
G01 X3.8865 Y19.3340
G01 X3.7875 Y19.3092
G01 X3.6911 Y19.2748
G01 X3.5989 Y19.2312
G01 X3.5113 Y19.1787
G01 X3.4293 Y19.1179
G01 X3.3536 Y19.0492
G01 X3.2849 Y18.9735
G01 X3.2241 Y18.8915
G01 X3.1716 Y18.8039
G01 X3.1280 Y18.7117
G01 X3.0936 Y18.6153
G01 X3.0688 Y18.5163
G01 X3.0538 Y18.4155
G01 X3.0488 Y18.3134
G01 X3.0538 Y18.2113
G01 X3.0688 Y18.1105
G01 X3.0936 Y18.0115
G01 X3.1280 Y17.9151
G01 X3.1716 Y17.8229
G01 X3.2241 Y17.7353
G01 X3.2849 Y17.6533
G01 X3.3536 Y17.5776
G01 X3.4293 Y17.5089
G01 X3.5113 Y17.4481
G01 X3.5989 Y17.3956
G01 X3.6911 Y17.3520
G01 X3.7875 Y17.3176
G01 X3.8865 Y17.2928
G01 X3.9873 Y17.2778
G01 X4.0894 Y17.2728
G01 X4.1915 Y17.2778
G01 X4.2923 Y17.2928
G01 X4.3913 Y17.3176
G01 X4.4877 Y17.3520
G01 X4.5799 Y17.3956
G01 X4.6675 Y17.4481
G01 X4.7495 Y17.5089
G01 X4.8252 Y17.5776
G01 X4.8939 Y17.6533
G01 X4.9547 Y17.7353
G01 X5.0072 Y17.8229
G01 X5.0508 Y17.9151
G01 X5.0852 Y18.0115
G01 X5.1100 Y18.1105
G01 X5.1250 Y18.2113
G01 X5.1299 Y18.3159
G00 Z2.0000
G00 X5.1299 Y20.8559
G01 F60.00
G01 Z-0.1000
G01 F120.00
G01 X5.1250 Y20.9555
G01 X5.1100 Y21.0563
G01 X5.0852 Y21.1553
G01 X5.0508 Y21.2517
G01 X5.0072 Y21.3439
G01 X4.9547 Y21.4315
G01 X4.8939 Y21.5135
G01 X4.8252 Y21.5892
G01 X4.7495 Y21.6579
G01 X4.6675 Y21.7187
G01 X4.5799 Y21.7712
G01 X4.4877 Y21.8148
G01 X4.3913 Y21.8492
G01 X4.2923 Y21.8740
G01 X4.1915 Y21.8890
G01 X4.0894 Y21.8940
G01 X3.9873 Y21.8890
G01 X3.8865 Y21.8740
G01 X3.7875 Y21.8492
G01 X3.6911 Y21.8148
G01 X3.5989 Y21.7712
G01 X3.5113 Y21.7187
G01 X3.4293 Y21.6579
G01 X3.3536 Y21.5892
G01 X3.2849 Y21.5135
G01 X3.2241 Y21.4315
G01 X3.1716 Y21.3439
G01 X3.1280 Y21.2517
G01 X3.0936 Y21.1553
G01 X3.0688 Y21.0563
G01 X3.0538 Y20.9555
G01 X3.0488 Y20.8534
G01 X3.0538 Y20.7513
G01 X3.0688 Y20.6505
G01 X3.0936 Y20.5515
G01 X3.1280 Y20.4551
G01 X3.1716 Y20.3629
G01 X3.2241 Y20.2753
G01 X3.2849 Y20.1933
G01 X3.3536 Y20.1176
G01 X3.4293 Y20.0489
G01 X3.5113 Y19.9881
G01 X3.5989 Y19.9356
G01 X3.6911 Y19.8920
G01 X3.7875 Y19.8576
G01 X3.8865 Y19.8328
G01 X3.9873 Y19.8178
G01 X4.0894 Y19.8128
G01 X4.1915 Y19.8178
G01 X4.2923 Y19.8328
G01 X4.3913 Y19.8576
G01 X4.4877 Y19.8920
G01 X4.5799 Y19.9356
G01 X4.6675 Y19.9881
G01 X4.7495 Y20.0489
G01 X4.8252 Y20.1176
G01 X4.8939 Y20.1933
G01 X4.9547 Y20.2753
G01 X5.0072 Y20.3629
G01 X5.0508 Y20.4551
G01 X5.0852 Y20.5515
G01 X5.1100 Y20.6505
G01 X5.1250 Y20.7513
G01 X5.1299 Y20.8559
G00 Z2.0000
G00 X5.1299 Y23.3959
G01 F60.00
G01 Z-0.1000
G01 F120.00
G01 X5.1250 Y23.4955
G01 X5.1100 Y23.5963
G01 X5.0852 Y23.6953
G01 X5.0508 Y23.7917
G01 X5.0072 Y23.8839
G01 X4.9547 Y23.9715
G01 X4.8939 Y24.0535
G01 X4.8252 Y24.1292
G01 X4.7495 Y24.1979
G01 X4.6675 Y24.2587
G01 X4.5799 Y24.3112
G01 X4.4877 Y24.3548
G01 X4.3913 Y24.3892
G01 X4.2923 Y24.4140
G01 X4.1915 Y24.4290
G01 X4.0894 Y24.4340
G01 X3.9873 Y24.4290
G01 X3.8865 Y24.4140
G01 X3.7875 Y24.3892
G01 X3.6911 Y24.3548
G01 X3.5989 Y24.3112
G01 X3.5113 Y24.2587
G01 X3.4293 Y24.1979
G01 X3.3536 Y24.1292
G01 X3.2849 Y24.0535
G01 X3.2241 Y23.9715
G01 X3.1716 Y23.8839
G01 X3.1280 Y23.7917
G01 X3.0936 Y23.6953
G01 X3.0688 Y23.5963
G01 X3.0538 Y23.4955
G01 X3.0488 Y23.3934
G01 X3.0538 Y23.2913
G01 X3.0688 Y23.1905
G01 X3.0936 Y23.0915
G01 X3.1280 Y22.9951
G01 X3.1716 Y22.9029
G01 X3.2241 Y22.8153
G01 X3.2849 Y22.7333
G01 X3.3536 Y22.6576
G01 X3.4293 Y22.5889
G01 X3.5113 Y22.5281
G01 X3.5989 Y22.4756
G01 X3.6911 Y22.4320
G01 X3.7875 Y22.3976
G01 X3.8865 Y22.3728
G01 X3.9873 Y22.3578
G01 X4.0894 Y22.3528
G01 X4.1915 Y22.3578
G01 X4.2923 Y22.3728
G01 X4.3913 Y22.3976
G01 X4.4877 Y22.4320
G01 X4.5799 Y22.4756
G01 X4.6675 Y22.5281
G01 X4.7495 Y22.5889
G01 X4.8252 Y22.6576
G01 X4.8939 Y22.7333
G01 X4.9547 Y22.8153
G01 X5.0072 Y22.9029
G01 X5.0508 Y22.9951
G01 X5.0852 Y23.0915
G01 X5.1100 Y23.1905
G01 X5.1250 Y23.2913
G01 X5.1299 Y23.3959
G00 Z2.0000
G00 X1.2205 Y28.4836
G01 F60.00
G01 Z-0.1000
G01 F120.00
G01 X1.2211 Y28.4697
G01 X1.2217 Y28.4628
G01 X1.2256 Y28.4354
G01 X1.2269 Y28.4285
G01 X1.2351 Y28.3959
G01 X1.2469 Y28.3629
G01 X1.2617 Y28.3316
G01 X1.2772 Y28.3054
G01 X1.2978 Y28.2769
G01 X1.3198 Y28.2519
G01 X3.1489 Y26.3759
G01 X3.1276 Y26.3305
G01 X3.0932 Y26.2342
G01 X3.0688 Y26.1363
G01 X3.0540 Y26.0367
G01 X3.0489 Y25.9309
G01 X3.0538 Y25.8313
G01 X3.0690 Y25.7293
G01 X3.0936 Y25.6315
G01 X3.1280 Y25.5351
G01 X3.1716 Y25.4429
G01 X3.2229 Y25.3573
G01 X3.2866 Y25.2714
G01 X3.3536 Y25.1976
G01 X3.4284 Y25.1297
G01 X3.5113 Y25.0681
G01 X3.5989 Y25.0156
G01 X3.6911 Y24.9720
G01 X3.7875 Y24.9376
G01 X3.8865 Y24.9128
G01 X3.9873 Y24.8978
G01 X4.0894 Y24.8928
G01 X4.1915 Y24.8978
G01 X4.2923 Y24.9128
G01 X4.3913 Y24.9376
G01 X4.4877 Y24.9720
G01 X4.5799 Y25.0156
G01 X4.6675 Y25.0681
G01 X4.7495 Y25.1289
G01 X4.8252 Y25.1976
G01 X4.8931 Y25.2724
G01 X4.9547 Y25.3553
G01 X5.0059 Y25.4407
G01 X5.0517 Y25.5375
G01 X5.0852 Y25.6315
G01 X5.1100 Y25.7305
G01 X5.1250 Y25.8313
G01 X5.1300 Y25.9334
G01 X5.1250 Y26.0355
G01 X5.1100 Y26.1363
G01 X5.0852 Y26.2353
G01 X5.0517 Y26.3293
G01 X5.0059 Y26.4261
G01 X4.9547 Y26.5115
G01 X4.8931 Y26.5944
G01 X4.8252 Y26.6692
G01 X4.7514 Y26.7362
G01 X4.6655 Y26.7999
G01 X4.5799 Y26.8512
G01 X4.4877 Y26.8948
G01 X4.3913 Y26.9292
G01 X4.2935 Y26.9538
G01 X4.1915 Y26.9690
G01 X4.0919 Y26.9739
G01 X3.9861 Y26.9688
G01 X3.8865 Y26.9540
G01 X3.7886 Y26.9296
G01 X3.6923 Y26.8952
G01 X3.6523 Y26.8765
G01 X1.9298 Y28.6432
G01 X1.9298 Y38.4618
G01 X11.8568 Y48.4635
G01 X32.0540 Y48.4130
G01 X42.1975 Y48.4384
G01 X67.5050 Y45.9001
G01 X67.5386 Y45.8984
G01 X74.2219 Y45.8984
G01 X74.2301 Y45.8754
G01 X74.2493 Y45.8291
G01 X74.2723 Y45.7804
G01 X74.2961 Y45.7360
G01 X74.3219 Y45.6928
G01 X74.3513 Y45.6489
G01 X74.3819 Y45.6076
G01 X74.4138 Y45.5687
G01 X74.4492 Y45.5296
G01 X74.4856 Y45.4932
G01 X74.5228 Y45.4594
G01 X74.5646 Y45.4251
G01 X74.6050 Y45.3952
G01 X74.6468 Y45.3672
G01 X74.6919 Y45.3401
G01 X74.7385 Y45.3152
G01 X74.7842 Y45.2937
G01 X74.8316 Y45.2740
G01 X74.8801 Y45.2567
G01 X74.9283 Y45.2421
G01 X74.9794 Y45.2292
G01 X75.0299 Y45.2192
G01 X75.0797 Y45.2118
G01 X75.1322 Y45.2065
G01 X75.1836 Y45.2040
G01 X75.2339 Y45.2040
G01 X75.2878 Y45.2067
G01 X75.3379 Y45.2116
G01 X75.3889 Y45.2192
G01 X75.4394 Y45.2292
G01 X75.4882 Y45.2414
G01 X75.5398 Y45.2571
G01 X75.5874 Y45.2741
G01 X75.6348 Y45.2938
G01 X75.6812 Y45.3157
G01 X75.7257 Y45.3395
G01 X75.7710 Y45.3666
G01 X75.8139 Y45.3953
G01 X75.8542 Y45.4251
G01 X75.8960 Y45.4594
G01 X75.9332 Y45.4932
G01 X75.9696 Y45.5296
G01 X76.0042 Y45.5678
G01 X76.0362 Y45.6066
G01 X76.0683 Y45.6500
G01 X76.0962 Y45.6918
G01 X76.1232 Y45.7368
G01 X76.1471 Y45.7816
G01 X76.1685 Y45.8269
G01 X76.1888 Y45.8756
G01 X76.1969 Y45.8984
G01 X80.1678 Y45.8984
G01 X82.4998 Y43.5664
G01 X82.4998 Y38.9681
G01 X81.2131 Y38.9864
G01 X81.2034 Y39.0134
G01 X81.1618 Y39.1010
G01 X81.1124 Y39.1833
G01 X81.0538 Y39.2621
G01 X80.9893 Y39.3333
G01 X80.9172 Y39.3986
G01 X80.8393 Y39.4564
G01 X80.7548 Y39.5070
G01 X80.6682 Y39.5478
G01 X80.5766 Y39.5806
G01 X80.4824 Y39.6042
G01 X80.3865 Y39.6184
G01 X80.2894 Y39.6232
G01 X80.1923 Y39.6184
G01 X80.0964 Y39.6042
G01 X80.0022 Y39.5806
G01 X79.9106 Y39.5478
G01 X79.8207 Y39.5051
G01 X79.7395 Y39.4564
G01 X79.6634 Y39.4000
G01 X79.5895 Y39.3333
G01 X79.5242 Y39.2612
G01 X79.4651 Y39.1812
G01 X79.4164 Y39.0999
G01 X79.3759 Y39.0144
G01 X79.3430 Y38.9231
G01 X79.3186 Y38.8264
G01 X79.3044 Y38.7305
G01 X79.2996 Y38.6334
G01 X79.3047 Y38.5339
G01 X79.3192 Y38.4379
G01 X79.3422 Y38.3462
G01 X79.3741 Y38.2569
G01 X79.4164 Y38.1669
G01 X79.4678 Y38.0815
G01 X79.5242 Y38.0056
G01 X79.5878 Y37.9353
G01 X79.6616 Y37.8682
G01 X79.7416 Y37.8091
G01 X79.8229 Y37.7604
G01 X79.9084 Y37.7199
G01 X80.0022 Y37.6862
G01 X80.0987 Y37.6622
G01 X80.1923 Y37.6484
G01 X80.2869 Y37.6437
G01 X80.3840 Y37.6482
G01 X80.4849 Y37.6632
G01 X80.5766 Y37.6862
G01 X80.6682 Y37.7190
G01 X80.7581 Y37.7617
G01 X80.8393 Y37.8104
G01 X80.9154 Y37.8668
G01 X80.9910 Y37.9353
G01 X81.0546 Y38.0056
G01 X81.1110 Y38.0815
G01 X81.1624 Y38.1669
G01 X81.2034 Y38.2534
G01 X81.2117 Y38.2765
G01 X82.7682 Y38.2542
G01 X87.5548 Y35.8490
G01 X87.5796 Y18.4363
G01 X85.8830 Y16.7632
G01 X84.4296 Y16.7632
G01 X84.4235 Y16.7628
G01 X84.4186 Y16.7620
G01 X84.4093 Y16.7589
G01 X84.4049 Y16.7567
G01 X84.3998 Y16.7533
G01 X84.3960 Y16.7502
G01 X84.3917 Y16.7459
G01 X84.3861 Y16.7379
G01 X84.3825 Y16.7301
G01 X84.3803 Y16.7218
G01 X84.3796 Y16.7132
G01 X84.3796 Y14.8336
G01 X84.3803 Y14.8250
G01 X84.3830 Y14.8156
G01 X84.3867 Y14.8079
G01 X84.3926 Y14.8000
G01 X84.3969 Y14.7957
G01 X84.4008 Y14.7927
G01 X84.4093 Y14.7879
G01 X84.4186 Y14.7848
G01 X84.4235 Y14.7840
G01 X84.4296 Y14.7836
G01 X86.3092 Y14.7836
G01 X86.3178 Y14.7843
G01 X86.3272 Y14.7870
G01 X86.3349 Y14.7907
G01 X86.3428 Y14.7966
G01 X86.3471 Y14.8009
G01 X86.3501 Y14.8048
G01 X86.3549 Y14.8133
G01 X86.3567 Y14.8179
G01 X86.3582 Y14.8238
G01 X86.3592 Y14.8336
G01 X86.3592 Y16.2358
G01 X88.1870 Y18.0382
G01 X88.2094 Y18.0631
G01 X88.2284 Y18.0885
G01 X88.2464 Y18.1181
G01 X88.2608 Y18.1476
G01 X88.2638 Y18.1549
G01 X88.2750 Y18.1867
G01 X88.2830 Y18.2193
G01 X88.2878 Y18.2505
G01 X88.2898 Y18.2885
G01 X88.2644 Y36.0685
G01 X88.2642 Y36.0782
G01 X88.2626 Y36.1033
G01 X88.2613 Y36.1141
G01 X88.2577 Y36.1365
G01 X88.2557 Y36.1459
G01 X88.2493 Y36.1702
G01 X88.2463 Y36.1797
G01 X88.2376 Y36.2032
G01 X88.2338 Y36.2121
G01 X88.2222 Y36.2358
G01 X88.2176 Y36.2440
G01 X88.2049 Y36.2646
G01 X88.1987 Y36.2736
G01 X88.1843 Y36.2926
G01 X88.1765 Y36.3017
G01 X88.1609 Y36.3184
G01 X88.1540 Y36.3252
G01 X88.1352 Y36.3419
G01 X88.1275 Y36.3480
G01 X88.1072 Y36.3627
G01 X88.1001 Y36.3674
G01 X88.0762 Y36.3813
G01 X83.2098 Y38.8269
G01 X83.2098 Y43.7134
G01 X83.2080 Y43.7483
G01 X83.2034 Y43.7802
G01 X83.1937 Y43.8188
G01 X83.1817 Y43.8515
G01 X83.1679 Y43.8806
G01 X83.1512 Y43.9085
G01 X83.1292 Y43.9385
G01 X83.1058 Y43.9644
G01 X80.5658 Y46.5044
G01 X80.5408 Y46.5271
G01 X80.5120 Y46.5486
G01 X80.4843 Y46.5652
G01 X80.4483 Y46.5822
G01 X80.4177 Y46.5931
G01 X80.3840 Y46.6015
G01 X80.3497 Y46.6066
G01 X80.3160 Y46.6083
G01 X76.1969 Y46.6084
G01 X76.1887 Y46.6314
G01 X76.1695 Y46.6777
G01 X76.1465 Y46.7264
G01 X76.1227 Y46.7708
G01 X76.0969 Y46.8140
G01 X76.0675 Y46.8579
G01 X76.0369 Y46.8992
G01 X76.0050 Y46.9381
G01 X75.9696 Y46.9772
G01 X75.9332 Y47.0136
G01 X75.8960 Y47.0474
G01 X75.8552 Y47.0809
G01 X75.8128 Y47.1123
G01 X75.7710 Y47.1402
G01 X75.7269 Y47.1667
G01 X75.6803 Y47.1916
G01 X75.6346 Y47.2131
G01 X75.5883 Y47.2323
G01 X75.5387 Y47.2501
G01 X75.4882 Y47.2654
G01 X75.4394 Y47.2776
G01 X75.3901 Y47.2874
G01 X75.3379 Y47.2952
G01 X75.2866 Y47.3003
G01 X75.2364 Y47.3027
G01 X75.1824 Y47.3027
G01 X75.1322 Y47.3003
G01 X75.0809 Y47.2952
G01 X75.0299 Y47.2876
G01 X74.9794 Y47.2776
G01 X74.9294 Y47.2651
G01 X74.8813 Y47.2505
G01 X74.8305 Y47.2323
G01 X74.7840 Y47.2130
G01 X74.7376 Y47.1911
G01 X74.6920 Y47.1667
G01 X74.6488 Y47.1409
G01 X74.6049 Y47.1115
G01 X74.5646 Y47.0817
G01 X74.5228 Y47.0474
G01 X74.4856 Y47.0136
G01 X74.4492 Y46.9772
G01 X74.4146 Y46.9390
G01 X74.3826 Y46.9002
G01 X74.3505 Y46.8568
G01 X74.3226 Y46.8150
G01 X74.2956 Y46.7700
G01 X74.2717 Y46.7252
G01 X74.2503 Y46.6799
G01 X74.2300 Y46.6312
G01 X74.2219 Y46.6084
G01 X67.5564 Y46.6084
G01 X42.2502 Y49.1466
G01 X42.2179 Y49.1483
G01 X32.0548 Y49.1230
G01 X11.7103 Y49.1738
G01 X11.6779 Y49.1723
G01 X11.6709 Y49.1716
G01 X11.6390 Y49.1667
G01 X11.6096 Y49.1594
G01 X11.6028 Y49.1573
G01 X11.5724 Y49.1463
G01 X11.5451 Y49.1334
G01 X11.5388 Y49.1300
G01 X11.5111 Y49.1132
G01 X11.4865 Y49.0950
G01 X11.4813 Y49.0907
G01 X11.4576 Y49.0690
G01 X1.3229 Y38.8580
G01 X1.3004 Y38.8331
G01 X1.2811 Y38.8072
G01 X1.2776 Y38.8020
G01 X1.2605 Y38.7730
G01 X1.2479 Y38.7461
G01 X1.2455 Y38.7403
G01 X1.2351 Y38.7109
G01 X1.2272 Y38.6796
G01 X1.2260 Y38.6735
G01 X1.2216 Y38.6429
G01 X1.2198 Y38.6080
G01 X1.2198 Y28.4988
G01 X1.2205 Y28.4836
G00 Z2.0000
G00 X6.2745 Y33.5551
G01 F60.00
G01 Z-0.1000
G01 F120.00
G01 X6.2759 Y33.5216
G01 X6.2806 Y33.4874
G01 X6.2888 Y33.4534
G01 X6.2993 Y33.4231
G01 X6.3020 Y33.4164
G01 X6.3147 Y33.3892
G01 X6.3310 Y33.3612
G01 X6.3349 Y33.3552
G01 X6.3513 Y33.3329
G01 X6.3566 Y33.3264
G01 X6.3784 Y33.3024
G01 X6.4043 Y33.2790
G01 X6.4322 Y33.2582
G01 X6.4622 Y33.2403
G01 X6.4935 Y33.2255
G01 X6.5236 Y33.2146
G01 X6.5571 Y33.2059
G01 X6.5901 Y33.2006
G01 X6.5971 Y33.2000
G01 X6.6294 Y33.1984
G01 X8.8140 Y33.1984
G01 X8.7890 Y13.2080
G01 X8.7908 Y13.1732
G01 X8.7959 Y13.1388
G01 X8.8043 Y13.1050
G01 X8.8161 Y13.0722
G01 X8.8309 Y13.0407
G01 X8.8489 Y13.0108
G01 X8.8694 Y12.9831
G01 X8.8927 Y12.9573
G01 X19.0530 Y2.7970
G01 X19.0808 Y2.7721
G01 X19.1068 Y2.7528
G01 X19.1345 Y2.7362
G01 X19.1681 Y2.7201
G01 X19.2011 Y2.7083
G01 X19.2348 Y2.6999
G01 X19.2668 Y2.6951
G01 X19.3040 Y2.6930
G01 X77.7748 Y2.6930
G01 X77.8007 Y2.6940
G01 X77.8108 Y2.6949
G01 X77.8352 Y2.6982
G01 X77.8451 Y2.7001
G01 X77.8693 Y2.7059
G01 X77.8789 Y2.7087
G01 X77.9024 Y2.7168
G01 X77.9118 Y2.7206
G01 X77.9342 Y2.7308
G01 X87.2047 Y7.3893
G01 X87.2493 Y7.3489
G01 X87.3303 Y7.2889
G01 X87.4201 Y7.2350
G01 X87.5111 Y7.1920
G01 X87.6050 Y7.1584
G01 X87.7076 Y7.1326
G01 X87.8073 Y7.1178
G01 X87.9069 Y7.1129
G01 X88.0115 Y7.1178
G01 X88.1123 Y7.1328
G01 X88.2091 Y7.1570
G01 X88.3099 Y7.1930
G01 X88.4021 Y7.2369
G01 X88.4875 Y7.2881
G01 X88.5676 Y7.3475
G01 X88.6452 Y7.4176
G01 X88.7122 Y7.4914
G01 X88.7747 Y7.5753
G01 X88.8272 Y7.6629
G01 X88.8708 Y7.7551
G01 X88.9052 Y7.8515
G01 X88.9300 Y7.9505
G01 X88.9447 Y8.0490
G01 X88.9500 Y8.1534
G01 X88.9447 Y8.2578
G01 X88.9300 Y8.3563
G01 X88.9052 Y8.4553
G01 X88.8708 Y8.5517
G01 X88.8266 Y8.6450
G01 X88.7732 Y8.7335
G01 X88.7139 Y8.8135
G01 X88.6668 Y8.8655
G01 X88.6655 Y8.8741
G01 X88.6579 Y8.9081
G01 X88.6479 Y8.9392
G01 X88.6330 Y8.9730
G01 X88.6171 Y9.0014
G01 X88.5977 Y9.0295
G01 X88.5747 Y9.0566
G01 X88.5507 Y9.0799
G01 X88.5204 Y9.1038
G01 X88.4935 Y9.1211
G01 X88.4619 Y9.1373
G01 X88.4274 Y9.1507
G01 X88.3958 Y9.1596
G01 X88.3644 Y9.1654
G01 X88.3270 Y9.1686
G01 X88.2914 Y9.1679
G01 X88.2567 Y9.1638
G01 X88.2249 Y9.1569
G01 X88.2054 Y9.1508
G01 X88.1123 Y9.1740
G01 X88.0138 Y9.1887
G01 X87.9106 Y9.1940
G01 X87.8073 Y9.1890
G01 X87.7065 Y9.1740
G01 X87.6075 Y9.1492
G01 X87.5123 Y9.1152
G01 X87.4189 Y9.0712
G01 X87.3333 Y9.0199
G01 X87.2474 Y8.9562
G01 X87.1736 Y8.8892
G01 X87.1049 Y8.8135
G01 X87.0441 Y8.7315
G01 X86.9922 Y8.6450
G01 X86.9480 Y8.5517
G01 X86.9144 Y8.4578
G01 X86.8886 Y8.3552
G01 X86.8738 Y8.2555
G01 X86.8688 Y8.1546
G01 X86.8737 Y8.0526
G01 X86.8784 Y8.0198
G01 X77.6906 Y3.4030
G01 X19.4510 Y3.4030
G01 X9.4991 Y13.3548
G01 X9.5239 Y33.2219
G01 X13.2609 Y33.2012
G01 X13.2701 Y33.1754
G01 X13.2898 Y33.1280
G01 X13.3117 Y33.0816
G01 X13.3355 Y33.0371
G01 X13.3632 Y32.9908
G01 X13.3913 Y32.9489
G01 X13.4219 Y32.9076
G01 X13.4546 Y32.8678
G01 X13.4883 Y32.8305
G01 X13.5265 Y32.7923
G01 X13.5638 Y32.7586
G01 X13.6036 Y32.7259
G01 X13.6450 Y32.6952
G01 X13.6868 Y32.6672
G01 X13.7331 Y32.6395
G01 X13.7776 Y32.6157
G01 X13.8242 Y32.5937
G01 X13.8716 Y32.5740
G01 X13.9190 Y32.5571
G01 X13.9706 Y32.5414
G01 X14.0194 Y32.5292
G01 X14.0687 Y32.5194
G01 X14.1221 Y32.5115
G01 X14.1722 Y32.5065
G01 X14.2236 Y32.5040
G01 X14.2752 Y32.5040
G01 X14.3254 Y32.5065
G01 X14.3779 Y32.5116
G01 X14.4289 Y32.5192
G01 X14.4794 Y32.5292
G01 X14.5282 Y32.5414
G01 X14.5786 Y32.5567
G01 X14.6260 Y32.5736
G01 X14.6759 Y32.5943
G01 X14.7212 Y32.6157
G01 X14.7668 Y32.6401
G01 X14.8110 Y32.6666
G01 X14.8539 Y32.6953
G01 X14.8952 Y32.7259
G01 X14.9350 Y32.7586
G01 X14.9732 Y32.7932
G01 X15.0104 Y32.8304
G01 X15.0442 Y32.8678
G01 X15.0769 Y32.9076
G01 X15.1076 Y32.9490
G01 X15.1362 Y32.9918
G01 X15.1627 Y33.0359
G01 X15.1871 Y33.0816
G01 X15.2091 Y33.1282
G01 X15.2288 Y33.1756
G01 X15.2461 Y33.2241
G01 X15.2611 Y33.2734
G01 X15.2736 Y33.3234
G01 X15.2834 Y33.3727
G01 X15.2912 Y33.4249
G01 X15.2961 Y33.4750
G01 X15.2987 Y33.5264
G01 X15.2994 Y33.5534
G01 X15.2987 Y33.5804
G01 X15.2961 Y33.6318
G01 X15.2912 Y33.6819
G01 X15.2834 Y33.7341
G01 X15.2736 Y33.7834
G01 X15.2611 Y33.8334
G01 X15.2461 Y33.8826
G01 X15.2287 Y33.9314
G01 X15.2090 Y33.9788
G01 X15.1871 Y34.0252
G01 X15.1627 Y34.0708
G01 X15.1362 Y34.1150
G01 X15.1075 Y34.1579
G01 X15.0769 Y34.1992
G01 X15.0442 Y34.2390
G01 X15.0096 Y34.2772
G01 X14.9732 Y34.3136
G01 X14.9350 Y34.3482
G01 X14.8952 Y34.3809
G01 X14.8538 Y34.4116
G01 X14.8110 Y34.4402
G01 X14.7669 Y34.4667
G01 X14.7212 Y34.4911
G01 X14.6746 Y34.5131
G01 X14.6272 Y34.5328
G01 X14.5787 Y34.5501
G01 X14.5294 Y34.5651
G01 X14.4794 Y34.5776
G01 X14.4289 Y34.5876
G01 X14.3779 Y34.5952
G01 X14.3266 Y34.6003
G01 X14.2764 Y34.6027
G01 X14.2224 Y34.6027
G01 X14.1722 Y34.6003
G01 X14.1209 Y34.5952
G01 X14.0699 Y34.5876
G01 X14.0206 Y34.5778
G01 X13.9683 Y34.5647
G01 X13.9202 Y34.5501
G01 X13.8714 Y34.5327
G01 X13.8240 Y34.5130
G01 X13.7785 Y34.4916
G01 X13.7309 Y34.4661
G01 X13.6878 Y34.4402
G01 X13.6460 Y34.4123
G01 X13.6026 Y34.3802
G01 X13.5638 Y34.3482
G01 X13.5256 Y34.3136
G01 X13.4892 Y34.2772
G01 X13.4554 Y34.2400
G01 X13.4219 Y34.1992
G01 X13.3912 Y34.1578
G01 X13.3632 Y34.1160
G01 X13.3356 Y34.0700
G01 X13.3117 Y34.0252
G01 X13.2903 Y33.9799
G01 X13.2700 Y33.9312
G01 X13.2629 Y33.9111
G01 X9.1694 Y33.9338
G01 X9.1350 Y33.9321
G01 X9.1018 Y33.9272
G01 X9.0680 Y33.9190
G01 X9.0377 Y33.9084
G01 X6.9879 Y33.9084
G01 X7.0097 Y36.0964
G01 X6.9858 Y38.4865
G01 X8.7841 Y40.2620
G01 X8.7929 Y40.2581
G01 X8.8844 Y40.2256
G01 X8.9764 Y40.2026
G01 X9.0748 Y40.1882
G01 X9.1694 Y40.1836
G01 X9.2665 Y40.1884
G01 X9.3624 Y40.2026
G01 X9.4566 Y40.2262
G01 X9.5482 Y40.2590
G01 X9.6338 Y40.2994
G01 X9.7213 Y40.3518
G01 X9.7972 Y40.4082
G01 X9.8693 Y40.4735
G01 X9.9346 Y40.5456
G01 X9.9917 Y40.6225
G01 X10.0424 Y40.7069
G01 X10.0838 Y40.7946
G01 X10.1166 Y40.8862
G01 X10.1406 Y40.9827
G01 X10.1544 Y41.0763
G01 X10.1591 Y41.1709
G01 X10.1546 Y41.2680
G01 X10.1402 Y41.3664
G01 X10.1166 Y41.4606
G01 X10.0838 Y41.5522
G01 X10.0411 Y41.6421
G01 X9.9924 Y41.7233
G01 X9.9360 Y41.7994
G01 X9.8710 Y41.8715
G01 X9.7972 Y41.9386
G01 X9.7193 Y41.9964
G01 X9.6359 Y42.0464
G01 X9.5471 Y42.0883
G01 X9.4566 Y42.1206
G01 X9.3649 Y42.1436
G01 X9.2665 Y42.1584
G01 X9.1669 Y42.1631
G01 X9.0723 Y42.1584
G01 X8.9764 Y42.1442
G01 X8.8797 Y42.1198
G01 X8.7906 Y42.0878
G01 X8.7029 Y42.0464
G01 X8.6175 Y41.9950
G01 X8.5416 Y41.9386
G01 X8.4695 Y41.8733
G01 X8.4042 Y41.8012
G01 X8.3478 Y41.7253
G01 X8.2964 Y41.6399
G01 X8.2550 Y41.5522
G01 X8.2230 Y41.4631
G01 X8.1984 Y41.3653
G01 X8.1844 Y41.2705
G01 X8.1797 Y41.1759
G01 X8.1845 Y41.0751
G01 X8.1986 Y40.9804
G01 X8.2219 Y40.8873
G01 X8.2545 Y40.7957
G01 X8.2734 Y40.7554
G01 X6.3763 Y38.8822
G01 X6.3572 Y38.8612
G01 X6.3529 Y38.8560
G01 X6.3363 Y38.8336
G01 X6.3324 Y38.8278
G01 X6.3182 Y38.8040
G01 X6.3147 Y38.7976
G01 X6.3027 Y38.7722
G01 X6.3000 Y38.7657
G01 X6.2888 Y38.7334
G01 X6.2819 Y38.7059
G01 X6.2806 Y38.6994
G01 X6.2759 Y38.6652
G01 X6.2745 Y38.6353
G01 X6.2998 Y36.0934
G01 X6.2745 Y33.5551
G00 Z2.0000
G00 X8.1797 Y36.0909
G01 F60.00
G01 Z-0.1000
G01 F120.00
G01 X8.1844 Y35.9963
G01 X8.1982 Y35.9027
G01 X8.2222 Y35.8062
G01 X8.2559 Y35.7124
G01 X8.2964 Y35.6269
G01 X8.3464 Y35.5435
G01 X8.4042 Y35.4656
G01 X8.4678 Y35.3953
G01 X8.5416 Y35.3282
G01 X8.6195 Y35.2704
G01 X8.7007 Y35.2217
G01 X8.7906 Y35.1790
G01 X8.8844 Y35.1456
G01 X8.9764 Y35.1226
G01 X9.0723 Y35.1084
G01 X9.1719 Y35.1037
G01 X9.2665 Y35.1084
G01 X9.3624 Y35.1226
G01 X9.4591 Y35.1470
G01 X9.5482 Y35.1790
G01 X9.6359 Y35.2204
G01 X9.7193 Y35.2704
G01 X9.7954 Y35.3268
G01 X9.8702 Y35.3944
G01 X9.9346 Y35.4656
G01 X9.9910 Y35.5415
G01 X10.0424 Y35.6269
G01 X10.0838 Y35.7146
G01 X10.1158 Y35.8037
G01 X10.1404 Y35.9015
G01 X10.1544 Y35.9963
G01 X10.1591 Y36.0909
G01 X10.1543 Y36.1917
G01 X10.1402 Y36.2864
G01 X10.1169 Y36.3795
G01 X10.0843 Y36.4711
G01 X10.0731 Y36.4951
G01 X11.9604 Y38.3824
G01 X11.9838 Y38.4083
G01 X12.0046 Y38.4362
G01 X12.0225 Y38.4662
G01 X12.0349 Y38.4920
G01 X12.0378 Y38.4987
G01 X12.0491 Y38.5305
G01 X12.0575 Y38.5642
G01 X12.0626 Y38.5985
G01 X12.0643 Y38.6298
G01 X12.0883 Y40.9995
G01 X13.8371 Y42.7483
G01 X13.8716 Y42.7340
G01 X13.9190 Y42.7171
G01 X13.9683 Y42.7021
G01 X14.0194 Y42.6892
G01 X14.0687 Y42.6794
G01 X14.1209 Y42.6716
G01 X14.1722 Y42.6665
G01 X14.2236 Y42.6640
G01 X14.2739 Y42.6640
G01 X14.3266 Y42.6665
G01 X14.3779 Y42.6716
G01 X14.4289 Y42.6792
G01 X14.4794 Y42.6892
G01 X14.5294 Y42.7017
G01 X14.5786 Y42.7167
G01 X14.6274 Y42.7341
G01 X14.6737 Y42.7533
G01 X14.7212 Y42.7757
G01 X14.7668 Y42.8001
G01 X14.8110 Y42.8266
G01 X14.8539 Y42.8553
G01 X14.8952 Y42.8859
G01 X14.9350 Y42.9186
G01 X14.9732 Y42.9532
G01 X15.0096 Y42.9896
G01 X15.0442 Y43.0278
G01 X15.0769 Y43.0676
G01 X15.1076 Y43.1090
G01 X15.1362 Y43.1518
G01 X15.1627 Y43.1959
G01 X15.1871 Y43.2416
G01 X15.2091 Y43.2882
G01 X15.2277 Y43.3330
G01 X19.2706 Y43.3330
G01 X29.3046 Y38.2908
G01 X29.3292 Y38.2797
G01 X29.3376 Y38.2763
G01 X29.3640 Y38.2674
G01 X29.3707 Y38.2655
G01 X29.3980 Y38.2592
G01 X29.4057 Y38.2579
G01 X29.4322 Y38.2545
G01 X29.4393 Y38.2539
G01 X29.4670 Y38.2531
G01 X31.1096 Y38.2695
G01 X31.1154 Y38.2534
G01 X31.1564 Y38.1669
G01 X31.2078 Y38.0815
G01 X31.2642 Y38.0056
G01 X31.3278 Y37.9353
G01 X31.4016 Y37.8682
G01 X31.4795 Y37.8104
G01 X31.5650 Y37.7594
G01 X31.6506 Y37.7190
G01 X31.7397 Y37.6870
G01 X31.8352 Y37.6628
G01 X31.9323 Y37.6484
G01 X32.0294 Y37.6436
G01 X32.1265 Y37.6484
G01 X32.2201 Y37.6622
G01 X32.3191 Y37.6870
G01 X32.4082 Y37.7190
G01 X32.4970 Y37.7610
G01 X32.5793 Y37.8104
G01 X32.6572 Y37.8682
G01 X32.7293 Y37.9335
G01 X32.7938 Y38.0047
G01 X32.8524 Y38.0835
G01 X32.9018 Y38.1658
G01 X32.9434 Y38.2534
G01 X32.9524 Y38.2784
G01 X33.5819 Y38.2784
G01 X33.5901 Y38.2554
G01 X33.6098 Y38.2080
G01 X33.6317 Y38.1616
G01 X33.6561 Y38.1160
G01 X33.6826 Y38.0718
G01 X33.7113 Y38.0289
G01 X33.7419 Y37.9876
G01 X33.7746 Y37.9478
G01 X33.8092 Y37.9096
G01 X33.8456 Y37.8732
G01 X33.8838 Y37.8386
G01 X33.9236 Y37.8059
G01 X33.9650 Y37.7752
G01 X34.0078 Y37.7466
G01 X34.0519 Y37.7201
G01 X34.0964 Y37.6963
G01 X34.1442 Y37.6737
G01 X34.1916 Y37.6540
G01 X34.2401 Y37.6367
G01 X34.2883 Y37.6221
G01 X34.3394 Y37.6092
G01 X34.3887 Y37.5994
G01 X34.4421 Y37.5915
G01 X34.4922 Y37.5865
G01 X34.5436 Y37.5840
G01 X34.5952 Y37.5840
G01 X34.6466 Y37.5865
G01 X34.6979 Y37.5916
G01 X34.7489 Y37.5992
G01 X34.7994 Y37.6092
G01 X34.8494 Y37.6217
G01 X34.8986 Y37.6367
G01 X34.9474 Y37.6541
G01 X34.9948 Y37.6738
G01 X35.0403 Y37.6952
G01 X35.0879 Y37.7207
G01 X35.1310 Y37.7466
G01 X35.1739 Y37.7753
G01 X35.2152 Y37.8059
G01 X35.2550 Y37.8386
G01 X35.2932 Y37.8732
G01 X35.3288 Y37.9087
G01 X35.3650 Y37.9487
G01 X35.3969 Y37.9876
G01 X35.4276 Y38.0290
G01 X35.4562 Y38.0718
G01 X35.4827 Y38.1159
G01 X35.5071 Y38.1616
G01 X35.5285 Y38.2069
G01 X35.5492 Y38.2568
G01 X35.5661 Y38.3041
G01 X35.5811 Y38.3534
G01 X35.5936 Y38.4034
G01 X35.6036 Y38.4539
G01 X35.6112 Y38.5049
G01 X35.6161 Y38.5550
G01 X35.6187 Y38.6064
G01 X35.6194 Y38.6334
G01 X35.6187 Y38.6604
G01 X35.6161 Y38.7118
G01 X35.6112 Y38.7619
G01 X35.6036 Y38.8129
G01 X35.5936 Y38.8634
G01 X35.5811 Y38.9134
G01 X35.5661 Y38.9626
G01 X35.5487 Y39.0114
G01 X35.5290 Y39.0588
G01 X35.5076 Y39.1043
G01 X35.4821 Y39.1519
G01 X35.4562 Y39.1950
G01 X35.4269 Y39.2388
G01 X35.3969 Y39.2792
G01 X35.3642 Y39.3190
G01 X35.3296 Y39.3572
G01 X35.2932 Y39.3936
G01 X35.2550 Y39.4282
G01 X35.2152 Y39.4609
G01 X35.1738 Y39.4916
G01 X35.1320 Y39.5196
G01 X35.0857 Y39.5473
G01 X35.0412 Y39.5711
G01 X34.9937 Y39.5935
G01 X34.9472 Y39.6128
G01 X34.8987 Y39.6301
G01 X34.8494 Y39.6451
G01 X34.7994 Y39.6576
G01 X34.7489 Y39.6676
G01 X34.6979 Y39.6752
G01 X34.6466 Y39.6803
G01 X34.5964 Y39.6827
G01 X34.5424 Y39.6827
G01 X34.4922 Y39.6803
G01 X34.4409 Y39.6752
G01 X34.3899 Y39.6676
G01 X34.3406 Y39.6578
G01 X34.2883 Y39.6447
G01 X34.2402 Y39.6301
G01 X34.1914 Y39.6127
G01 X34.1440 Y39.5930
G01 X34.0985 Y39.5716
G01 X34.0509 Y39.5461
G01 X34.0078 Y39.5202
G01 X33.9660 Y39.4923
G01 X33.9226 Y39.4602
G01 X33.8838 Y39.4282
G01 X33.8456 Y39.3936
G01 X33.8092 Y39.3572
G01 X33.7754 Y39.3200
G01 X33.7419 Y39.2792
G01 X33.7112 Y39.2378
G01 X33.6832 Y39.1960
G01 X33.6556 Y39.1500
G01 X33.6317 Y39.1052
G01 X33.6103 Y39.0599
G01 X33.5900 Y39.0112
G01 X33.5819 Y38.9884
G01 X32.9524 Y38.9884
G01 X32.9434 Y39.0134
G01 X32.9018 Y39.1010
G01 X32.8524 Y39.1833
G01 X32.7953 Y39.2603
G01 X32.7275 Y39.3350
G01 X32.6572 Y39.3986
G01 X32.5803 Y39.4557
G01 X32.4938 Y39.5074
G01 X32.4082 Y39.5478
G01 X32.3166 Y39.5806
G01 X32.2224 Y39.6042
G01 X32.1289 Y39.6181
G01 X32.0294 Y39.6232
G01 X31.9323 Y39.6184
G01 X31.8364 Y39.6042
G01 X31.7422 Y39.5806
G01 X31.6517 Y39.5483
G01 X31.5629 Y39.5064
G01 X31.4795 Y39.4564
G01 X31.4007 Y39.3978
G01 X31.3304 Y39.3342
G01 X31.3158 Y39.3182
G01 X31.3019 Y39.3182
G01 X31.2697 Y39.3152
G01 X31.2331 Y39.3082
G01 X31.2009 Y39.2986
G01 X31.1709 Y39.2865
G01 X31.1378 Y39.2693
G01 X31.1068 Y39.2487
G01 X31.0815 Y39.2281
G01 X31.0586 Y39.2056
G01 X31.0345 Y39.1770
G01 X31.0145 Y39.1474
G01 X30.9974 Y39.1153
G01 X30.9848 Y39.0854
G01 X30.9750 Y39.0541
G01 X30.9674 Y39.0180
G01 X30.9640 Y38.9859
G01 X30.9637 Y38.9780
G01 X29.5465 Y38.9638
G01 X19.5142 Y44.0052
G01 X19.4918 Y44.0154
G01 X19.4823 Y44.0193
G01 X19.4589 Y44.0273
G01 X19.4492 Y44.0302
G01 X19.4251 Y44.0359
G01 X19.4154 Y44.0377
G01 X19.3884 Y44.0413
G01 X19.3795 Y44.0421
G01 X19.3548 Y44.0430
G01 X15.2460 Y44.0430
G01 X15.2287 Y44.0914
G01 X15.2090 Y44.1388
G01 X15.1871 Y44.1852
G01 X15.1633 Y44.2297
G01 X15.1356 Y44.2760
G01 X15.1075 Y44.3179
G01 X15.0769 Y44.3592
G01 X15.0442 Y44.3990
G01 X15.0105 Y44.4363
G01 X14.9723 Y44.4745
G01 X14.9350 Y44.5082
G01 X14.8952 Y44.5409
G01 X14.8538 Y44.5716
G01 X14.8120 Y44.5996
G01 X14.7657 Y44.6273
G01 X14.7212 Y44.6511
G01 X14.6746 Y44.6731
G01 X14.6272 Y44.6928
G01 X14.5798 Y44.7097
G01 X14.5282 Y44.7254
G01 X14.4794 Y44.7376
G01 X14.4289 Y44.7476
G01 X14.3779 Y44.7552
G01 X14.3278 Y44.7601
G01 X14.2739 Y44.7628
G01 X14.2236 Y44.7628
G01 X14.1710 Y44.7601
G01 X14.1209 Y44.7552
G01 X14.0699 Y44.7476
G01 X14.0194 Y44.7376
G01 X13.9683 Y44.7247
G01 X13.9202 Y44.7101
G01 X13.8728 Y44.6932
G01 X13.8251 Y44.6735
G01 X13.7776 Y44.6511
G01 X13.7331 Y44.6273
G01 X13.6878 Y44.6002
G01 X13.6449 Y44.5715
G01 X13.6036 Y44.5409
G01 X13.5638 Y44.5082
G01 X13.5256 Y44.4736
G01 X13.4892 Y44.4372
G01 X13.4546 Y44.3990
G01 X13.4219 Y44.3592
G01 X13.3905 Y44.3168
G01 X13.3626 Y44.2750
G01 X13.3361 Y44.2309
G01 X13.3112 Y44.1843
G01 X13.2897 Y44.1386
G01 X13.2700 Y44.0912
G01 X13.2527 Y44.0427
G01 X13.2381 Y43.9945
G01 X13.2252 Y43.9434
G01 X13.2150 Y43.8916
G01 X13.2076 Y43.8419
G01 X13.2027 Y43.7918
G01 X13.2000 Y43.7379
G01 X13.2000 Y43.6876
G01 X13.2025 Y43.6362
G01 X13.2078 Y43.5837
G01 X13.2152 Y43.5339
G01 X13.2250 Y43.4846
G01 X13.2381 Y43.4323
G01 X13.2527 Y43.3842
G01 X13.2696 Y43.3368
G01 X13.2898 Y43.2880
G01 X13.3112 Y43.2425
G01 X13.3168 Y43.2320
G01 X11.4838 Y41.3990
G01 X11.4626 Y41.3759
G01 X11.4418 Y41.3483
G01 X11.4235 Y41.3185
G01 X11.4093 Y41.2894
G01 X11.4064 Y41.2827
G01 X11.3963 Y41.2548
G01 X11.3875 Y41.2214
G01 X11.3819 Y41.1859
G01 X11.3799 Y41.1526
G01 X11.3559 Y38.7819
G01 X9.5711 Y36.9971
G01 X9.5471 Y37.0083
G01 X9.4578 Y37.0402
G01 X9.3613 Y37.0644
G01 X9.2665 Y37.0784
G01 X9.1719 Y37.0831
G01 X9.0711 Y37.0783
G01 X8.9764 Y37.0642
G01 X8.8844 Y37.0412
G01 X8.7906 Y37.0078
G01 X8.7029 Y36.9664
G01 X8.6216 Y36.9177
G01 X8.5407 Y36.8578
G01 X8.4695 Y36.7933
G01 X8.4028 Y36.7194
G01 X8.3464 Y36.6433
G01 X8.2977 Y36.5621
G01 X8.2559 Y36.4744
G01 X8.2222 Y36.3806
G01 X8.1986 Y36.2864
G01 X8.1844 Y36.1905
G01 X8.1797 Y36.0909
G00 Z2.0000
G00 X8.1797 Y38.6309
G01 F60.00
G01 Z-0.1000
G01 F120.00
G01 X8.1844 Y38.5363
G01 X8.1986 Y38.4404
G01 X8.2222 Y38.3462
G01 X8.2550 Y38.2546
G01 X8.2964 Y38.1669
G01 X8.3464 Y38.0835
G01 X8.4042 Y38.0056
G01 X8.4695 Y37.9335
G01 X8.5416 Y37.8682
G01 X8.6195 Y37.8104
G01 X8.7029 Y37.7604
G01 X8.7906 Y37.7190
G01 X8.8822 Y37.6862
G01 X8.9764 Y37.6626
G01 X9.0723 Y37.6484
G01 X9.1694 Y37.6436
G01 X9.2665 Y37.6484
G01 X9.3624 Y37.6626
G01 X9.4566 Y37.6862
G01 X9.5482 Y37.7190
G01 X9.6359 Y37.7604
G01 X9.7193 Y37.8104
G01 X9.7972 Y37.8682
G01 X9.8693 Y37.9335
G01 X9.9346 Y38.0056
G01 X9.9924 Y38.0835
G01 X10.0424 Y38.1669
G01 X10.0838 Y38.2546
G01 X10.1166 Y38.3462
G01 X10.1402 Y38.4404
G01 X10.1544 Y38.5363
G01 X10.1592 Y38.6334
G01 X10.1544 Y38.7305
G01 X10.1402 Y38.8264
G01 X10.1166 Y38.9206
G01 X10.0838 Y39.0122
G01 X10.0424 Y39.0999
G01 X9.9924 Y39.1833
G01 X9.9346 Y39.2612
G01 X9.8693 Y39.3333
G01 X9.7972 Y39.3986
G01 X9.7193 Y39.4564
G01 X9.6359 Y39.5064
G01 X9.5482 Y39.5478
G01 X9.4566 Y39.5806
G01 X9.3624 Y39.6042
G01 X9.2665 Y39.6184
G01 X9.1694 Y39.6232
G01 X9.0723 Y39.6184
G01 X8.9764 Y39.6042
G01 X8.8822 Y39.5806
G01 X8.7906 Y39.5478
G01 X8.7029 Y39.5064
G01 X8.6195 Y39.4564
G01 X8.5416 Y39.3986
G01 X8.4695 Y39.3333
G01 X8.4042 Y39.2612
G01 X8.3464 Y39.1833
G01 X8.2964 Y39.0999
G01 X8.2550 Y39.0122
G01 X8.2222 Y38.9206
G01 X8.1986 Y38.8264
G01 X8.1844 Y38.7305
G01 X8.1797 Y38.6309
G00 Z2.0000
G00 X13.2025 Y41.2494
G01 F60.00
G01 Z-0.1000
G01 F120.00
G01 X13.2000 Y41.1992
G01 X13.2000 Y41.1476
G01 X13.2025 Y41.0962
G01 X13.2076 Y41.0449
G01 X13.2152 Y40.9939
G01 X13.2252 Y40.9434
G01 X13.2377 Y40.8934
G01 X13.2527 Y40.8442
G01 X13.2701 Y40.7954
G01 X13.2898 Y40.7480
G01 X13.3117 Y40.7016
G01 X13.3361 Y40.6560
G01 X13.3626 Y40.6118
G01 X13.3913 Y40.5689
G01 X13.4219 Y40.5276
G01 X13.4546 Y40.4878
G01 X13.4892 Y40.4496
G01 X13.5256 Y40.4132
G01 X13.5638 Y40.3786
G01 X13.6036 Y40.3459
G01 X13.6450 Y40.3152
G01 X13.6878 Y40.2866
G01 X13.7319 Y40.2601
G01 X13.7776 Y40.2357
G01 X13.8242 Y40.2137
G01 X13.8716 Y40.1940
G01 X13.9201 Y40.1767
G01 X13.9694 Y40.1617
G01 X14.0194 Y40.1492
G01 X14.0699 Y40.1392
G01 X14.1209 Y40.1316
G01 X14.1722 Y40.1265
G01 X14.2236 Y40.1240
G01 X14.2752 Y40.1240
G01 X14.3266 Y40.1265
G01 X14.3779 Y40.1316
G01 X14.4289 Y40.1392
G01 X14.4794 Y40.1492
G01 X14.5294 Y40.1617
G01 X14.5786 Y40.1767
G01 X14.6274 Y40.1941
G01 X14.6748 Y40.2138
G01 X14.7212 Y40.2357
G01 X14.7668 Y40.2601
G01 X14.8110 Y40.2866
G01 X14.8539 Y40.3153
G01 X14.8952 Y40.3459
G01 X14.9350 Y40.3786
G01 X14.9732 Y40.4132
G01 X15.0096 Y40.4496
G01 X15.0442 Y40.4878
G01 X15.0769 Y40.5276
G01 X15.1076 Y40.5690
G01 X15.1362 Y40.6118
G01 X15.1627 Y40.6559
G01 X15.1871 Y40.7016
G01 X15.2091 Y40.7482
G01 X15.2288 Y40.7956
G01 X15.2461 Y40.8441
G01 X15.2611 Y40.8934
G01 X15.2736 Y40.9434
G01 X15.2836 Y40.9939
G01 X15.2912 Y41.0449
G01 X15.2963 Y41.0962
G01 X15.2988 Y41.1476
G01 X15.2988 Y41.1992
G01 X15.2963 Y41.2506
G01 X15.2912 Y41.3019
G01 X15.2836 Y41.3529
G01 X15.2736 Y41.4034
G01 X15.2611 Y41.4534
G01 X15.2461 Y41.5026
G01 X15.2287 Y41.5514
G01 X15.2090 Y41.5988
G01 X15.1871 Y41.6452
G01 X15.1627 Y41.6908
G01 X15.1362 Y41.7350
G01 X15.1075 Y41.7779
G01 X15.0769 Y41.8192
G01 X15.0442 Y41.8590
G01 X15.0096 Y41.8972
G01 X14.9732 Y41.9336
G01 X14.9350 Y41.9682
G01 X14.8952 Y42.0009
G01 X14.8538 Y42.0316
G01 X14.8110 Y42.0602
G01 X14.7669 Y42.0867
G01 X14.7212 Y42.1111
G01 X14.6746 Y42.1331
G01 X14.6272 Y42.1528
G01 X14.5787 Y42.1701
G01 X14.5294 Y42.1851
G01 X14.4794 Y42.1976
G01 X14.4289 Y42.2076
G01 X14.3779 Y42.2152
G01 X14.3266 Y42.2203
G01 X14.2752 Y42.2228
G01 X14.2236 Y42.2228
G01 X14.1722 Y42.2203
G01 X14.1209 Y42.2152
G01 X14.0699 Y42.2076
G01 X14.0194 Y42.1976
G01 X13.9694 Y42.1851
G01 X13.9202 Y42.1701
G01 X13.8714 Y42.1527
G01 X13.8240 Y42.1330
G01 X13.7776 Y42.1111
G01 X13.7320 Y42.0867
G01 X13.6878 Y42.0602
G01 X13.6449 Y42.0315
G01 X13.6036 Y42.0009
G01 X13.5638 Y41.9682
G01 X13.5256 Y41.9336
G01 X13.4892 Y41.8972
G01 X13.4546 Y41.8590
G01 X13.4219 Y41.8192
G01 X13.3912 Y41.7778
G01 X13.3626 Y41.7350
G01 X13.3361 Y41.6909
G01 X13.3117 Y41.6452
G01 X13.2897 Y41.5986
G01 X13.2700 Y41.5512
G01 X13.2527 Y41.5027
G01 X13.2377 Y41.4534
G01 X13.2252 Y41.4034
G01 X13.2152 Y41.3529
G01 X13.2076 Y41.3019
G01 X13.2025 Y41.2494
G00 Z2.0000
G00 X15.7997 Y38.6309
G01 F60.00
G01 Z-0.1000
G01 F120.00
G01 X15.8044 Y38.5363
G01 X15.8186 Y38.4404
G01 X15.8422 Y38.3462
G01 X15.8750 Y38.2546
G01 X15.9164 Y38.1669
G01 X15.9664 Y38.0835
G01 X16.0242 Y38.0056
G01 X16.0878 Y37.9353
G01 X16.1634 Y37.8668
G01 X16.2395 Y37.8104
G01 X16.3250 Y37.7594
G01 X16.4106 Y37.7190
G01 X16.5022 Y37.6862
G01 X16.5964 Y37.6626
G01 X16.6923 Y37.6484
G01 X16.7894 Y37.6436
G01 X16.8840 Y37.6482
G01 X16.9849 Y37.6632
G01 X17.0766 Y37.6862
G01 X17.1682 Y37.7190
G01 X17.2559 Y37.7604
G01 X17.3383 Y37.8097
G01 X17.4192 Y37.8699
G01 X17.4893 Y37.9335
G01 X17.5546 Y38.0056
G01 X17.6124 Y38.0835
G01 X17.6618 Y38.1658
G01 X17.7034 Y38.2534
G01 X17.7117 Y38.2765
G01 X19.2031 Y38.2548
G01 X31.0915 Y28.7868
G01 X31.0819 Y28.7595
G01 X31.0584 Y28.6653
G01 X31.0444 Y28.5705
G01 X31.0396 Y28.4722
G01 X31.0444 Y28.3763
G01 X31.0586 Y28.2804
G01 X31.0822 Y28.1862
G01 X31.1154 Y28.0934
G01 X31.1564 Y28.0069
G01 X31.2064 Y27.9235
G01 X31.2642 Y27.8456
G01 X31.3295 Y27.7735
G01 X31.4016 Y27.7082
G01 X31.4795 Y27.6504
G01 X31.5629 Y27.6004
G01 X31.6517 Y27.5585
G01 X31.7422 Y27.5262
G01 X31.8364 Y27.5026
G01 X31.9323 Y27.4884
G01 X32.0294 Y27.4836
G01 X32.1265 Y27.4884
G01 X32.2224 Y27.5026
G01 X32.3166 Y27.5262
G01 X32.4094 Y27.5594
G01 X32.4959 Y27.6004
G01 X32.5793 Y27.6504
G01 X32.6572 Y27.7082
G01 X32.7302 Y27.7744
G01 X32.7946 Y27.8456
G01 X32.8531 Y27.9245
G01 X32.9030 Y28.0080
G01 X32.9434 Y28.0934
G01 X32.9524 Y28.1184
G01 X41.2435 Y28.1184
G01 X41.2556 Y28.0852
G01 X41.2981 Y27.9956
G01 X41.3485 Y27.9116
G01 X41.4068 Y27.8328
G01 X41.4761 Y27.7566
G01 X41.5479 Y27.6916
G01 X41.6265 Y27.6332
G01 X41.7149 Y27.5804
G01 X41.8024 Y27.5391
G01 X41.8960 Y27.5056
G01 X41.9922 Y27.4815
G01 X42.0878 Y27.4672
G01 X42.1919 Y27.4621
G01 X42.2886 Y27.4670
G01 X42.3843 Y27.4811
G01 X42.4828 Y27.5056
G01 X42.5787 Y27.5401
G01 X42.6661 Y27.5814
G01 X42.7512 Y27.6325
G01 X42.8309 Y27.6916
G01 X42.9027 Y27.7566
G01 X42.9712 Y27.8319
G01 X43.0303 Y27.9116
G01 X43.0801 Y27.9945
G01 X43.1242 Y28.0875
G01 X43.1578 Y28.1822
G01 X43.1813 Y28.2762
G01 X43.1956 Y28.3718
G01 X43.2007 Y28.4734
G01 X43.1958 Y28.5726
G01 X43.1813 Y28.6706
G01 X43.1564 Y28.7693
G01 X43.1227 Y28.8627
G01 X43.0814 Y28.9501
G01 X43.0316 Y29.0332
G01 X42.9712 Y29.1149
G01 X42.9045 Y29.1885
G01 X42.8309 Y29.2552
G01 X42.7492 Y29.3156
G01 X42.6661 Y29.3654
G01 X42.5787 Y29.4067
G01 X42.4853 Y29.4404
G01 X42.3866 Y29.4653
G01 X42.2886 Y29.4798
G01 X42.1894 Y29.4847
G01 X42.0927 Y29.4800
G01 X41.9897 Y29.4648
G01 X41.8960 Y29.4412
G01 X41.8024 Y29.4077
G01 X41.7127 Y29.3654
G01 X41.6286 Y29.3150
G01 X41.5479 Y29.2552
G01 X41.4761 Y29.1902
G01 X41.4068 Y29.1140
G01 X41.3485 Y29.0352
G01 X41.2981 Y28.9512
G01 X41.2556 Y28.8616
G01 X41.2435 Y28.8284
G01 X32.9524 Y28.8284
G01 X32.9434 Y28.8534
G01 X32.9030 Y28.9388
G01 X32.8531 Y29.0223
G01 X32.7946 Y29.1012
G01 X32.7302 Y29.1724
G01 X32.6572 Y29.2386
G01 X32.5793 Y29.2964
G01 X32.4959 Y29.3464
G01 X32.4059 Y29.3887
G01 X32.3166 Y29.4206
G01 X32.2249 Y29.4436
G01 X32.1289 Y29.4581
G01 X32.0294 Y29.4632
G01 X31.9336 Y29.4585
G01 X31.8364 Y29.4442
G01 X31.7410 Y29.4202
G01 X31.6494 Y29.3874
G01 X31.5640 Y29.3470
G01 X31.5432 Y29.3346
G01 X19.5505 Y38.8857
G01 X19.5307 Y38.9004
G01 X19.5212 Y38.9066
G01 X19.5023 Y38.9180
G01 X19.4907 Y38.9241
G01 X19.4691 Y38.9343
G01 X19.4592 Y38.9384
G01 X19.4397 Y38.9453
G01 X19.4272 Y38.9492
G01 X19.4040 Y38.9550
G01 X19.3922 Y38.9573
G01 X19.3707 Y38.9605
G01 X19.3598 Y38.9616
G01 X19.3355 Y38.9629
G01 X17.7131 Y38.9864
G01 X17.7034 Y39.0134
G01 X17.6618 Y39.1010
G01 X17.6124 Y39.1833
G01 X17.5553 Y39.2603
G01 X17.4875 Y39.3350
G01 X17.4172 Y39.3986
G01 X17.3383 Y39.4571
G01 X17.2559 Y39.5064
G01 X17.1682 Y39.5478
G01 X17.0766 Y39.5806
G01 X16.9849 Y39.6036
G01 X16.8840 Y39.6186
G01 X16.7894 Y39.6232
G01 X16.6936 Y39.6185
G01 X16.5964 Y39.6042
G01 X16.5022 Y39.5806
G01 X16.4106 Y39.5478
G01 X16.3229 Y39.5064
G01 X16.2395 Y39.4564
G01 X16.1616 Y39.3986
G01 X16.0895 Y39.3333
G01 X16.0259 Y39.2632
G01 X15.9664 Y39.1833
G01 X15.9177 Y39.1021
G01 X15.8741 Y39.0099
G01 X15.8422 Y38.9206
G01 X15.8186 Y38.8264
G01 X15.8044 Y38.7305
G01 X15.7997 Y38.6309
G00 Z2.0000
G00 X15.7997 Y36.0909
G01 F60.00
G01 Z-0.1000
G01 F120.00
G01 X15.8044 Y35.9963
G01 X15.8186 Y35.9004
G01 X15.8422 Y35.8062
G01 X15.8750 Y35.7146
G01 X15.9164 Y35.6269
G01 X15.9664 Y35.5435
G01 X16.0242 Y35.4656
G01 X16.0878 Y35.3953
G01 X16.1634 Y35.3268
G01 X16.2395 Y35.2704
G01 X16.3250 Y35.2194
G01 X16.4106 Y35.1790
G01 X16.5022 Y35.1462
G01 X16.5964 Y35.1226
G01 X16.6923 Y35.1084
G01 X16.7894 Y35.1036
G01 X16.8840 Y35.1082
G01 X16.9849 Y35.1232
G01 X17.0766 Y35.1462
G01 X17.1682 Y35.1790
G01 X17.2559 Y35.2204
G01 X17.3383 Y35.2697
G01 X17.4172 Y35.3282
G01 X17.4875 Y35.3918
G01 X17.5553 Y35.4665
G01 X17.6124 Y35.5435
G01 X17.6618 Y35.6258
G01 X17.7034 Y35.7134
G01 X17.7131 Y35.7404
G01 X19.1817 Y35.7620
G01 X31.0867 Y26.2333
G01 X31.0816 Y26.2184
G01 X31.0582 Y26.1241
G01 X31.0444 Y26.0305
G01 X31.0396 Y25.9334
G01 X31.0447 Y25.8339
G01 X31.0586 Y25.7404
G01 X31.0822 Y25.6462
G01 X31.1159 Y25.5524
G01 X31.1564 Y25.4669
G01 X31.2064 Y25.3835
G01 X31.2642 Y25.3056
G01 X31.3278 Y25.2353
G01 X31.4034 Y25.1668
G01 X31.4795 Y25.1104
G01 X31.5607 Y25.0617
G01 X31.6484 Y25.0199
G01 X31.7422 Y24.9862
G01 X31.8339 Y24.9632
G01 X31.9323 Y24.9484
G01 X32.0294 Y24.9436
G01 X32.1265 Y24.9484
G01 X32.2224 Y24.9626
G01 X32.3191 Y24.9870
G01 X32.4082 Y25.0190
G01 X32.4938 Y25.0594
G01 X32.5793 Y25.1104
G01 X32.6581 Y25.1690
G01 X32.7310 Y25.2353
G01 X32.7946 Y25.3056
G01 X32.8517 Y25.3825
G01 X32.9030 Y25.4680
G01 X32.9434 Y25.5534
G01 X32.9524 Y25.5784
G01 X33.5819 Y25.5784
G01 X33.5901 Y25.5554
G01 X33.6093 Y25.5091
G01 X33.6317 Y25.4616
G01 X33.6561 Y25.4160
G01 X33.6819 Y25.3728
G01 X33.7113 Y25.3289
G01 X33.7419 Y25.2876
G01 X33.7746 Y25.2478
G01 X33.8092 Y25.2096
G01 X33.8456 Y25.1732
G01 X33.8838 Y25.1386
G01 X33.9236 Y25.1059
G01 X33.9650 Y25.0752
G01 X34.0078 Y25.0466
G01 X34.0519 Y25.0201
G01 X34.0976 Y24.9957
G01 X34.1451 Y24.9733
G01 X34.1928 Y24.9536
G01 X34.2401 Y24.9367
G01 X34.2883 Y24.9221
G01 X34.3394 Y24.9092
G01 X34.3887 Y24.8994
G01 X34.4409 Y24.8916
G01 X34.4922 Y24.8865
G01 X34.5436 Y24.8840
G01 X34.5939 Y24.8840
G01 X34.6466 Y24.8865
G01 X34.6979 Y24.8916
G01 X34.7489 Y24.8992
G01 X34.7994 Y24.9092
G01 X34.8494 Y24.9217
G01 X34.8986 Y24.9367
G01 X34.9474 Y24.9541
G01 X34.9937 Y24.9733
G01 X35.0012 Y24.9768
G01 X41.2869 Y18.7133
G01 X41.2799 Y18.6980
G01 X41.2467 Y18.6045
G01 X41.2232 Y18.5106
G01 X41.2087 Y18.4126
G01 X41.2038 Y18.3134
G01 X41.2085 Y18.2168
G01 X41.2238 Y18.1138
G01 X41.2473 Y18.0201
G01 X41.2808 Y17.9265
G01 X41.3232 Y17.8369
G01 X41.3729 Y17.7538
G01 X41.4349 Y17.6702
G01 X41.4999 Y17.5985
G01 X41.5716 Y17.5335
G01 X41.6532 Y17.4728
G01 X41.7383 Y17.4218
G01 X41.8279 Y17.3794
G01 X41.9215 Y17.3459
G01 X42.0176 Y17.3218
G01 X42.1156 Y17.3073
G01 X42.2148 Y17.3024
G01 X42.3163 Y17.3076
G01 X42.4120 Y17.3218
G01 X42.5106 Y17.3467
G01 X42.6017 Y17.3794
G01 X42.6892 Y17.4207
G01 X42.7744 Y17.4715
G01 X42.8561 Y17.5318
G01 X42.9297 Y17.5985
G01 X42.9964 Y17.6721
G01 X43.0554 Y17.7518
G01 X43.1064 Y17.8369
G01 X43.1478 Y17.9243
G01 X43.1829 Y18.0223
G01 X43.2064 Y18.1162
G01 X43.2209 Y18.2142
G01 X43.2258 Y18.3134
G01 X43.2211 Y18.4100
G01 X43.2058 Y18.5130
G01 X43.1823 Y18.6067
G01 X43.1488 Y18.7003
G01 X43.1064 Y18.7899
G01 X43.0567 Y18.8730
G01 X42.9956 Y18.9556
G01 X42.9297 Y19.0283
G01 X42.8580 Y19.0933
G01 X42.7744 Y19.1553
G01 X42.6913 Y19.2050
G01 X42.6017 Y19.2474
G01 X42.5081 Y19.2809
G01 X42.4131 Y19.3047
G01 X42.3140 Y19.3195
G01 X42.2173 Y19.3243
G01 X42.1145 Y19.3194
G01 X42.0176 Y19.3050
G01 X41.9226 Y19.2812
G01 X41.8290 Y19.2479
G01 X41.7795 Y19.2246
G01 X35.5113 Y25.4706
G01 X35.5291 Y25.5083
G01 X35.5488 Y25.5556
G01 X35.5661 Y25.6041
G01 X35.5811 Y25.6534
G01 X35.5936 Y25.7034
G01 X35.6036 Y25.7539
G01 X35.6112 Y25.8049
G01 X35.6161 Y25.8550
G01 X35.6187 Y25.9064
G01 X35.6194 Y25.9334
G01 X35.6187 Y25.9604
G01 X35.6161 Y26.0118
G01 X35.6112 Y26.0619
G01 X35.6036 Y26.1129
G01 X35.5936 Y26.1634
G01 X35.5814 Y26.2122
G01 X35.5661 Y26.2626
G01 X35.5492 Y26.3100
G01 X35.5285 Y26.3599
G01 X35.5071 Y26.4052
G01 X35.4827 Y26.4508
G01 X35.4562 Y26.4950
G01 X35.4275 Y26.5379
G01 X35.3969 Y26.5792
G01 X35.3642 Y26.6190
G01 X35.3296 Y26.6572
G01 X35.2941 Y26.6928
G01 X35.2541 Y26.7290
G01 X35.2152 Y26.7609
G01 X35.1728 Y26.7923
G01 X35.1310 Y26.8202
G01 X35.0879 Y26.8461
G01 X35.0424 Y26.8705
G01 X34.9946 Y26.8931
G01 X34.9472 Y26.9128
G01 X34.8987 Y26.9301
G01 X34.8482 Y26.9454
G01 X34.7994 Y26.9576
G01 X34.7501 Y26.9674
G01 X34.6991 Y26.9750
G01 X34.6466 Y26.9803
G01 X34.5952 Y26.9828
G01 X34.5436 Y26.9828
G01 X34.4910 Y26.9801
G01 X34.4409 Y26.9752
G01 X34.3912 Y26.9678
G01 X34.3406 Y26.9578
G01 X34.2894 Y26.9451
G01 X34.2402 Y26.9301
G01 X34.1914 Y26.9127
G01 X34.1440 Y26.8930
G01 X34.0976 Y26.8711
G01 X34.0509 Y26.8461
G01 X34.0078 Y26.8202
G01 X33.9660 Y26.7923
G01 X33.9246 Y26.7617
G01 X33.8838 Y26.7282
G01 X33.8456 Y26.6936
G01 X33.8092 Y26.6572
G01 X33.7738 Y26.6181
G01 X33.7411 Y26.5782
G01 X33.7112 Y26.5378
G01 X33.6832 Y26.4960
G01 X33.6561 Y26.4509
G01 X33.6317 Y26.4052
G01 X33.6097 Y26.3586
G01 X33.5900 Y26.3112
G01 X33.5819 Y26.2884
G01 X32.9524 Y26.2884
G01 X32.9434 Y26.3134
G01 X32.9030 Y26.3988
G01 X32.8517 Y26.4843
G01 X32.7946 Y26.5612
G01 X32.7310 Y26.6315
G01 X32.6581 Y26.6978
G01 X32.5793 Y26.7564
G01 X32.4938 Y26.8074
G01 X32.4059 Y26.8487
G01 X32.3166 Y26.8806
G01 X32.2249 Y26.9036
G01 X32.1265 Y26.9184
G01 X32.0294 Y26.9232
G01 X31.9323 Y26.9184
G01 X31.8375 Y26.9044
G01 X31.7422 Y26.8806
G01 X31.6517 Y26.8483
G01 X31.5640 Y26.8070
G01 X31.5307 Y26.7872
G01 X19.5258 Y36.3959
G01 X19.4969 Y36.4168
G01 X19.4654 Y36.4349
G01 X19.4327 Y36.4495
G01 X19.4021 Y36.4599
G01 X19.3714 Y36.4672
G01 X19.3344 Y36.4724
G01 X19.3003 Y36.4737
G01 X17.7117 Y36.4504
G01 X17.7034 Y36.4734
G01 X17.6618 Y36.5610
G01 X17.6124 Y36.6433
G01 X17.5546 Y36.7212
G01 X17.4893 Y36.7933
G01 X17.4192 Y36.8569
G01 X17.3383 Y36.9171
G01 X17.2559 Y36.9664
G01 X17.1682 Y37.0078
G01 X17.0766 Y37.0406
G01 X16.9849 Y37.0636
G01 X16.8840 Y37.0786
G01 X16.7894 Y37.0832
G01 X16.6923 Y37.0784
G01 X16.5964 Y37.0642
G01 X16.5022 Y37.0406
G01 X16.4106 Y37.0078
G01 X16.3229 Y36.9664
G01 X16.2395 Y36.9164
G01 X16.1616 Y36.8586
G01 X16.0895 Y36.7933
G01 X16.0259 Y36.7232
G01 X15.9664 Y36.6433
G01 X15.9177 Y36.5621
G01 X15.8741 Y36.4699
G01 X15.8422 Y36.3806
G01 X15.8186 Y36.2864
G01 X15.8044 Y36.1905
G01 X15.7997 Y36.0909
G00 Z2.0000
G00 X15.7997 Y33.5509
G01 F60.00
G01 Z-0.1000
G01 F120.00
G01 X15.8044 Y33.4563
G01 X15.8186 Y33.3604
G01 X15.8422 Y33.2662
G01 X15.8750 Y33.1746
G01 X15.9164 Y33.0869
G01 X15.9664 Y33.0035
G01 X16.0242 Y32.9256
G01 X16.0895 Y32.8535
G01 X16.1616 Y32.7882
G01 X16.2395 Y32.7304
G01 X16.3229 Y32.6804
G01 X16.4106 Y32.6390
G01 X16.5022 Y32.6062
G01 X16.5964 Y32.5826
G01 X16.6923 Y32.5684
G01 X16.7894 Y32.5636
G01 X16.8865 Y32.5684
G01 X16.9824 Y32.5826
G01 X17.0766 Y32.6062
G01 X17.1682 Y32.6390
G01 X17.2559 Y32.6804
G01 X17.3393 Y32.7304
G01 X17.4172 Y32.7882
G01 X17.4893 Y32.8535
G01 X17.5546 Y32.9256
G01 X17.6124 Y33.0035
G01 X17.6624 Y33.0869
G01 X17.7038 Y33.1746
G01 X17.7366 Y33.2662
G01 X17.7602 Y33.3604
G01 X17.7744 Y33.4563
G01 X17.7792 Y33.5534
G01 X17.7744 Y33.6505
G01 X17.7602 Y33.7464
G01 X17.7366 Y33.8406
G01 X17.7038 Y33.9322
G01 X17.6624 Y34.0199
G01 X17.6124 Y34.1033
G01 X17.5546 Y34.1812
G01 X17.4893 Y34.2533
G01 X17.4172 Y34.3186
G01 X17.3393 Y34.3764
G01 X17.2559 Y34.4264
G01 X17.1682 Y34.4678
G01 X17.0766 Y34.5006
G01 X16.9824 Y34.5242
G01 X16.8865 Y34.5384
G01 X16.7894 Y34.5432
G01 X16.6923 Y34.5384
G01 X16.5964 Y34.5242
G01 X16.5022 Y34.5006
G01 X16.4106 Y34.4678
G01 X16.3229 Y34.4264
G01 X16.2395 Y34.3764
G01 X16.1616 Y34.3186
G01 X16.0895 Y34.2533
G01 X16.0242 Y34.1812
G01 X15.9664 Y34.1033
G01 X15.9164 Y34.0199
G01 X15.8750 Y33.9322
G01 X15.8422 Y33.8406
G01 X15.8186 Y33.7464
G01 X15.8044 Y33.6505
G01 X15.7997 Y33.5509
G00 Z2.0000
G00 X15.7997 Y31.0109
G01 F60.00
G01 Z-0.1000
G01 F120.00
G01 X15.8044 Y30.9163
G01 X15.8186 Y30.8204
G01 X15.8422 Y30.7262
G01 X15.8750 Y30.6346
G01 X15.9164 Y30.5469
G01 X15.9664 Y30.4635
G01 X16.0242 Y30.3856
G01 X16.0895 Y30.3135
G01 X16.1616 Y30.2482
G01 X16.2395 Y30.1904
G01 X16.3229 Y30.1404
G01 X16.4106 Y30.0990
G01 X16.5022 Y30.0662
G01 X16.5964 Y30.0426
G01 X16.6923 Y30.0284
G01 X16.7894 Y30.0236
G01 X16.8865 Y30.0284
G01 X16.9824 Y30.0426
G01 X17.0766 Y30.0662
G01 X17.1682 Y30.0990
G01 X17.2559 Y30.1404
G01 X17.3393 Y30.1904
G01 X17.4172 Y30.2482
G01 X17.4893 Y30.3135
G01 X17.5546 Y30.3856
G01 X17.6124 Y30.4635
G01 X17.6624 Y30.5469
G01 X17.7038 Y30.6346
G01 X17.7366 Y30.7262
G01 X17.7602 Y30.8204
G01 X17.7744 Y30.9163
G01 X17.7792 Y31.0134
G01 X17.7744 Y31.1105
G01 X17.7602 Y31.2064
G01 X17.7366 Y31.3006
G01 X17.7038 Y31.3922
G01 X17.6624 Y31.4799
G01 X17.6124 Y31.5633
G01 X17.5546 Y31.6412
G01 X17.4893 Y31.7133
G01 X17.4172 Y31.7786
G01 X17.3393 Y31.8364
G01 X17.2559 Y31.8864
G01 X17.1682 Y31.9278
G01 X17.0766 Y31.9606
G01 X16.9824 Y31.9842
G01 X16.8865 Y31.9984
G01 X16.7894 Y32.0032
G01 X16.6923 Y31.9984
G01 X16.5964 Y31.9842
G01 X16.5022 Y31.9606
G01 X16.4106 Y31.9278
G01 X16.3229 Y31.8864
G01 X16.2395 Y31.8364
G01 X16.1616 Y31.7786
G01 X16.0895 Y31.7133
G01 X16.0242 Y31.6412
G01 X15.9664 Y31.5633
G01 X15.9164 Y31.4799
G01 X15.8750 Y31.3922
G01 X15.8422 Y31.3006
G01 X15.8186 Y31.2064
G01 X15.8044 Y31.1105
G01 X15.7997 Y31.0109
G00 Z2.0000
G00 X15.7997 Y28.4709
G01 F60.00
G01 Z-0.1000
G01 F120.00
G01 X15.8044 Y28.3763
G01 X15.8186 Y28.2804
G01 X15.8422 Y28.1862
G01 X15.8750 Y28.0946
G01 X15.9164 Y28.0069
G01 X15.9664 Y27.9235
G01 X16.0242 Y27.8456
G01 X16.0895 Y27.7735
G01 X16.1616 Y27.7082
G01 X16.2395 Y27.6504
G01 X16.3229 Y27.6004
G01 X16.4106 Y27.5590
G01 X16.5022 Y27.5262
G01 X16.5964 Y27.5026
G01 X16.6923 Y27.4884
G01 X16.7894 Y27.4836
G01 X16.8865 Y27.4884
G01 X16.9824 Y27.5026
G01 X17.0766 Y27.5262
G01 X17.1682 Y27.5590
G01 X17.2559 Y27.6004
G01 X17.3393 Y27.6504
G01 X17.4172 Y27.7082
G01 X17.4893 Y27.7735
G01 X17.5546 Y27.8456
G01 X17.6124 Y27.9235
G01 X17.6624 Y28.0069
G01 X17.7038 Y28.0946
G01 X17.7366 Y28.1862
G01 X17.7602 Y28.2804
G01 X17.7744 Y28.3763
G01 X17.7792 Y28.4734
G01 X17.7744 Y28.5705
G01 X17.7602 Y28.6664
G01 X17.7366 Y28.7606
G01 X17.7038 Y28.8522
G01 X17.6624 Y28.9399
G01 X17.6124 Y29.0233
G01 X17.5546 Y29.1012
G01 X17.4893 Y29.1733
G01 X17.4172 Y29.2386
G01 X17.3393 Y29.2964
G01 X17.2559 Y29.3464
G01 X17.1682 Y29.3878
G01 X17.0766 Y29.4206
G01 X16.9824 Y29.4442
G01 X16.8865 Y29.4584
G01 X16.7894 Y29.4632
G01 X16.6923 Y29.4584
G01 X16.5964 Y29.4442
G01 X16.5022 Y29.4206
G01 X16.4106 Y29.3878
G01 X16.3229 Y29.3464
G01 X16.2395 Y29.2964
G01 X16.1616 Y29.2386
G01 X16.0895 Y29.1733
G01 X16.0242 Y29.1012
G01 X15.9664 Y29.0233
G01 X15.9164 Y28.9399
G01 X15.8750 Y28.8522
G01 X15.8422 Y28.7606
G01 X15.8186 Y28.6664
G01 X15.8044 Y28.5705
G01 X15.7997 Y28.4709
G00 Z2.0000
G00 X15.7997 Y25.9309
G01 F60.00
G01 Z-0.1000
G01 F120.00
G01 X15.8044 Y25.8363
G01 X15.8186 Y25.7404
G01 X15.8422 Y25.6462
G01 X15.8750 Y25.5546
G01 X15.9164 Y25.4669
G01 X15.9664 Y25.3835
G01 X16.0242 Y25.3056
G01 X16.0895 Y25.2335
G01 X16.1616 Y25.1682
G01 X16.2395 Y25.1104
G01 X16.3229 Y25.0604
G01 X16.4106 Y25.0190
G01 X16.5022 Y24.9862
G01 X16.5964 Y24.9626
G01 X16.6923 Y24.9484
G01 X16.7894 Y24.9436
G01 X16.8865 Y24.9484
G01 X16.9824 Y24.9626
G01 X17.0766 Y24.9862
G01 X17.1682 Y25.0190
G01 X17.2559 Y25.0604
G01 X17.3393 Y25.1104
G01 X17.4172 Y25.1682
G01 X17.4893 Y25.2335
G01 X17.5546 Y25.3056
G01 X17.6124 Y25.3835
G01 X17.6624 Y25.4669
G01 X17.7038 Y25.5546
G01 X17.7366 Y25.6462
G01 X17.7602 Y25.7404
G01 X17.7744 Y25.8363
G01 X17.7792 Y25.9334
G01 X17.7744 Y26.0305
G01 X17.7602 Y26.1264
G01 X17.7366 Y26.2206
G01 X17.7038 Y26.3122
G01 X17.6624 Y26.3999
G01 X17.6124 Y26.4833
G01 X17.5546 Y26.5612
G01 X17.4893 Y26.6333
G01 X17.4172 Y26.6986
G01 X17.3393 Y26.7564
G01 X17.2559 Y26.8064
G01 X17.1682 Y26.8478
G01 X17.0766 Y26.8806
G01 X16.9824 Y26.9042
G01 X16.8865 Y26.9184
G01 X16.7894 Y26.9232
G01 X16.6923 Y26.9184
G01 X16.5964 Y26.9042
G01 X16.5022 Y26.8806
G01 X16.4106 Y26.8478
G01 X16.3229 Y26.8064
G01 X16.2395 Y26.7564
G01 X16.1616 Y26.6986
G01 X16.0895 Y26.6333
G01 X16.0242 Y26.5612
G01 X15.9664 Y26.4833
G01 X15.9164 Y26.3999
G01 X15.8750 Y26.3122
G01 X15.8422 Y26.2206
G01 X15.8186 Y26.1264
G01 X15.8044 Y26.0305
G01 X15.7997 Y25.9309
G00 Z2.0000
G00 X15.7997 Y23.3909
G01 F60.00
G01 Z-0.1000
G01 F120.00
G01 X15.8044 Y23.2963
G01 X15.8186 Y23.2004
G01 X15.8422 Y23.1062
G01 X15.8750 Y23.0146
G01 X15.9164 Y22.9269
G01 X15.9664 Y22.8435
G01 X16.0242 Y22.7656
G01 X16.0895 Y22.6935
G01 X16.1616 Y22.6282
G01 X16.2395 Y22.5704
G01 X16.3229 Y22.5204
G01 X16.4106 Y22.4790
G01 X16.5022 Y22.4462
G01 X16.5964 Y22.4226
G01 X16.6923 Y22.4084
G01 X16.7894 Y22.4036
G01 X16.8865 Y22.4084
G01 X16.9824 Y22.4226
G01 X17.0766 Y22.4462
G01 X17.1682 Y22.4790
G01 X17.2559 Y22.5204
G01 X17.3393 Y22.5704
G01 X17.4172 Y22.6282
G01 X17.4893 Y22.6935
G01 X17.5546 Y22.7656
G01 X17.6124 Y22.8435
G01 X17.6624 Y22.9269
G01 X17.7038 Y23.0146
G01 X17.7366 Y23.1062
G01 X17.7602 Y23.2004
G01 X17.7744 Y23.2963
G01 X17.7792 Y23.3934
G01 X17.7744 Y23.4905
G01 X17.7602 Y23.5864
G01 X17.7366 Y23.6806
G01 X17.7038 Y23.7722
G01 X17.6624 Y23.8599
G01 X17.6124 Y23.9433
G01 X17.5546 Y24.0212
G01 X17.4893 Y24.0933
G01 X17.4172 Y24.1586
G01 X17.3393 Y24.2164
G01 X17.2559 Y24.2664
G01 X17.1682 Y24.3078
G01 X17.0766 Y24.3406
G01 X16.9824 Y24.3642
G01 X16.8865 Y24.3784
G01 X16.7894 Y24.3832
G01 X16.6923 Y24.3784
G01 X16.5964 Y24.3642
G01 X16.5022 Y24.3406
G01 X16.4106 Y24.3078
G01 X16.3229 Y24.2664
G01 X16.2395 Y24.2164
G01 X16.1616 Y24.1586
G01 X16.0895 Y24.0933
G01 X16.0242 Y24.0212
G01 X15.9664 Y23.9433
G01 X15.9164 Y23.8599
G01 X15.8750 Y23.7722
G01 X15.8422 Y23.6806
G01 X15.8186 Y23.5864
G01 X15.8044 Y23.4905
G01 X15.7997 Y23.3909
G00 Z2.0000
G00 X18.7207 Y27.3279
G01 F60.00
G01 Z-0.1000
G01 F120.00
G01 X18.7254 Y27.2333
G01 X18.7396 Y27.1374
G01 X18.7632 Y27.0432
G01 X18.7960 Y26.9516
G01 X18.8374 Y26.8639
G01 X18.8874 Y26.7805
G01 X18.9452 Y26.7026
G01 X19.0105 Y26.6305
G01 X19.0826 Y26.5652
G01 X19.1605 Y26.5074
G01 X19.2439 Y26.4574
G01 X19.3316 Y26.4160
G01 X19.4232 Y26.3832
G01 X19.5174 Y26.3596
G01 X19.6133 Y26.3454
G01 X19.7104 Y26.3406
G01 X19.8075 Y26.3454
G01 X19.9034 Y26.3596
G01 X19.9976 Y26.3832
G01 X20.0892 Y26.4160
G01 X20.1769 Y26.4574
G01 X20.2603 Y26.5074
G01 X20.3382 Y26.5652
G01 X20.4103 Y26.6305
G01 X20.4756 Y26.7026
G01 X20.5334 Y26.7805
G01 X20.5834 Y26.8639
G01 X20.6248 Y26.9516
G01 X20.6576 Y27.0432
G01 X20.6812 Y27.1374
G01 X20.6954 Y27.2333
G01 X20.7002 Y27.3304
G01 X20.6954 Y27.4275
G01 X20.6812 Y27.5234
G01 X20.6576 Y27.6176
G01 X20.6248 Y27.7092
G01 X20.5834 Y27.7969
G01 X20.5334 Y27.8803
G01 X20.4756 Y27.9582
G01 X20.4103 Y28.0303
G01 X20.3382 Y28.0956
G01 X20.2603 Y28.1534
G01 X20.1769 Y28.2034
G01 X20.0892 Y28.2448
G01 X19.9976 Y28.2776
G01 X19.9034 Y28.3012
G01 X19.8075 Y28.3154
G01 X19.7104 Y28.3202
G01 X19.6133 Y28.3154
G01 X19.5174 Y28.3012
G01 X19.4232 Y28.2776
G01 X19.3316 Y28.2448
G01 X19.2439 Y28.2034
G01 X19.1605 Y28.1534
G01 X19.0826 Y28.0956
G01 X19.0105 Y28.0303
G01 X18.9452 Y27.9582
G01 X18.8874 Y27.8803
G01 X18.8374 Y27.7969
G01 X18.7960 Y27.7092
G01 X18.7632 Y27.6176
G01 X18.7396 Y27.5234
G01 X18.7254 Y27.4275
G01 X18.7207 Y27.3279
G00 Z2.0000
G00 X18.7207 Y29.8679
G01 F60.00
G01 Z-0.1000
G01 F120.00
G01 X18.7254 Y29.7733
G01 X18.7396 Y29.6774
G01 X18.7632 Y29.5832
G01 X18.7960 Y29.4916
G01 X18.8374 Y29.4039
G01 X18.8874 Y29.3205
G01 X18.9452 Y29.2426
G01 X19.0105 Y29.1705
G01 X19.0826 Y29.1052
G01 X19.1605 Y29.0474
G01 X19.2439 Y28.9974
G01 X19.3316 Y28.9560
G01 X19.4232 Y28.9232
G01 X19.5174 Y28.8996
G01 X19.6133 Y28.8854
G01 X19.7104 Y28.8806
G01 X19.8075 Y28.8854
G01 X19.9034 Y28.8996
G01 X19.9976 Y28.9232
G01 X20.0892 Y28.9560
G01 X20.1769 Y28.9974
G01 X20.2603 Y29.0474
G01 X20.3382 Y29.1052
G01 X20.4103 Y29.1705
G01 X20.4756 Y29.2426
G01 X20.5334 Y29.3205
G01 X20.5834 Y29.4039
G01 X20.6248 Y29.4916
G01 X20.6576 Y29.5832
G01 X20.6812 Y29.6774
G01 X20.6954 Y29.7733
G01 X20.7002 Y29.8704
G01 X20.6954 Y29.9675
G01 X20.6812 Y30.0634
G01 X20.6576 Y30.1576
G01 X20.6248 Y30.2492
G01 X20.5834 Y30.3369
G01 X20.5334 Y30.4203
G01 X20.4756 Y30.4982
G01 X20.4103 Y30.5703
G01 X20.3382 Y30.6356
G01 X20.2603 Y30.6934
G01 X20.1769 Y30.7434
G01 X20.0892 Y30.7848
G01 X19.9976 Y30.8176
G01 X19.9034 Y30.8412
G01 X19.8075 Y30.8554
G01 X19.7104 Y30.8602
G01 X19.6133 Y30.8554
G01 X19.5174 Y30.8412
G01 X19.4232 Y30.8176
G01 X19.3316 Y30.7848
G01 X19.2439 Y30.7434
G01 X19.1605 Y30.6934
G01 X19.0826 Y30.6356
G01 X19.0105 Y30.5703
G01 X18.9452 Y30.4982
G01 X18.8874 Y30.4203
G01 X18.8374 Y30.3369
G01 X18.7960 Y30.2492
G01 X18.7632 Y30.1576
G01 X18.7396 Y30.0634
G01 X18.7254 Y29.9675
G01 X18.7207 Y29.8679
G00 Z2.0000
G00 X15.7997 Y18.3109
G01 F60.00
G01 Z-0.1000
G01 F120.00
G01 X15.8044 Y18.2163
G01 X15.8186 Y18.1204
G01 X15.8422 Y18.0262
G01 X15.8741 Y17.9369
G01 X15.9177 Y17.8447
G01 X15.9664 Y17.7635
G01 X16.0242 Y17.6856
G01 X16.0895 Y17.6135
G01 X16.1596 Y17.5499
G01 X16.2416 Y17.4891
G01 X16.3229 Y17.4404
G01 X16.4106 Y17.3990
G01 X16.5022 Y17.3662
G01 X16.5964 Y17.3426
G01 X16.6923 Y17.3284
G01 X16.7869 Y17.3237
G01 X16.8889 Y17.3287
G01 X16.9824 Y17.3426
G01 X17.0766 Y17.3662
G01 X17.1682 Y17.3990
G01 X17.2559 Y17.4404
G01 X17.3393 Y17.4904
G01 X17.4172 Y17.5482
G01 X17.4893 Y17.6135
G01 X17.5529 Y17.6836
G01 X17.6137 Y17.7656
G01 X17.6624 Y17.8469
G01 X17.7043 Y17.9357
G01 X17.7366 Y18.0262
G01 X17.7596 Y18.1179
G01 X17.7746 Y18.2188
G01 X17.7792 Y18.3134
G01 X17.7744 Y18.4105
G01 X17.7602 Y18.5064
G01 X17.7369 Y18.5995
G01 X17.7038 Y18.6922
G01 X17.6611 Y18.7821
G01 X17.6124 Y18.8633
G01 X17.5560 Y18.9394
G01 X17.4902 Y19.0124
G01 X17.4172 Y19.0786
G01 X17.3383 Y19.1371
G01 X17.2548 Y19.1870
G01 X17.1694 Y19.2274
G01 X17.1444 Y19.2364
G01 X17.1444 Y19.9304
G01 X17.1694 Y19.9394
G01 X17.2570 Y19.9810
G01 X17.3393 Y20.0304
G01 X17.4172 Y20.0882
G01 X17.4893 Y20.1535
G01 X17.5529 Y20.2236
G01 X17.6131 Y20.3045
G01 X17.6624 Y20.3869
G01 X17.7038 Y20.4746
G01 X17.7366 Y20.5662
G01 X17.7596 Y20.6579
G01 X17.7744 Y20.7563
G01 X17.7791 Y20.8509
G01 X17.7741 Y20.9529
G01 X17.7602 Y21.0464
G01 X17.7372 Y21.1384
G01 X17.7038 Y21.2322
G01 X17.6611 Y21.3221
G01 X17.6124 Y21.4033
G01 X17.5560 Y21.4794
G01 X17.4893 Y21.5533
G01 X17.4154 Y21.6200
G01 X17.3393 Y21.6764
G01 X17.2581 Y21.7251
G01 X17.1671 Y21.7683
G01 X17.0766 Y21.8006
G01 X16.9824 Y21.8242
G01 X16.8865 Y21.8384
G01 X16.7894 Y21.8432
G01 X16.6923 Y21.8384
G01 X16.5964 Y21.8242
G01 X16.5022 Y21.8006
G01 X16.4106 Y21.7678
G01 X16.3229 Y21.7264
G01 X16.2395 Y21.6764
G01 X16.1616 Y21.6186
G01 X16.0895 Y21.5533
G01 X16.0242 Y21.4812
G01 X15.9664 Y21.4033
G01 X15.9164 Y21.3199
G01 X15.8745 Y21.2311
G01 X15.8422 Y21.1406
G01 X15.8192 Y21.0489
G01 X15.8042 Y20.9480
G01 X15.7996 Y20.8534
G01 X15.8044 Y20.7563
G01 X15.8186 Y20.6604
G01 X15.8419 Y20.5673
G01 X15.8750 Y20.4746
G01 X15.9177 Y20.3847
G01 X15.9664 Y20.3035
G01 X16.0228 Y20.2274
G01 X16.0886 Y20.1544
G01 X16.1616 Y20.0882
G01 X16.2405 Y20.0297
G01 X16.3240 Y19.9798
G01 X16.4094 Y19.9394
G01 X16.4344 Y19.9304
G01 X16.4344 Y19.2364
G01 X16.4094 Y19.2274
G01 X16.3218 Y19.1858
G01 X16.2395 Y19.1364
G01 X16.1625 Y19.0793
G01 X16.0878 Y19.0115
G01 X16.0242 Y18.9412
G01 X15.9671 Y18.8643
G01 X15.9154 Y18.7778
G01 X15.8750 Y18.6922
G01 X15.8422 Y18.6006
G01 X15.8186 Y18.5064
G01 X15.8047 Y18.4129
G01 X15.7997 Y18.3109
G00 Z2.0000
G00 X15.7997 Y15.7709
G01 F60.00
G01 Z-0.1000
G01 F120.00
G01 X15.8044 Y15.6763
G01 X15.8186 Y15.5804
G01 X15.8422 Y15.4862
G01 X15.8750 Y15.3946
G01 X15.9164 Y15.3069
G01 X15.9664 Y15.2235
G01 X16.0242 Y15.1456
G01 X16.0895 Y15.0735
G01 X16.1616 Y15.0082
G01 X16.2395 Y14.9504
G01 X16.3229 Y14.9004
G01 X16.4106 Y14.8590
G01 X16.5022 Y14.8262
G01 X16.5964 Y14.8026
G01 X16.6923 Y14.7884
G01 X16.7894 Y14.7836
G01 X16.8865 Y14.7884
G01 X16.9824 Y14.8026
G01 X17.0766 Y14.8262
G01 X17.1682 Y14.8590
G01 X17.2559 Y14.9004
G01 X17.3393 Y14.9504
G01 X17.4172 Y15.0082
G01 X17.4893 Y15.0735
G01 X17.5546 Y15.1456
G01 X17.6124 Y15.2235
G01 X17.6624 Y15.3069
G01 X17.7038 Y15.3946
G01 X17.7366 Y15.4862
G01 X17.7602 Y15.5804
G01 X17.7744 Y15.6763
G01 X17.7792 Y15.7734
G01 X17.7744 Y15.8705
G01 X17.7602 Y15.9664
G01 X17.7366 Y16.0606
G01 X17.7038 Y16.1522
G01 X17.6624 Y16.2399
G01 X17.6124 Y16.3233
G01 X17.5546 Y16.4012
G01 X17.4893 Y16.4733
G01 X17.4172 Y16.5386
G01 X17.3393 Y16.5964
G01 X17.2559 Y16.6464
G01 X17.1682 Y16.6878
G01 X17.0766 Y16.7206
G01 X16.9824 Y16.7442
G01 X16.8865 Y16.7584
G01 X16.7894 Y16.7632
G01 X16.6923 Y16.7584
G01 X16.5964 Y16.7442
G01 X16.5022 Y16.7206
G01 X16.4106 Y16.6878
G01 X16.3229 Y16.6464
G01 X16.2395 Y16.5964
G01 X16.1616 Y16.5386
G01 X16.0895 Y16.4733
G01 X16.0242 Y16.4012
G01 X15.9664 Y16.3233
G01 X15.9164 Y16.2399
G01 X15.8750 Y16.1522
G01 X15.8422 Y16.0606
G01 X15.8186 Y15.9664
G01 X15.8044 Y15.8705
G01 X15.7997 Y15.7709
G00 Z2.0000
G00 X15.7997 Y13.2309
G01 F60.00
G01 Z-0.1000
G01 F120.00
G01 X15.8044 Y13.1363
G01 X15.8186 Y13.0404
G01 X15.8422 Y12.9462
G01 X15.8750 Y12.8546
G01 X15.9164 Y12.7669
G01 X15.9664 Y12.6835
G01 X16.0242 Y12.6056
G01 X16.0895 Y12.5335
G01 X16.1616 Y12.4682
G01 X16.2395 Y12.4104
G01 X16.3229 Y12.3604
G01 X16.4106 Y12.3190
G01 X16.5022 Y12.2862
G01 X16.5964 Y12.2626
G01 X16.6923 Y12.2484
G01 X16.7894 Y12.2436
G01 X16.8865 Y12.2484
G01 X16.9824 Y12.2626
G01 X17.0766 Y12.2862
G01 X17.1682 Y12.3190
G01 X17.2559 Y12.3604
G01 X17.3393 Y12.4104
G01 X17.4172 Y12.4682
G01 X17.4893 Y12.5335
G01 X17.5546 Y12.6056
G01 X17.6124 Y12.6835
G01 X17.6624 Y12.7669
G01 X17.7038 Y12.8546
G01 X17.7366 Y12.9462
G01 X17.7602 Y13.0404
G01 X17.7744 Y13.1363
G01 X17.7792 Y13.2334
G01 X17.7744 Y13.3305
G01 X17.7602 Y13.4264
G01 X17.7366 Y13.5206
G01 X17.7038 Y13.6122
G01 X17.6624 Y13.6999
G01 X17.6124 Y13.7833
G01 X17.5546 Y13.8612
G01 X17.4893 Y13.9333
G01 X17.4172 Y13.9986
G01 X17.3393 Y14.0564
G01 X17.2559 Y14.1064
G01 X17.1682 Y14.1478
G01 X17.0766 Y14.1806
G01 X16.9824 Y14.2042
G01 X16.8865 Y14.2184
G01 X16.7894 Y14.2232
G01 X16.6923 Y14.2184
G01 X16.5964 Y14.2042
G01 X16.5022 Y14.1806
G01 X16.4106 Y14.1478
G01 X16.3229 Y14.1064
G01 X16.2395 Y14.0564
G01 X16.1616 Y13.9986
G01 X16.0895 Y13.9333
G01 X16.0242 Y13.8612
G01 X15.9664 Y13.7833
G01 X15.9164 Y13.6999
G01 X15.8750 Y13.6122
G01 X15.8422 Y13.5206
G01 X15.8186 Y13.4264
G01 X15.8044 Y13.3305
G01 X15.7997 Y13.2309
G00 Z2.0000
G00 X15.7425 Y8.2294
G01 F60.00
G01 Z-0.1000
G01 F120.00
G01 X15.7400 Y8.1792
G01 X15.7400 Y8.1276
G01 X15.7425 Y8.0762
G01 X15.7475 Y8.0261
G01 X15.7554 Y7.9727
G01 X15.7652 Y7.9234
G01 X15.7781 Y7.8723
G01 X15.7927 Y7.8242
G01 X15.8101 Y7.7754
G01 X15.8298 Y7.7280
G01 X15.8517 Y7.6816
G01 X15.8761 Y7.6360
G01 X15.9026 Y7.5918
G01 X15.9313 Y7.5489
G01 X15.9611 Y7.5086
G01 X15.9954 Y7.4668
G01 X16.0292 Y7.4296
G01 X16.0665 Y7.3923
G01 X16.1038 Y7.3586
G01 X16.1436 Y7.3259
G01 X16.1850 Y7.2952
G01 X16.2278 Y7.2666
G01 X16.2719 Y7.2401
G01 X16.3164 Y7.2163
G01 X16.3651 Y7.1933
G01 X16.4116 Y7.1740
G01 X16.4601 Y7.1567
G01 X16.5094 Y7.1417
G01 X16.5582 Y7.1295
G01 X16.6099 Y7.1192
G01 X16.6597 Y7.1118
G01 X16.7134 Y7.1065
G01 X16.7636 Y7.1040
G01 X16.8152 Y7.1040
G01 X16.8666 Y7.1065
G01 X16.9179 Y7.1116
G01 X16.9689 Y7.1192
G01 X17.0182 Y7.1290
G01 X17.0705 Y7.1421
G01 X17.1186 Y7.1567
G01 X17.1674 Y7.1741
G01 X17.2148 Y7.1938
G01 X17.2612 Y7.2157
G01 X17.3068 Y7.2401
G01 X17.3500 Y7.2659
G01 X17.3948 Y7.2959
G01 X17.4352 Y7.3259
G01 X17.4750 Y7.3586
G01 X17.5132 Y7.3932
G01 X17.5496 Y7.4296
G01 X17.5842 Y7.4678
G01 X17.6169 Y7.5076
G01 X17.6476 Y7.5490
G01 X17.6756 Y7.5908
G01 X17.7033 Y7.6371
G01 X17.7271 Y7.6816
G01 X17.7495 Y7.7291
G01 X17.7688 Y7.7756
G01 X17.7861 Y7.8241
G01 X17.8011 Y7.8734
G01 X17.8133 Y7.9222
G01 X17.8238 Y7.9752
G01 X17.8312 Y8.0249
G01 X17.8363 Y8.0762
G01 X17.8387 Y8.1264
G01 X17.8394 Y8.1546
G01 X17.8387 Y8.1804
G01 X17.8363 Y8.2306
G01 X17.8313 Y8.2807
G01 X17.8234 Y8.3341
G01 X17.8136 Y8.3834
G01 X17.8007 Y8.4345
G01 X17.7861 Y8.4826
G01 X17.7692 Y8.5300
G01 X17.7495 Y8.5777
G01 X17.7271 Y8.6252
G01 X17.7027 Y8.6708
G01 X17.6762 Y8.7150
G01 X17.6469 Y8.7588
G01 X17.6169 Y8.7992
G01 X17.5850 Y8.8381
G01 X17.5496 Y8.8772
G01 X17.5132 Y8.9136
G01 X17.4741 Y8.9490
G01 X17.4352 Y8.9809
G01 X17.3948 Y9.0109
G01 X17.3510 Y9.0402
G01 X17.3069 Y9.0667
G01 X17.2612 Y9.0911
G01 X17.2146 Y9.1131
G01 X17.1672 Y9.1328
G01 X17.1444 Y9.1409
G01 X17.1444 Y9.7704
G01 X17.1694 Y9.7794
G01 X17.2570 Y9.8210
G01 X17.3393 Y9.8704
G01 X17.4181 Y9.9290
G01 X17.4893 Y9.9935
G01 X17.5546 Y10.0656
G01 X17.6124 Y10.1435
G01 X17.6618 Y10.2258
G01 X17.7038 Y10.3146
G01 X17.7358 Y10.4037
G01 X17.7606 Y10.5027
G01 X17.7744 Y10.5963
G01 X17.7792 Y10.6934
G01 X17.7744 Y10.7905
G01 X17.7606 Y10.8841
G01 X17.7366 Y10.9806
G01 X17.7029 Y11.0744
G01 X17.6624 Y11.1599
G01 X17.6137 Y11.2412
G01 X17.5546 Y11.3212
G01 X17.4893 Y11.3933
G01 X17.4154 Y11.4600
G01 X17.3393 Y11.5164
G01 X17.2581 Y11.5651
G01 X17.1682 Y11.6078
G01 X17.0766 Y11.6406
G01 X16.9824 Y11.6642
G01 X16.8865 Y11.6784
G01 X16.7894 Y11.6832
G01 X16.6923 Y11.6784
G01 X16.5964 Y11.6642
G01 X16.5022 Y11.6406
G01 X16.4106 Y11.6078
G01 X16.3229 Y11.5664
G01 X16.2395 Y11.5164
G01 X16.1616 Y11.4586
G01 X16.0895 Y11.3933
G01 X16.0242 Y11.3212
G01 X15.9664 Y11.2433
G01 X15.9164 Y11.1599
G01 X15.8750 Y11.0722
G01 X15.8422 Y10.9806
G01 X15.8192 Y10.8889
G01 X15.8042 Y10.7880
G01 X15.7996 Y10.6934
G01 X15.8044 Y10.5963
G01 X15.8186 Y10.5004
G01 X15.8422 Y10.4062
G01 X15.8750 Y10.3146
G01 X15.9177 Y10.2247
G01 X15.9664 Y10.1435
G01 X16.0228 Y10.0674
G01 X16.0886 Y9.9944
G01 X16.1616 Y9.9282
G01 X16.2405 Y9.8697
G01 X16.3240 Y9.8198
G01 X16.4094 Y9.7794
G01 X16.4344 Y9.7704
G01 X16.4344 Y9.1409
G01 X16.4114 Y9.1327
G01 X16.3651 Y9.1135
G01 X16.3164 Y9.0905
G01 X16.2720 Y9.0667
G01 X16.2288 Y9.0409
G01 X16.1849 Y9.0115
G01 X16.1436 Y8.9809
G01 X16.1047 Y8.9490
G01 X16.0656 Y8.9136
G01 X16.0292 Y8.8772
G01 X15.9954 Y8.8400
G01 X15.9611 Y8.7982
G01 X15.9312 Y8.7578
G01 X15.9032 Y8.7160
G01 X15.8761 Y8.6709
G01 X15.8512 Y8.6243
G01 X15.8297 Y8.5786
G01 X15.8100 Y8.5312
G01 X15.7927 Y8.4827
G01 X15.7781 Y8.4345
G01 X15.7652 Y8.3834
G01 X15.7552 Y8.3329
G01 X15.7478 Y8.2831
G01 X15.7425 Y8.2294
G00 Z2.0000
G00 X18.2825 Y8.2294
G01 F60.00
G01 Z-0.1000
G01 F120.00
G01 X18.2800 Y8.1792
G01 X18.2800 Y8.1276
G01 X18.2825 Y8.0762
G01 X18.2876 Y8.0249
G01 X18.2952 Y7.9739
G01 X18.3052 Y7.9234
G01 X18.3177 Y7.8734
G01 X18.3327 Y7.8242
G01 X18.3501 Y7.7754
G01 X18.3698 Y7.7280
G01 X18.3917 Y7.6816
G01 X18.4161 Y7.6360
G01 X18.4426 Y7.5918
G01 X18.4713 Y7.5489
G01 X18.5019 Y7.5076
G01 X18.5354 Y7.4668
G01 X18.5692 Y7.4296
G01 X18.6056 Y7.3932
G01 X18.6438 Y7.3586
G01 X18.6836 Y7.3259
G01 X18.7250 Y7.2952
G01 X18.7678 Y7.2666
G01 X18.8119 Y7.2401
G01 X18.8585 Y7.2152
G01 X18.9042 Y7.1937
G01 X18.9516 Y7.1740
G01 X19.0001 Y7.1567
G01 X19.0506 Y7.1414
G01 X19.0994 Y7.1292
G01 X19.1512 Y7.1190
G01 X19.2021 Y7.1115
G01 X19.2522 Y7.1065
G01 X19.3024 Y7.1041
G01 X19.3564 Y7.1041
G01 X19.4066 Y7.1065
G01 X19.4579 Y7.1116
G01 X19.5089 Y7.1192
G01 X19.5582 Y7.1290
G01 X19.6105 Y7.1421
G01 X19.6586 Y7.1567
G01 X19.7074 Y7.1741
G01 X19.7548 Y7.1938
G01 X19.8003 Y7.2152
G01 X19.8479 Y7.2407
G01 X19.8910 Y7.2666
G01 X19.9328 Y7.2945
G01 X19.9762 Y7.3266
G01 X20.0150 Y7.3586
G01 X20.0532 Y7.3932
G01 X20.0896 Y7.4296
G01 X20.1234 Y7.4668
G01 X20.1569 Y7.5076
G01 X20.1876 Y7.5490
G01 X20.2156 Y7.5908
G01 X20.2432 Y7.6368
G01 X20.2671 Y7.6816
G01 X20.2885 Y7.7269
G01 X20.3088 Y7.7756
G01 X20.3163 Y7.7967
G01 X26.9479 Y7.7731
G01 X31.0595 Y7.7527
G01 X31.0698 Y7.7280
G01 X31.0912 Y7.6825
G01 X31.1155 Y7.6371
G01 X31.1426 Y7.5918
G01 X31.1705 Y7.5500
G01 X31.2019 Y7.5076
G01 X31.2346 Y7.4678
G01 X31.2692 Y7.4296
G01 X31.3047 Y7.3940
G01 X31.3438 Y7.3586
G01 X31.3836 Y7.3259
G01 X31.4250 Y7.2952
G01 X31.4678 Y7.2666
G01 X31.5119 Y7.2401
G01 X31.5576 Y7.2157
G01 X31.6042 Y7.1937
G01 X31.6516 Y7.1740
G01 X31.7001 Y7.1567
G01 X31.7494 Y7.1417
G01 X31.7994 Y7.1292
G01 X31.8499 Y7.1192
G01 X31.9009 Y7.1116
G01 X31.9522 Y7.1065
G01 X32.0036 Y7.1040
G01 X32.0564 Y7.1041
G01 X32.1066 Y7.1065
G01 X32.1579 Y7.1116
G01 X32.2089 Y7.1192
G01 X32.2606 Y7.1295
G01 X32.3094 Y7.1417
G01 X32.3598 Y7.1571
G01 X32.4083 Y7.1745
G01 X32.4548 Y7.1938
G01 X32.4821 Y7.2067
G01 X34.3476 Y5.3841
G01 X34.3726 Y5.3620
G01 X34.3975 Y5.3437
G01 X34.4274 Y5.3258
G01 X34.4576 Y5.3114
G01 X34.4641 Y5.3088
G01 X34.4917 Y5.2991
G01 X34.5230 Y5.2912
G01 X34.5320 Y5.2895
G01 X34.5586 Y5.2857
G01 X34.5655 Y5.2851
G01 X34.5946 Y5.2838
G01 X77.7746 Y5.2584
G01 X77.7981 Y5.2592
G01 X77.8107 Y5.2603
G01 X77.8338 Y5.2634
G01 X77.8450 Y5.2655
G01 X77.8679 Y5.2709
G01 X77.8787 Y5.2740
G01 X77.9012 Y5.2817
G01 X77.9116 Y5.2859
G01 X77.9329 Y5.2956
G01 X87.2196 Y9.9158
G01 X87.2502 Y9.8882
G01 X87.3303 Y9.8289
G01 X87.4201 Y9.7750
G01 X87.5111 Y9.7320
G01 X87.6050 Y9.6984
G01 X87.7088 Y9.6724
G01 X87.8073 Y9.6578
G01 X87.9069 Y9.6529
G01 X88.0089 Y9.6576
G01 X88.1123 Y9.6728
G01 X88.2091 Y9.6970
G01 X88.2188 Y9.7002
G01 X88.2327 Y9.6951
G01 X88.2638 Y9.6866
G01 X88.2981 Y9.6807
G01 X88.3340 Y9.6781
G01 X88.3715 Y9.6794
G01 X88.4034 Y9.6835
G01 X88.4375 Y9.6914
G01 X88.4704 Y9.7024
G01 X88.5012 Y9.7162
G01 X88.5344 Y9.7353
G01 X88.5609 Y9.7542
G01 X88.5854 Y9.7754
G01 X88.6109 Y9.8023
G01 X88.6337 Y9.8321
G01 X88.6509 Y9.8596
G01 X88.6654 Y9.8885
G01 X88.6784 Y9.9221
G01 X88.6881 Y9.9580
G01 X88.6937 Y9.9910
G01 X88.6952 Y10.0127
G01 X88.7146 Y10.0342
G01 X88.7753 Y10.1163
G01 X88.8272 Y10.2029
G01 X88.8698 Y10.2929
G01 X88.9052 Y10.3915
G01 X88.9300 Y10.4905
G01 X88.9450 Y10.5913
G01 X88.9500 Y10.6946
G01 X88.9447 Y10.7978
G01 X88.9300 Y10.8963
G01 X88.9058 Y10.9931
G01 X88.8708 Y11.0917
G01 X88.8272 Y11.1839
G01 X88.7747 Y11.2715
G01 X88.7122 Y11.3554
G01 X88.6452 Y11.4292
G01 X88.5714 Y11.4962
G01 X88.4875 Y11.5587
G01 X88.3999 Y11.6112
G01 X88.3053 Y11.6557
G01 X88.2113 Y11.6892
G01 X88.1148 Y11.7135
G01 X88.0115 Y11.7290
G01 X87.9094 Y11.7340
G01 X87.8050 Y11.7287
G01 X87.7065 Y11.7140
G01 X87.6097 Y11.6898
G01 X87.5111 Y11.6548
G01 X87.4189 Y11.6112
G01 X87.3333 Y11.5599
G01 X87.2474 Y11.4962
G01 X87.1736 Y11.4292
G01 X87.1049 Y11.3535
G01 X87.0441 Y11.2715
G01 X86.9922 Y11.1850
G01 X86.9480 Y11.0917
G01 X86.9144 Y10.9978
G01 X86.8886 Y10.8952
G01 X86.8738 Y10.7955
G01 X86.8688 Y10.6946
G01 X86.8737 Y10.5926
G01 X86.8813 Y10.5403
G01 X77.6915 Y5.9684
G01 X34.7395 Y5.9937
G01 X32.9812 Y7.7115
G01 X32.9891 Y7.7282
G01 X33.0088 Y7.7756
G01 X33.0265 Y7.8253
G01 X33.0411 Y7.8734
G01 X33.0533 Y7.9222
G01 X33.0638 Y7.9752
G01 X33.0712 Y8.0249
G01 X33.0761 Y8.0750
G01 X33.0787 Y8.1264
G01 X33.0794 Y8.1522
G01 X33.0787 Y8.1804
G01 X33.0763 Y8.2306
G01 X33.0712 Y8.2819
G01 X33.0636 Y8.3329
G01 X33.0538 Y8.3822
G01 X33.0411 Y8.4334
G01 X33.0257 Y8.4838
G01 X33.0087 Y8.5314
G01 X32.9895 Y8.5777
G01 X32.9671 Y8.6252
G01 X32.9421 Y8.6719
G01 X32.9162 Y8.7150
G01 X32.8883 Y8.7568
G01 X32.8562 Y8.8002
G01 X32.8242 Y8.8390
G01 X32.7896 Y8.8772
G01 X32.7532 Y8.9136
G01 X32.7150 Y8.9482
G01 X32.6752 Y8.9809
G01 X32.6338 Y9.0116
G01 X32.5910 Y9.0402
G01 X32.5469 Y9.0667
G01 X32.5012 Y9.0911
G01 X32.4546 Y9.1131
G01 X32.4072 Y9.1328
G01 X32.3587 Y9.1501
G01 X32.3094 Y9.1651
G01 X32.2594 Y9.1776
G01 X32.2089 Y9.1876
G01 X32.1591 Y9.1950
G01 X32.1066 Y9.2003
G01 X32.0564 Y9.2027
G01 X32.0024 Y9.2027
G01 X31.9522 Y9.2003
G01 X31.9009 Y9.1952
G01 X31.8499 Y9.1876
G01 X31.7994 Y9.1776
G01 X31.7494 Y9.1651
G01 X31.7013 Y9.1505
G01 X31.6505 Y9.1323
G01 X31.6040 Y9.1130
G01 X31.5576 Y9.0911
G01 X31.5120 Y9.0667
G01 X31.4678 Y9.0402
G01 X31.4249 Y9.0115
G01 X31.3836 Y8.9809
G01 X31.3438 Y8.9482
G01 X31.3065 Y8.9145
G01 X31.2684 Y8.8764
G01 X31.2346 Y8.8390
G01 X31.2019 Y8.7992
G01 X31.1712 Y8.7578
G01 X31.1426 Y8.7150
G01 X31.1161 Y8.6709
G01 X31.0923 Y8.6264
G01 X31.0697 Y8.5786
G01 X31.0505 Y8.5323
G01 X31.0327 Y8.4827
G01 X31.0266 Y8.4628
G01 X26.9507 Y8.4830
G01 X20.3176 Y8.5066
G01 X20.3087 Y8.5314
G01 X20.2890 Y8.5788
G01 X20.2671 Y8.6252
G01 X20.2433 Y8.6697
G01 X20.2156 Y8.7160
G01 X20.1875 Y8.7579
G01 X20.1569 Y8.7992
G01 X20.1242 Y8.8390
G01 X20.0905 Y8.8763
G01 X20.0523 Y8.9145
G01 X20.0150 Y8.9482
G01 X19.9752 Y8.9809
G01 X19.9338 Y9.0116
G01 X19.8920 Y9.0396
G01 X19.8457 Y9.0673
G01 X19.8012 Y9.0911
G01 X19.7546 Y9.1131
G01 X19.7072 Y9.1328
G01 X19.6598 Y9.1497
G01 X19.6082 Y9.1654
G01 X19.5594 Y9.1776
G01 X19.5089 Y9.1876
G01 X19.4579 Y9.1952
G01 X19.4078 Y9.2001
G01 X19.3539 Y9.2028
G01 X19.3036 Y9.2028
G01 X19.2522 Y9.2003
G01 X19.2009 Y9.1952
G01 X19.1499 Y9.1876
G01 X19.0994 Y9.1776
G01 X19.0506 Y9.1654
G01 X19.0002 Y9.1501
G01 X18.9528 Y9.1332
G01 X18.9029 Y9.1125
G01 X18.8576 Y9.0911
G01 X18.8120 Y9.0667
G01 X18.7678 Y9.0402
G01 X18.7249 Y9.0115
G01 X18.6836 Y8.9809
G01 X18.6438 Y8.9482
G01 X18.6056 Y8.9136
G01 X18.5700 Y8.8781
G01 X18.5338 Y8.8381
G01 X18.5019 Y8.7992
G01 X18.4705 Y8.7568
G01 X18.4426 Y8.7150
G01 X18.4161 Y8.6709
G01 X18.3917 Y8.6252
G01 X18.3697 Y8.5786
G01 X18.3500 Y8.5312
G01 X18.3327 Y8.4827
G01 X18.3177 Y8.4334
G01 X18.3055 Y8.3846
G01 X18.2952 Y8.3329
G01 X18.2878 Y8.2831
G01 X18.2825 Y8.2294
G00 Z2.0000
G00 X31.0397 Y10.6909
G01 F60.00
G01 Z-0.1000
G01 F120.00
G01 X31.0444 Y10.5963
G01 X31.0582 Y10.5027
G01 X31.0822 Y10.4062
G01 X31.1159 Y10.3124
G01 X31.1564 Y10.2269
G01 X31.2034 Y10.1483
G01 X31.1963 Y10.1144
G01 X31.1927 Y10.0824
G01 X31.1922 Y10.0427
G01 X31.1951 Y10.0104
G01 X31.2014 Y9.9766
G01 X31.2111 Y9.9432
G01 X31.2236 Y9.9118
G01 X31.2403 Y9.8794
G01 X31.2591 Y9.8505
G01 X31.2812 Y9.8229
G01 X31.3072 Y9.7966
G01 X31.3340 Y9.7744
G01 X31.3604 Y9.7563
G01 X31.3891 Y9.7405
G01 X31.4236 Y9.7255
G01 X31.4553 Y9.7154
G01 X31.4908 Y9.7079
G01 X31.5255 Y9.7041
G01 X31.5603 Y9.7037
G01 X31.5948 Y9.7067
G01 X31.6286 Y9.7130
G01 X31.6620 Y9.7227
G01 X31.6942 Y9.7355
G01 X31.7259 Y9.7519
G01 X31.7433 Y9.7459
G01 X31.8387 Y9.7222
G01 X31.9323 Y9.7084
G01 X32.0306 Y9.7036
G01 X32.1265 Y9.7084
G01 X32.2201 Y9.7222
G01 X32.3166 Y9.7462
G01 X32.4082 Y9.7790
G01 X32.4981 Y9.8217
G01 X32.5793 Y9.8704
G01 X32.6554 Y9.9268
G01 X32.7284 Y9.9926
G01 X32.7946 Y10.0656
G01 X32.8531 Y10.1445
G01 X32.9030 Y10.2280
G01 X32.9434 Y10.3134
G01 X32.9524 Y10.3384
G01 X33.5819 Y10.3384
G01 X33.5901 Y10.3154
G01 X33.6098 Y10.2680
G01 X33.6317 Y10.2216
G01 X33.6555 Y10.1771
G01 X33.6832 Y10.1308
G01 X33.7113 Y10.0889
G01 X33.7419 Y10.0476
G01 X33.7754 Y10.0068
G01 X33.8092 Y9.9696
G01 X33.8456 Y9.9332
G01 X33.8847 Y9.8978
G01 X33.9236 Y9.8659
G01 X33.9650 Y9.8352
G01 X34.0078 Y9.8066
G01 X34.0509 Y9.7807
G01 X34.0976 Y9.7557
G01 X34.1442 Y9.7337
G01 X34.1905 Y9.7145
G01 X34.2413 Y9.6963
G01 X34.2894 Y9.6817
G01 X34.3382 Y9.6695
G01 X34.3912 Y9.6590
G01 X34.4409 Y9.6516
G01 X34.4922 Y9.6465
G01 X34.5436 Y9.6440
G01 X34.5939 Y9.6440
G01 X34.6466 Y9.6465
G01 X34.6979 Y9.6516
G01 X34.7489 Y9.6592
G01 X34.7994 Y9.6692
G01 X34.8494 Y9.6817
G01 X34.8986 Y9.6967
G01 X34.9474 Y9.7141
G01 X34.9948 Y9.7338
G01 X35.0412 Y9.7557
G01 X35.0868 Y9.7801
G01 X35.1310 Y9.8066
G01 X35.1739 Y9.8353
G01 X35.2152 Y9.8659
G01 X35.2550 Y9.8986
G01 X35.2932 Y9.9332
G01 X35.3288 Y9.9687
G01 X35.3642 Y10.0078
G01 X35.3969 Y10.0476
G01 X35.4276 Y10.0890
G01 X35.4562 Y10.1318
G01 X35.4827 Y10.1759
G01 X35.5071 Y10.2216
G01 X35.5291 Y10.2682
G01 X35.5483 Y10.3145
G01 X35.5661 Y10.3641
G01 X35.5811 Y10.4134
G01 X35.5936 Y10.4634
G01 X35.6034 Y10.5127
G01 X35.6112 Y10.5649
G01 X35.6161 Y10.6150
G01 X35.6187 Y10.6664
G01 X35.6194 Y10.6934
G01 X35.6187 Y10.7204
G01 X35.6163 Y10.7706
G01 X35.6112 Y10.8219
G01 X35.6036 Y10.8729
G01 X35.5936 Y10.9234
G01 X35.5811 Y10.9734
G01 X35.5661 Y11.0226
G01 X35.5487 Y11.0714
G01 X35.5295 Y11.1177
G01 X35.5071 Y11.1652
G01 X35.4827 Y11.2108
G01 X35.4562 Y11.2550
G01 X35.4275 Y11.2979
G01 X35.3969 Y11.3392
G01 X35.3642 Y11.3790
G01 X35.3296 Y11.4172
G01 X35.2941 Y11.4528
G01 X35.2550 Y11.4882
G01 X35.2152 Y11.5209
G01 X35.1738 Y11.5516
G01 X35.1310 Y11.5802
G01 X35.0869 Y11.6067
G01 X35.0412 Y11.6311
G01 X34.9946 Y11.6531
G01 X34.9472 Y11.6728
G01 X34.8987 Y11.6901
G01 X34.8494 Y11.7051
G01 X34.7994 Y11.7176
G01 X34.7489 Y11.7276
G01 X34.6979 Y11.7352
G01 X34.6466 Y11.7403
G01 X34.5952 Y11.7428
G01 X34.5449 Y11.7428
G01 X34.4910 Y11.7401
G01 X34.4409 Y11.7352
G01 X34.3899 Y11.7276
G01 X34.3382 Y11.7173
G01 X34.2894 Y11.7051
G01 X34.2402 Y11.6901
G01 X34.1905 Y11.6723
G01 X34.1440 Y11.6530
G01 X34.0976 Y11.6311
G01 X34.0509 Y11.6061
G01 X34.0078 Y11.5802
G01 X33.9649 Y11.5515
G01 X33.9236 Y11.5209
G01 X33.8847 Y11.4890
G01 X33.8456 Y11.4536
G01 X33.8092 Y11.4172
G01 X33.7754 Y11.3800
G01 X33.7419 Y11.3392
G01 X33.7112 Y11.2978
G01 X33.6832 Y11.2560
G01 X33.6556 Y11.2100
G01 X33.6317 Y11.1652
G01 X33.6103 Y11.1199
G01 X33.5900 Y11.0712
G01 X33.5819 Y11.0484
G01 X32.9524 Y11.0484
G01 X32.9434 Y11.0734
G01 X32.9018 Y11.1610
G01 X32.8524 Y11.2433
G01 X32.7929 Y11.3232
G01 X32.7293 Y11.3933
G01 X32.6572 Y11.4586
G01 X32.5793 Y11.5164
G01 X32.4948 Y11.5670
G01 X32.4082 Y11.6078
G01 X32.3166 Y11.6406
G01 X32.2224 Y11.6642
G01 X32.1265 Y11.6784
G01 X32.0294 Y11.6832
G01 X31.9323 Y11.6784
G01 X31.8364 Y11.6642
G01 X31.7422 Y11.6406
G01 X31.6506 Y11.6078
G01 X31.5650 Y11.5674
G01 X31.4775 Y11.5150
G01 X31.4016 Y11.4586
G01 X31.3295 Y11.3933
G01 X31.2642 Y11.3212
G01 X31.2078 Y11.2453
G01 X31.1554 Y11.1578
G01 X31.1150 Y11.0722
G01 X31.0822 Y10.9806
G01 X31.0586 Y10.8864
G01 X31.0447 Y10.7929
G01 X31.0397 Y10.6909
G00 Z2.0000
G00 X31.0397 Y13.2309
G01 F60.00
G01 Z-0.1000
G01 F120.00
G01 X31.0444 Y13.1363
G01 X31.0586 Y13.0404
G01 X31.0822 Y12.9462
G01 X31.1150 Y12.8546
G01 X31.1564 Y12.7669
G01 X31.2064 Y12.6835
G01 X31.2642 Y12.6056
G01 X31.3295 Y12.5335
G01 X31.4016 Y12.4682
G01 X31.4795 Y12.4104
G01 X31.5629 Y12.3604
G01 X31.6506 Y12.3190
G01 X31.7422 Y12.2862
G01 X31.8364 Y12.2626
G01 X31.9323 Y12.2484
G01 X32.0294 Y12.2436
G01 X32.1265 Y12.2484
G01 X32.2224 Y12.2626
G01 X32.3166 Y12.2862
G01 X32.4082 Y12.3190
G01 X32.4959 Y12.3604
G01 X32.5793 Y12.4104
G01 X32.6572 Y12.4682
G01 X32.7293 Y12.5335
G01 X32.7946 Y12.6056
G01 X32.8524 Y12.6835
G01 X32.9024 Y12.7669
G01 X32.9438 Y12.8546
G01 X32.9766 Y12.9462
G01 X33.0002 Y13.0404
G01 X33.0144 Y13.1363
G01 X33.0192 Y13.2334
G01 X33.0144 Y13.3305
G01 X33.0002 Y13.4264
G01 X32.9766 Y13.5206
G01 X32.9438 Y13.6122
G01 X32.9024 Y13.6999
G01 X32.8524 Y13.7833
G01 X32.7946 Y13.8612
G01 X32.7293 Y13.9333
G01 X32.6572 Y13.9986
G01 X32.5793 Y14.0564
G01 X32.4959 Y14.1064
G01 X32.4082 Y14.1478
G01 X32.3166 Y14.1806
G01 X32.2224 Y14.2042
G01 X32.1265 Y14.2184
G01 X32.0294 Y14.2232
G01 X31.9323 Y14.2184
G01 X31.8364 Y14.2042
G01 X31.7422 Y14.1806
G01 X31.6506 Y14.1478
G01 X31.5629 Y14.1064
G01 X31.4795 Y14.0564
G01 X31.4016 Y13.9986
G01 X31.3295 Y13.9333
G01 X31.2642 Y13.8612
G01 X31.2064 Y13.7833
G01 X31.1564 Y13.6999
G01 X31.1150 Y13.6122
G01 X31.0822 Y13.5206
G01 X31.0586 Y13.4264
G01 X31.0444 Y13.3305
G01 X31.0397 Y13.2309
G00 Z2.0000
G00 X31.0397 Y15.7709
G01 F60.00
G01 Z-0.1000
G01 F120.00
G01 X31.0444 Y15.6763
G01 X31.0586 Y15.5804
G01 X31.0822 Y15.4862
G01 X31.1150 Y15.3946
G01 X31.1564 Y15.3069
G01 X31.2064 Y15.2235
G01 X31.2642 Y15.1456
G01 X31.3295 Y15.0735
G01 X31.4016 Y15.0082
G01 X31.4795 Y14.9504
G01 X31.5629 Y14.9004
G01 X31.6506 Y14.8590
G01 X31.7422 Y14.8262
G01 X31.8364 Y14.8026
G01 X31.9323 Y14.7884
G01 X32.0294 Y14.7836
G01 X32.1265 Y14.7884
G01 X32.2224 Y14.8026
G01 X32.3166 Y14.8262
G01 X32.4082 Y14.8590
G01 X32.4959 Y14.9004
G01 X32.5793 Y14.9504
G01 X32.6572 Y15.0082
G01 X32.7293 Y15.0735
G01 X32.7946 Y15.1456
G01 X32.8524 Y15.2235
G01 X32.9024 Y15.3069
G01 X32.9438 Y15.3946
G01 X32.9766 Y15.4862
G01 X33.0002 Y15.5804
G01 X33.0144 Y15.6763
G01 X33.0192 Y15.7734
G01 X33.0144 Y15.8705
G01 X33.0002 Y15.9664
G01 X32.9766 Y16.0606
G01 X32.9438 Y16.1522
G01 X32.9024 Y16.2399
G01 X32.8524 Y16.3233
G01 X32.7946 Y16.4012
G01 X32.7293 Y16.4733
G01 X32.6572 Y16.5386
G01 X32.5793 Y16.5964
G01 X32.4959 Y16.6464
G01 X32.4082 Y16.6878
G01 X32.3166 Y16.7206
G01 X32.2224 Y16.7442
G01 X32.1265 Y16.7584
G01 X32.0294 Y16.7632
G01 X31.9323 Y16.7584
G01 X31.8364 Y16.7442
G01 X31.7422 Y16.7206
G01 X31.6506 Y16.6878
G01 X31.5629 Y16.6464
G01 X31.4795 Y16.5964
G01 X31.4016 Y16.5386
G01 X31.3295 Y16.4733
G01 X31.2642 Y16.4012
G01 X31.2064 Y16.3233
G01 X31.1564 Y16.2399
G01 X31.1150 Y16.1522
G01 X31.0822 Y16.0606
G01 X31.0586 Y15.9664
G01 X31.0444 Y15.8705
G01 X31.0397 Y15.7709
G00 Z2.0000
G00 X31.0397 Y18.3109
G01 F60.00
G01 Z-0.1000
G01 F120.00
G01 X31.0444 Y18.2163
G01 X31.0586 Y18.1204
G01 X31.0822 Y18.0262
G01 X31.1150 Y17.9346
G01 X31.1564 Y17.8469
G01 X31.2064 Y17.7635
G01 X31.2642 Y17.6856
G01 X31.3295 Y17.6135
G01 X31.4016 Y17.5482
G01 X31.4795 Y17.4904
G01 X31.5629 Y17.4404
G01 X31.6506 Y17.3990
G01 X31.7422 Y17.3662
G01 X31.8364 Y17.3426
G01 X31.9323 Y17.3284
G01 X32.0294 Y17.3236
G01 X32.1265 Y17.3284
G01 X32.2224 Y17.3426
G01 X32.3166 Y17.3662
G01 X32.4082 Y17.3990
G01 X32.4959 Y17.4404
G01 X32.5793 Y17.4904
G01 X32.6572 Y17.5482
G01 X32.7293 Y17.6135
G01 X32.7946 Y17.6856
G01 X32.8524 Y17.7635
G01 X32.9024 Y17.8469
G01 X32.9438 Y17.9346
G01 X32.9766 Y18.0262
G01 X33.0002 Y18.1204
G01 X33.0144 Y18.2163
G01 X33.0192 Y18.3134
G01 X33.0144 Y18.4105
G01 X33.0002 Y18.5064
G01 X32.9766 Y18.6006
G01 X32.9438 Y18.6922
G01 X32.9024 Y18.7799
G01 X32.8524 Y18.8633
G01 X32.7946 Y18.9412
G01 X32.7293 Y19.0133
G01 X32.6572 Y19.0786
G01 X32.5793 Y19.1364
G01 X32.4959 Y19.1864
G01 X32.4082 Y19.2278
G01 X32.3166 Y19.2606
G01 X32.2224 Y19.2842
G01 X32.1265 Y19.2984
G01 X32.0294 Y19.3032
G01 X31.9323 Y19.2984
G01 X31.8364 Y19.2842
G01 X31.7422 Y19.2606
G01 X31.6506 Y19.2278
G01 X31.5629 Y19.1864
G01 X31.4795 Y19.1364
G01 X31.4016 Y19.0786
G01 X31.3295 Y19.0133
G01 X31.2642 Y18.9412
G01 X31.2064 Y18.8633
G01 X31.1564 Y18.7799
G01 X31.1150 Y18.6922
G01 X31.0822 Y18.6006
G01 X31.0586 Y18.5064
G01 X31.0444 Y18.4105
G01 X31.0397 Y18.3109
G00 Z2.0000
G00 X31.0397 Y20.8509
G01 F60.00
G01 Z-0.1000
G01 F120.00
G01 X31.0444 Y20.7563
G01 X31.0586 Y20.6604
G01 X31.0822 Y20.5662
G01 X31.1150 Y20.4746
G01 X31.1564 Y20.3869
G01 X31.2064 Y20.3035
G01 X31.2642 Y20.2256
G01 X31.3295 Y20.1535
G01 X31.4016 Y20.0882
G01 X31.4795 Y20.0304
G01 X31.5629 Y19.9804
G01 X31.6506 Y19.9390
G01 X31.7422 Y19.9062
G01 X31.8364 Y19.8826
G01 X31.9323 Y19.8684
G01 X32.0294 Y19.8636
G01 X32.1265 Y19.8684
G01 X32.2224 Y19.8826
G01 X32.3166 Y19.9062
G01 X32.4082 Y19.9390
G01 X32.4959 Y19.9804
G01 X32.5793 Y20.0304
G01 X32.6572 Y20.0882
G01 X32.7293 Y20.1535
G01 X32.7946 Y20.2256
G01 X32.8524 Y20.3035
G01 X32.9024 Y20.3869
G01 X32.9438 Y20.4746
G01 X32.9766 Y20.5662
G01 X33.0002 Y20.6604
G01 X33.0144 Y20.7563
G01 X33.0192 Y20.8534
G01 X33.0144 Y20.9505
G01 X33.0002 Y21.0464
G01 X32.9766 Y21.1406
G01 X32.9438 Y21.2322
G01 X32.9024 Y21.3199
G01 X32.8524 Y21.4033
G01 X32.7946 Y21.4812
G01 X32.7293 Y21.5533
G01 X32.6572 Y21.6186
G01 X32.5793 Y21.6764
G01 X32.4959 Y21.7264
G01 X32.4082 Y21.7678
G01 X32.3166 Y21.8006
G01 X32.2224 Y21.8242
G01 X32.1265 Y21.8384
G01 X32.0294 Y21.8432
G01 X31.9323 Y21.8384
G01 X31.8364 Y21.8242
G01 X31.7422 Y21.8006
G01 X31.6506 Y21.7678
G01 X31.5629 Y21.7264
G01 X31.4795 Y21.6764
G01 X31.4016 Y21.6186
G01 X31.3295 Y21.5533
G01 X31.2642 Y21.4812
G01 X31.2064 Y21.4033
G01 X31.1564 Y21.3199
G01 X31.1150 Y21.2322
G01 X31.0822 Y21.1406
G01 X31.0586 Y21.0464
G01 X31.0444 Y20.9505
G01 X31.0397 Y20.8509
G00 Z2.0000
G00 X31.0397 Y23.3909
G01 F60.00
G01 Z-0.1000
G01 F120.00
G01 X31.0444 Y23.2963
G01 X31.0586 Y23.2004
G01 X31.0822 Y23.1062
G01 X31.1150 Y23.0146
G01 X31.1564 Y22.9269
G01 X31.2064 Y22.8435
G01 X31.2642 Y22.7656
G01 X31.3295 Y22.6935
G01 X31.4016 Y22.6282
G01 X31.4795 Y22.5704
G01 X31.5629 Y22.5204
G01 X31.6506 Y22.4790
G01 X31.7422 Y22.4462
G01 X31.8364 Y22.4226
G01 X31.9323 Y22.4084
G01 X32.0294 Y22.4036
G01 X32.1265 Y22.4084
G01 X32.2224 Y22.4226
G01 X32.3166 Y22.4462
G01 X32.4082 Y22.4790
G01 X32.4959 Y22.5204
G01 X32.5793 Y22.5704
G01 X32.6572 Y22.6282
G01 X32.7293 Y22.6935
G01 X32.7946 Y22.7656
G01 X32.8524 Y22.8435
G01 X32.9024 Y22.9269
G01 X32.9438 Y23.0146
G01 X32.9766 Y23.1062
G01 X33.0002 Y23.2004
G01 X33.0144 Y23.2963
G01 X33.0192 Y23.3934
G01 X33.0144 Y23.4905
G01 X33.0002 Y23.5864
G01 X32.9766 Y23.6806
G01 X32.9438 Y23.7722
G01 X32.9024 Y23.8599
G01 X32.8524 Y23.9433
G01 X32.7946 Y24.0212
G01 X32.7293 Y24.0933
G01 X32.6572 Y24.1586
G01 X32.5793 Y24.2164
G01 X32.4959 Y24.2664
G01 X32.4082 Y24.3078
G01 X32.3166 Y24.3406
G01 X32.2224 Y24.3642
G01 X32.1265 Y24.3784
G01 X32.0294 Y24.3832
G01 X31.9323 Y24.3784
G01 X31.8364 Y24.3642
G01 X31.7422 Y24.3406
G01 X31.6506 Y24.3078
G01 X31.5629 Y24.2664
G01 X31.4795 Y24.2164
G01 X31.4016 Y24.1586
G01 X31.3295 Y24.0933
G01 X31.2642 Y24.0212
G01 X31.2064 Y23.9433
G01 X31.1564 Y23.8599
G01 X31.1150 Y23.7722
G01 X31.0822 Y23.6806
G01 X31.0586 Y23.5864
G01 X31.0444 Y23.4905
G01 X31.0397 Y23.3909
G00 Z2.0000
G00 X31.0397 Y31.0109
G01 F60.00
G01 Z-0.1000
G01 F120.00
G01 X31.0444 Y30.9163
G01 X31.0586 Y30.8204
G01 X31.0822 Y30.7262
G01 X31.1141 Y30.6369
G01 X31.1577 Y30.5447
G01 X31.2064 Y30.4635
G01 X31.2628 Y30.3874
G01 X31.3313 Y30.3118
G01 X31.4016 Y30.2482
G01 X31.4795 Y30.1904
G01 X31.5629 Y30.1404
G01 X31.6484 Y30.0999
G01 X31.7422 Y30.0662
G01 X31.8364 Y30.0426
G01 X31.9323 Y30.0284
G01 X32.0294 Y30.0236
G01 X32.1265 Y30.0284
G01 X32.2224 Y30.0426
G01 X32.3166 Y30.0662
G01 X32.4082 Y30.0990
G01 X32.4948 Y30.1398
G01 X32.5793 Y30.1904
G01 X32.6572 Y30.2482
G01 X32.7293 Y30.3135
G01 X32.7929 Y30.3836
G01 X32.8524 Y30.4635
G01 X32.9018 Y30.5458
G01 X32.9434 Y30.6334
G01 X32.9524 Y30.6584
G01 X33.5819 Y30.6584
G01 X33.5901 Y30.6354
G01 X33.6098 Y30.5880
G01 X33.6317 Y30.5416
G01 X33.6555 Y30.4971
G01 X33.6832 Y30.4508
G01 X33.7113 Y30.4089
G01 X33.7419 Y30.3676
G01 X33.7754 Y30.3268
G01 X33.8092 Y30.2896
G01 X33.8456 Y30.2532
G01 X33.8847 Y30.2178
G01 X33.9236 Y30.1859
G01 X33.9650 Y30.1552
G01 X34.0078 Y30.1266
G01 X34.0509 Y30.1007
G01 X34.0976 Y30.0757
G01 X34.1442 Y30.0537
G01 X34.1905 Y30.0345
G01 X34.2413 Y30.0163
G01 X34.2894 Y30.0017
G01 X34.3382 Y29.9895
G01 X34.3912 Y29.9790
G01 X34.4409 Y29.9716
G01 X34.4922 Y29.9665
G01 X34.5436 Y29.9640
G01 X34.5939 Y29.9640
G01 X34.6466 Y29.9665
G01 X34.6979 Y29.9716
G01 X34.7489 Y29.9792
G01 X34.7994 Y29.9892
G01 X34.8494 Y30.0017
G01 X34.8986 Y30.0167
G01 X34.9474 Y30.0341
G01 X34.9948 Y30.0538
G01 X35.0412 Y30.0757
G01 X35.0868 Y30.1001
G01 X35.1310 Y30.1266
G01 X35.1739 Y30.1553
G01 X35.2152 Y30.1859
G01 X35.2550 Y30.2186
G01 X35.2932 Y30.2532
G01 X35.3288 Y30.2887
G01 X35.3642 Y30.3278
G01 X35.3969 Y30.3676
G01 X35.4276 Y30.4090
G01 X35.4562 Y30.4518
G01 X35.4827 Y30.4959
G01 X35.5071 Y30.5416
G01 X35.5291 Y30.5882
G01 X35.5483 Y30.6345
G01 X35.5661 Y30.6841
G01 X35.5811 Y30.7334
G01 X35.5936 Y30.7834
G01 X35.6034 Y30.8327
G01 X35.6112 Y30.8849
G01 X35.6161 Y30.9350
G01 X35.6187 Y30.9864
