;FLAVOR:Marlin
;TIME:11571
;Filament used: 14.873m
;Layer height: 0.2
;MINX:28.438
;MINY:85.036
;MINZ:0.2
;MAXX:279.197
;MAXY:113.083
;MAXZ:25.4
;Generated with Cura_SteamEngine 4.7.0
M104 S205
M105
M109 S205
M82 ;absolute extrusion mode
; -- START GCODE --
M800        ; Custom GCODE to fire start print procedure
; -- end of START GCODE --
G92 E0
G92 E0
G1 F1500 E-6.5
;LAYER_COUNT:127
;LAYER:0
M107
G0 F3600 X32.912 Y85.963 Z0.2
;TYPE:SKIRT
G1 F1500 E0
G1 F1800 X33.632 Y85.692 E0.02559
G1 X34.376 Y85.497 E0.05117
G1 X35.136 Y85.38 E0.07674
G1 X35.67 Y85.346 E0.09454
G1 X36.198 Y85.334 E0.11211
G1 X38.305 Y85.335 E0.18219
G1 X39.01 Y85.345 E0.20564
G1 X39.352 Y85.357 E0.21702
G1 X42.065 Y85.433 E0.30729
G1 X43.412 Y85.443 E0.35209
G1 X131.459 Y85.443 E3.28055
G1 X256.289 Y85.444 E7.43241
G1 X258.944 Y85.406 E7.52072
G1 X261.564 Y85.295 E7.60794
G1 X264.163 Y85.111 E7.6946
G1 X264.909 Y85.05 E7.7195
G1 X265.743 Y85.036 E7.74724
G1 X266.398 Y85.062 E7.76904
G1 X268.095 Y85.154 E7.82557
G1 X270.49 Y85.219 E7.90526
G1 X271.779 Y85.237 E7.94813
G1 X272.546 Y85.288 E7.9737
G1 X273.304 Y85.418 E7.99928
G1 X274.045 Y85.626 E8.02488
G1 X274.759 Y85.91 E8.05043
G1 X275.441 Y86.267 E8.07604
G1 X276.082 Y86.693 E8.10164
G1 X276.906 Y87.403 E8.13781
G1 X277.018 Y87.515 E8.14308
G1 X277.532 Y88.087 E8.16866
G1 X277.985 Y88.709 E8.19425
G1 X278.371 Y89.374 E8.21983
G1 X278.686 Y90.076 E8.24542
G1 X278.926 Y90.807 E8.27101
G1 X279.089 Y91.558 E8.29657
G1 X279.181 Y92.5 E8.32805
G1 X279.194 Y93.185 E8.35083
G1 X279.197 Y96.36 E8.45644
G1 X279.193 Y97.351 E8.4894
G1 X279.195 Y97.68 E8.50034
G1 X279.196 Y100.584 E8.59693
G1 X279.193 Y101.626 E8.63158
G1 X279.195 Y101.896 E8.64056
G1 X279.194 Y104.583 E8.72993
G1 X279.184 Y105.301 E8.75382
G1 X279.134 Y106.069 E8.77942
G1 X279.004 Y106.827 E8.80499
G1 X278.796 Y107.567 E8.83056
G1 X278.512 Y108.282 E8.85615
G1 X278.155 Y108.964 E8.88175
G1 X277.73 Y109.604 E8.9073
G1 X277.018 Y110.431 E8.9436
G1 X276.906 Y110.543 E8.94887
G1 X276.334 Y111.057 E8.97445
G1 X275.712 Y111.51 E9.00004
G1 X275.047 Y111.896 E9.02561
G1 X274.345 Y112.211 E9.0512
G1 X273.614 Y112.451 E9.07679
G1 X272.863 Y112.614 E9.10235
G1 X271.925 Y112.706 E9.1337
G1 X271.115 Y112.72 E9.16065
G1 X268.386 Y112.789 E9.25144
G1 X266.292 Y112.903 E9.32119
G1 X265.771 Y112.925 E9.33854
G1 X265.434 Y112.932 E9.34975
G1 X264.906 Y112.913 E9.36732
G1 X264.173 Y112.86 E9.39176
G1 X262.74 Y112.737 E9.4396
G1 X260.118 Y112.587 E9.52695
G1 X257.487 Y112.511 E9.6145
G1 X256.089 Y112.501 E9.66099
G1 X135.172 Y112.501 E13.68271
G1 X49.44 Y112.504 E16.53417
G1 X46.784 Y112.542 E16.62252
G1 X44.165 Y112.653 E16.7097
G1 X41.57 Y112.837 E16.79623
G1 X40.082 Y112.982 E16.84595
G1 X39.221 Y113.039 E16.87465
G1 X37.378 Y113.074 E16.93596
G1 X35.982 Y113.083 E16.9824
G1 X35.213 Y113.048 E17.008
G1 X34.453 Y112.933 E17.03357
G1 X33.708 Y112.74 E17.05916
G1 X32.988 Y112.471 E17.08473
G1 X32.299 Y112.129 E17.11031
G1 X31.65 Y111.717 E17.13588
G1 X31.046 Y111.239 E17.1615
G1 X30.496 Y110.702 E17.18706
G1 X30.005 Y110.11 E17.21264
G1 X29.577 Y109.471 E17.23822
G1 X29.218 Y108.791 E17.2638
G1 X28.932 Y108.077 E17.28938
G1 X28.721 Y107.337 E17.31498
G1 X28.588 Y106.579 E17.34057
G1 X28.541 Y106.003 E17.35979
G1 X28.491 Y104.824 E17.39904
G1 X28.464 Y103.848 E17.43152
G1 X28.45 Y103.402 E17.44636
G1 X28.438 Y102.721 E17.46901
G1 X28.444 Y102.271 E17.48398
G1 X28.507 Y99.591 E17.57314
G1 X28.498 Y97.173 E17.65357
G1 X28.468 Y95.259 E17.71723
G1 X28.469 Y93.325 E17.78156
G1 X28.479 Y92.636 E17.80448
G1 X28.53 Y91.868 E17.83008
G1 X28.66 Y91.11 E17.85566
G1 X28.869 Y90.37 E17.88123
G1 X29.153 Y89.655 E17.90682
G1 X29.51 Y88.974 E17.93239
G1 X29.936 Y88.333 E17.95799
G1 X30.425 Y87.74 E17.98356
G1 X30.974 Y87.201 E18.00915
G1 X31.576 Y86.722 E18.03473
G1 X32.224 Y86.308 E18.06031
G1 X32.912 Y85.963 E18.08591
G0 F3600 X33.28 Y86.243
G1 F1800 X33.989 Y86.003 E18.1108
G1 X34.719 Y85.84 E18.13568
G1 X35.681 Y85.746 E18.16783
G1 X36.198 Y85.734 E18.18503
G1 X38.299 Y85.735 E18.25491
G1 X39.004 Y85.745 E18.27836
G1 X39.398 Y85.758 E18.29147
G1 X42.051 Y85.833 E18.37975
G1 X43.409 Y85.843 E18.42491
G1 X131.459 Y85.843 E21.35347
G1 X256.295 Y85.844 E25.50553
G1 X258.932 Y85.807 E25.59325
G1 X261.608 Y85.693 E25.68233
G1 X264.188 Y85.51 E25.76836
G1 X264.939 Y85.449 E25.79342
G1 X265.727 Y85.435 E25.81963
G1 X266.376 Y85.461 E25.84124
G1 X268.099 Y85.554 E25.89863
G1 X270.474 Y85.618 E25.97765
G1 X271.773 Y85.637 E26.02086
G1 X272.519 Y85.687 E26.04573
G1 X273.256 Y85.817 E26.07062
G1 X273.975 Y86.025 E26.09551
G1 X274.667 Y86.309 E26.12039
G1 X275.325 Y86.664 E26.14526
G1 X275.941 Y87.088 E26.17013
G1 X276.623 Y87.686 E26.2003
G1 X276.735 Y87.798 E26.20557
G1 X277.235 Y88.355 E26.23046
G1 X277.672 Y88.961 E26.25531
G1 X278.043 Y89.611 E26.2802
G1 X278.342 Y90.297 E26.30509
G1 X278.566 Y91.011 E26.32998
G1 X278.713 Y91.744 E26.35485
G1 X278.781 Y92.513 E26.38052
G1 X278.794 Y93.19 E26.40305
G1 X278.797 Y96.358 E26.50841
G1 X278.793 Y97.354 E26.54154
G1 X278.795 Y97.681 E26.55242
G1 X278.796 Y100.583 E26.64894
G1 X278.793 Y101.629 E26.68373
G1 X278.795 Y101.899 E26.69271
G1 X278.794 Y104.577 E26.78178
G1 X278.784 Y105.295 E26.80566
G1 X278.734 Y106.042 E26.83056
G1 X278.604 Y106.779 E26.85545
G1 X278.397 Y107.497 E26.88031
G1 X278.113 Y108.19 E26.90522
G1 X277.758 Y108.848 E26.93008
G1 X277.335 Y109.465 E26.95497
G1 X276.735 Y110.148 E26.9852
G1 X276.623 Y110.26 E26.99047
G1 X276.066 Y110.76 E27.01537
G1 X275.46 Y111.197 E27.04022
G1 X274.81 Y111.568 E27.06511
G1 X274.124 Y111.867 E27.09
G1 X273.41 Y112.091 E27.11489
G1 X272.677 Y112.238 E27.13975
G1 X271.911 Y112.306 E27.16533
G1 X271.608 Y112.315 E27.17541
G1 X271.038 Y112.322 E27.19437
G1 X268.387 Y112.388 E27.28257
G1 X266.182 Y112.508 E27.35602
G1 X265.46 Y112.532 E27.38005
G1 X264.934 Y112.514 E27.39755
G1 X264.208 Y112.461 E27.42176
G1 X262.8 Y112.34 E27.46877
G1 X260.117 Y112.186 E27.55815
G1 X257.502 Y112.112 E27.64516
G1 X256.092 Y112.101 E27.69206
G1 X135.172 Y112.101 E31.71387
G1 X49.434 Y112.104 E34.56553
G1 X46.796 Y112.141 E34.65328
G1 X44.121 Y112.255 E34.74233
G1 X41.539 Y112.438 E34.82842
G1 X40.043 Y112.584 E34.87842
G1 X39.213 Y112.639 E34.90608
G1 X37.375 Y112.674 E34.96723
G1 X35.979 Y112.683 E35.01366
G1 X35.232 Y112.648 E35.03853
G1 X34.493 Y112.533 E35.06341
G1 X33.77 Y112.34 E35.0883
G1 X33.072 Y112.071 E35.11318
G1 X32.407 Y111.729 E35.13805
G1 X31.781 Y111.318 E35.16295
G1 X31.204 Y110.843 E35.18781
G1 X30.68 Y110.309 E35.2127
G1 X30.217 Y109.722 E35.23756
G1 X29.818 Y109.088 E35.26248
G1 X29.49 Y108.416 E35.28735
G1 X29.235 Y107.713 E35.31222
G1 X29.056 Y106.987 E35.33709
G1 X28.941 Y105.986 E35.3706
G1 X28.891 Y104.813 E35.40965
G1 X28.863 Y103.792 E35.44362
G1 X28.85 Y103.395 E35.45684
G1 X28.838 Y102.714 E35.47949
G1 X28.846 Y102.213 E35.49615
G1 X28.907 Y99.599 E35.58312
G1 X28.898 Y97.172 E35.66384
G1 X28.868 Y95.259 E35.72748
G1 X28.869 Y93.33 E35.79164
G1 X28.879 Y92.641 E35.81456
G1 X28.93 Y91.895 E35.83943
G1 X29.06 Y91.158 E35.86432
G1 X29.268 Y90.44 E35.88918
G1 X29.551 Y89.748 E35.91405
G1 X29.907 Y89.09 E35.93893
G1 X30.331 Y88.473 E35.96383
G1 X30.818 Y87.906 E35.98869
G1 X31.363 Y87.393 E36.01358
G1 X31.96 Y86.942 E36.03847
G1 X32.601 Y86.557 E36.06334
G1 X33.28 Y86.243 E36.08822
G0 F3600 X32.976 Y86.815
G1 F1800 X33.645 Y86.532 E36.11238
G1 X34.341 Y86.324 E36.13654
G1 X35.056 Y86.194 E36.16071
G1 X35.692 Y86.146 E36.18192
G1 X36.198 Y86.134 E36.19876
G1 X38.294 Y86.135 E36.26847
G1 X38.999 Y86.145 E36.29192
G1 X39.369 Y86.158 E36.30424
G1 X42.037 Y86.233 E36.39301
G1 X43.407 Y86.243 E36.43858
G1 X131.459 Y86.243 E39.3672
G1 X256.301 Y86.244 E43.51946
G1 X258.954 Y86.206 E43.60771
G1 X261.618 Y86.093 E43.69639
G1 X264.214 Y85.909 E43.78295
G1 X264.968 Y85.848 E43.80811
G1 X265.712 Y85.835 E43.83286
G1 X266.355 Y85.861 E43.85427
G1 X268.031 Y85.952 E43.91009
G1 X270.52 Y86.019 E43.99291
G1 X271.767 Y86.037 E44.03439
G1 X272.492 Y86.087 E44.05856
G1 X273.207 Y86.217 E44.08273
G1 X273.903 Y86.424 E44.10688
G1 X274.572 Y86.707 E44.13104
G1 X275.206 Y87.061 E44.15519
G1 X275.797 Y87.483 E44.17934
G1 X276.34 Y87.969 E44.20358
G1 X276.452 Y88.081 E44.20885
G1 X276.936 Y88.622 E44.23299
G1 X277.359 Y89.213 E44.25717
G1 X277.713 Y89.847 E44.28132
G1 X277.996 Y90.516 E44.30548
G1 X278.204 Y91.212 E44.32964
G1 X278.334 Y91.927 E44.35381
G1 X278.381 Y92.527 E44.37383
G1 X278.394 Y93.195 E44.39605
G1 X278.397 Y96.357 E44.50122
G1 X278.393 Y97.357 E44.53448
G1 X278.395 Y97.681 E44.54525
G1 X278.396 Y100.582 E44.64174
G1 X278.393 Y101.699 E44.67889
G1 X278.395 Y101.902 E44.68565
G1 X278.394 Y104.572 E44.77445
G1 X278.384 Y105.29 E44.79833
G1 X278.334 Y106.015 E44.8225
G1 X278.205 Y106.729 E44.84664
G1 X277.998 Y107.425 E44.87079
G1 X277.715 Y108.095 E44.89498
G1 X277.361 Y108.729 E44.91913
G1 X276.939 Y109.32 E44.94328
G1 X276.452 Y109.865 E44.96759
G1 X276.34 Y109.977 E44.97286
G1 X275.799 Y110.461 E44.997
G1 X275.208 Y110.884 E45.02118
G1 X274.574 Y111.238 E45.04533
G1 X273.905 Y111.521 E45.06949
G1 X273.209 Y111.729 E45.09365
G1 X272.494 Y111.859 E45.11782
G1 X271.897 Y111.906 E45.13774
G1 X271.603 Y111.915 E45.14752
G1 X271.024 Y111.922 E45.16678
G1 X268.355 Y111.989 E45.25558
G1 X266.165 Y112.108 E45.32853
G1 X265.46 Y112.132 E45.35199
G1 X264.963 Y112.115 E45.36853
G1 X264.242 Y112.063 E45.39257
G1 X262.785 Y111.938 E45.44121
G1 X260.152 Y111.787 E45.52893
G1 X257.516 Y111.712 E45.61664
G1 X256.095 Y111.701 E45.6639
G1 X135.172 Y111.701 E49.68581
G1 X49.428 Y111.704 E52.53767
G1 X46.774 Y111.742 E52.62595
G1 X44.111 Y111.855 E52.7146
G1 X41.509 Y112.039 E52.80136
G1 X39.892 Y112.196 E52.8554
G1 X39.205 Y112.239 E52.87829
G1 X37.373 Y112.274 E52.93924
G1 X35.977 Y112.283 E52.98567
G1 X35.251 Y112.248 E53.00984
G1 X34.534 Y112.133 E53.034
G1 X33.834 Y111.94 E53.05815
G1 X33.159 Y111.671 E53.08231
G1 X32.517 Y111.33 E53.10649
G1 X31.918 Y110.92 E53.13064
G1 X31.366 Y110.447 E53.15481
G1 X30.871 Y109.916 E53.17896
G1 X30.436 Y109.334 E53.20312
G1 X30.068 Y108.708 E53.22728
G1 X29.771 Y108.045 E53.25144
G1 X29.549 Y107.354 E53.27558
G1 X29.404 Y106.642 E53.29975
G1 X29.34 Y105.969 E53.32223
G1 X29.29 Y104.802 E53.36108
G1 X29.263 Y103.781 E53.39505
G1 X29.25 Y103.388 E53.40813
G1 X29.238 Y102.707 E53.43078
G1 X29.245 Y102.26 E53.44565
G1 X29.307 Y99.607 E53.53392
G1 X29.298 Y97.171 E53.61494
G1 X29.268 Y95.259 E53.67854
G1 X29.269 Y93.336 E53.7425
G1 X29.279 Y92.647 E53.76542
G1 X29.329 Y91.923 E53.78956
G1 X29.459 Y91.208 E53.81373
G1 X29.667 Y90.512 E53.83789
G1 X29.949 Y89.843 E53.86203
G1 X30.304 Y89.209 E53.8862
G1 X30.726 Y88.618 E53.91036
G1 X31.211 Y88.077 E53.93452
G1 X31.752 Y87.592 E53.95869
G1 X32.343 Y87.17 E53.98284
G1 X32.976 Y86.815 E54.00698
G0 F3600 X33.349 Y87.082
G1 F1800 X34.007 Y86.832 E54.03039
G1 X34.689 Y86.658 E54.0538
G1 X35.704 Y86.545 E54.08777
G1 X36.198 Y86.534 E54.1042
G1 X38.288 Y86.535 E54.17372
G1 X38.993 Y86.545 E54.19717
G1 X39.293 Y86.555 E54.20715
G1 X42.069 Y86.634 E54.29952
G1 X43.404 Y86.643 E54.34392
G1 X131.459 Y86.643 E57.27264
G1 X256.306 Y86.644 E61.42507
G1 X258.977 Y86.606 E61.51392
G1 X261.629 Y86.494 E61.6022
G1 X264.275 Y86.306 E61.69043
G1 X264.998 Y86.247 E61.71456
G1 X265.696 Y86.235 E61.73778
G1 X266.333 Y86.26 E61.75898
G1 X268.034 Y86.352 E61.81564
G1 X270.51 Y86.419 E61.89802
G1 X271.761 Y86.437 E61.93963
G1 X272.464 Y86.487 E61.96307
G1 X273.156 Y86.616 E61.98649
G1 X273.829 Y86.823 E62.00991
G1 X274.474 Y87.105 E62.03332
G1 X275.083 Y87.458 E62.05673
G1 X275.648 Y87.878 E62.08015
G1 X276.057 Y88.252 E62.09858
G1 X276.169 Y88.364 E62.10385
G1 X276.638 Y88.889 E62.12726
G1 X277.044 Y89.464 E62.15067
G1 X277.382 Y90.082 E62.1741
G1 X277.649 Y90.733 E62.1975
G1 X277.839 Y91.411 E62.22092
G1 X277.952 Y92.106 E62.24434
G1 X277.987 Y92.689 E62.26377
G1 X277.995 Y93.277 E62.28333
G1 X277.997 Y96.355 E62.3857
G1 X277.993 Y97.427 E62.42136
G1 X277.995 Y97.681 E62.42981
G1 X277.996 Y100.581 E62.52626
G1 X277.993 Y101.698 E62.56341
G1 X277.995 Y101.905 E62.5703
G1 X277.994 Y104.566 E62.6588
G1 X277.984 Y105.284 E62.68269
G1 X277.935 Y105.987 E62.70612
G1 X277.806 Y106.679 E62.72954
G1 X277.599 Y107.352 E62.75296
G1 X277.317 Y107.997 E62.77637
G1 X276.964 Y108.606 E62.79978
G1 X276.545 Y109.171 E62.82318
G1 X276.169 Y109.582 E62.8417
G1 X276.057 Y109.694 E62.84697
G1 X275.532 Y110.163 E62.87039
G1 X274.957 Y110.569 E62.8938
G1 X274.339 Y110.907 E62.91723
G1 X273.688 Y111.174 E62.94063
G1 X273.01 Y111.364 E62.96405
G1 X272.315 Y111.477 E62.98747
G1 X271.737 Y111.511 E63.00672
G1 X271.599 Y111.515 E63.01132
G1 X271.008 Y111.522 E63.03097
G1 X268.357 Y111.588 E63.11917
G1 X266.149 Y111.709 E63.19272
G1 X265.46 Y111.732 E63.21565
G1 X264.992 Y111.716 E63.23123
G1 X264.276 Y111.664 E63.2551
G1 X262.842 Y111.541 E63.30297
G1 X260.152 Y111.387 E63.39259
G1 X257.53 Y111.312 E63.47983
G1 X256.098 Y111.301 E63.52746
G1 X135.172 Y111.301 E67.54948
G1 X49.423 Y111.304 E70.4015
G1 X46.751 Y111.342 E70.49038
G1 X44.1 Y111.454 E70.57863
G1 X41.481 Y111.64 E70.66596
G1 X39.965 Y111.788 E70.71662
G1 X39.198 Y111.839 E70.74219
G1 X37.37 Y111.874 E70.803
G1 X35.974 Y111.883 E70.84943
G1 X35.271 Y111.847 E70.87285
G1 X34.576 Y111.733 E70.89627
G1 X33.899 Y111.54 E70.91968
G1 X33.248 Y111.271 E70.94311
G1 X32.632 Y110.931 E70.96651
G1 X32.059 Y110.523 E70.98991
G1 X31.535 Y110.052 E71.01334
G1 X31.068 Y109.525 E71.03676
G1 X30.664 Y108.949 E71.06016
G1 X30.328 Y108.33 E71.08359
G1 X30.064 Y107.678 E71.10699
G1 X29.875 Y106.999 E71.13043
G1 X29.765 Y106.304 E71.15383
G1 X29.74 Y105.951 E71.1656
G1 X29.69 Y104.791 E71.20422
G1 X29.662 Y103.77 E71.23819
G1 X29.65 Y103.381 E71.25114
G1 X29.638 Y102.7 E71.27379
G1 X29.644 Y102.286 E71.28756
G1 X29.707 Y99.614 E71.37646
G1 X29.698 Y97.169 E71.45778
G1 X29.668 Y95.259 E71.52131
G1 X29.669 Y93.342 E71.58507
G1 X29.679 Y92.653 E71.60799
G1 X29.729 Y91.951 E71.6314
G1 X29.858 Y91.259 E71.65481
G1 X30.065 Y90.586 E71.67823
G1 X30.347 Y89.941 E71.70164
G1 X30.701 Y89.332 E71.72507
G1 X31.121 Y88.767 E71.74849
G1 X31.602 Y88.253 E71.7719
G1 X32.139 Y87.798 E71.79531
G1 X32.723 Y87.406 E71.81871
G1 X33.349 Y87.082 E71.84215
G0 F3600 X36.068 Y92.934
;TYPE:SUPPORT
G1 F1800 X38.88 Y92.934 E71.93568
G1 X39.263 Y93.043 E71.94892
G1 X131.459 Y93.043 E75.01537
G1 X265.251 Y93.044 E79.46531
G1 X265.582 Y92.725 E79.4806
G1 X265.749 Y92.826 E79.48709
G1 X271.595 Y92.826 E79.68153
G1 X271.595 Y96.032 E79.78816
G1 X265.479 Y96.032 E79.99158
G1 X265.245 Y96.266 E80.00259
G1 X265.245 Y96.486 E80.00991
G1 X265.189 Y96.486 E80.01177
G1 X264.545 Y97.13 E80.04206
G1 X264.545 Y100.82 E80.16479
G1 X265.189 Y101.464 E80.19508
G1 X265.245 Y101.464 E80.19695
G1 X265.245 Y101.679 E80.2041
G1 X265.479 Y101.913 E80.2151
G1 X271.595 Y101.913 E80.41852
G1 X271.595 Y105.12 E80.52519
G1 X265.766 Y105.12 E80.71906
G1 X265.395 Y105.321 E80.7331
G1 X263.882 Y104.901 E80.78532
G1 X135.172 Y104.901 E85.06623
G1 X39.117 Y104.904 E88.26103
G1 X38.724 Y105.319 E88.28004
G1 X38.731 Y105.462 E88.28481
G1 X37.441 Y105.462 E88.32771
G1 X36.108 Y105.49 E88.37206
G1 X36.078 Y104.153 E88.41654
G1 X36.031 Y102.723 E88.46413
G1 X36.522 Y102.723 E88.48046
G1 X36.921 Y102.322 E88.49927
G1 X36.895 Y98.868 E88.61415
G1 X36.831 Y98.476 E88.62737
G1 X36.78 Y96.229 E88.70212
G1 X36.381 Y95.834 E88.72079
G1 X36.068 Y95.83 E88.73121
G1 X36.068 Y92.934 E88.82753
G0 F3600 X36.227 Y93.345
G1 F1800 X271.435 Y93.345 E96.65058
G0 F3600 X269.367 Y92.986
G1 F1800 X269.367 Y95.872 E96.74657
G0 F3600 X266.7 Y95.872
G1 F1800 X266.7 Y92.986 E96.84255
G0 F3600 X264.033 Y93.204
G1 F1800 X264.033 Y104.777 E97.22747
G0 F3600 X261.366 Y104.741
G1 F1800 X261.366 Y93.204 E97.6112
G0 F3600 X258.699 Y93.204
G1 F1800 X258.699 Y104.741 E97.99492
G0 F3600 X256.032 Y104.741
G1 F1800 X256.032 Y93.204 E98.37864
G0 F3600 X253.365 Y93.204
G1 F1800 X253.365 Y104.741 E98.76236
G0 F3600 X250.698 Y104.741
G1 F1800 X250.698 Y93.204 E99.14608
G0 F3600 X248.031 Y93.204
G1 F1800 X248.031 Y104.741 E99.52981
G0 F3600 X245.364 Y104.741
G1 F1800 X245.364 Y93.204 E99.91353
G0 F3600 X242.697 Y93.204
