;FLAVOR:Marlin
;TIME:10756
;Filament used: 9.98151m
;Layer height: 0.2
;MINX:27.044
;MINY:70.157
;MINZ:0.2
;MAXX:271.844
;MAXY:133.63
;MAXZ:31.8
;Generated with Cura_SteamEngine 4.7.0
M104 S205
M105
M109 S205
M82 ;absolute extrusion mode
; -- START GCODE --
M800        ; Custom GCODE to fire start print procedure
; -- end of START GCODE --
G92 E0
G92 E0
G1 F1500 E-6.5
;LAYER_COUNT:159
;LAYER:0
M107
G0 F3600 X31.925 Y79.262 Z0.2
;TYPE:SKIRT
G1 F1500 E0
G1 F1800 X32.657 Y79.026 E0.02558
G1 X33.409 Y78.866 E0.05115
G1 X34.316 Y78.779 E0.08146
G1 X35.033 Y78.766 E0.10531
G1 X95.906 Y78.765 E2.12995
G1 X145.316 Y78.766 E3.77334
G1 X186.288 Y78.766 E5.13607
G1 X260.114 Y78.765 E7.59153
G1 X263.759 Y78.767 E7.71277
G1 X264.432 Y78.777 E7.73515
G1 X265.199 Y78.828 E7.76072
G1 X265.957 Y78.959 E7.7863
G1 X266.698 Y79.168 E7.81191
G1 X267.412 Y79.452 E7.83747
G1 X268.093 Y79.809 E7.86304
G1 X268.734 Y80.235 E7.88864
G1 X269.555 Y80.943 E7.9247
G1 X269.667 Y81.055 E7.92997
G1 X270.181 Y81.627 E7.95555
G1 X270.634 Y82.249 E7.98114
G1 X271.02 Y82.914 E8.00671
G1 X271.335 Y83.616 E8.0323
G1 X271.575 Y84.347 E8.05789
G1 X271.738 Y85.098 E8.08345
G1 X271.829 Y86.016 E8.11414
G1 X271.843 Y86.715 E8.13739
G1 X271.844 Y116.782 E9.13742
G1 X271.833 Y117.606 E9.16483
G1 X271.783 Y118.374 E9.19043
G1 X271.653 Y119.132 E9.21601
G1 X271.445 Y119.873 E9.24161
G1 X271.161 Y120.587 E9.26716
G1 X270.805 Y121.269 E9.29275
G1 X270.379 Y121.91 E9.31835
G1 X269.667 Y122.737 E9.35465
G1 X269.555 Y122.849 E9.35991
G1 X268.983 Y123.363 E9.38549
G1 X268.361 Y123.816 E9.41108
G1 X267.696 Y124.202 E9.43666
G1 X266.994 Y124.517 E9.46225
G1 X266.263 Y124.757 E9.48784
G1 X265.512 Y124.92 E9.5134
G1 X264.574 Y125.012 E9.54475
G1 X263.854 Y125.025 E9.5687
G1 X190.848 Y125.027 E11.99689
G1 X145.316 Y125.026 E13.51129
G1 X100.634 Y125.026 E14.99742
G1 X37.245 Y125.027 E17.10574
G1 X35.122 Y125.025 E17.17636
G1 X34.455 Y125.015 E17.19854
G1 X33.688 Y124.964 E17.22411
G1 X32.93 Y124.833 E17.24969
G1 X32.189 Y124.624 E17.2753
G1 X31.475 Y124.339 E17.30087
G1 X30.794 Y123.982 E17.32645
G1 X30.153 Y123.556 E17.35204
G1 X29.333 Y122.849 E17.38805
G1 X29.221 Y122.737 E17.39332
G1 X28.707 Y122.165 E17.4189
G1 X28.254 Y121.543 E17.44449
G1 X27.868 Y120.878 E17.47007
G1 X27.553 Y120.176 E17.49566
G1 X27.313 Y119.445 E17.52125
G1 X27.15 Y118.694 E17.54681
G1 X27.058 Y117.754 E17.57822
G1 X27.044 Y116.993 E17.60354
G1 X27.045 Y86.844 E18.6063
G1 X27.055 Y86.175 E18.62855
G1 X27.106 Y85.408 E18.65412
G1 X27.237 Y84.65 E18.6797
G1 X27.446 Y83.91 E18.70528
G1 X27.73 Y83.195 E18.73087
G1 X28.088 Y82.514 E18.75646
G1 X28.513 Y81.873 E18.78204
G1 X29.245 Y81.03 E18.81917
G1 X29.357 Y80.919 E18.82441
G1 X29.931 Y80.407 E18.85
G1 X30.554 Y79.957 E18.87556
G1 X31.222 Y79.574 E18.90117
G1 X31.925 Y79.262 E18.92675
G0 F3600 X32.144 Y79.607
G1 F1800 X32.859 Y79.386 E18.95164
G1 X33.593 Y79.243 E18.97651
G1 X34.33 Y79.179 E19.00112
G1 X35.037 Y79.166 E19.02464
G1 X95.906 Y79.165 E21.04915
G1 X145.316 Y79.166 E22.69253
G1 X186.288 Y79.166 E24.05527
G1 X260.114 Y79.165 E26.51073
G1 X263.753 Y79.167 E26.63176
G1 X264.426 Y79.177 E26.65415
G1 X265.172 Y79.228 E26.67902
G1 X265.909 Y79.358 E26.70391
G1 X266.627 Y79.567 E26.72878
G1 X267.32 Y79.85 E26.75368
G1 X267.977 Y80.206 E26.77853
G1 X268.594 Y80.63 E26.80343
G1 X269.272 Y81.226 E26.83346
G1 X269.384 Y81.338 E26.83872
G1 X269.884 Y81.895 E26.86362
G1 X270.321 Y82.501 E26.88847
G1 X270.692 Y83.151 E26.91336
G1 X270.991 Y83.837 E26.93825
G1 X271.215 Y84.551 E26.96314
G1 X271.362 Y85.284 E26.98801
G1 X271.429 Y86.031 E27.01295
G1 X271.443 Y86.721 E27.03591
G1 X271.444 Y116.782 E28.03574
G1 X271.433 Y117.601 E28.06298
G1 X271.383 Y118.347 E28.08785
G1 X271.253 Y119.084 E28.11274
G1 X271.046 Y119.803 E28.13762
G1 X270.763 Y120.495 E28.16249
G1 X270.407 Y121.153 E28.18737
G1 X269.984 Y121.77 E28.21226
G1 X269.384 Y122.454 E28.24252
G1 X269.272 Y122.566 E28.24779
G1 X268.715 Y123.066 E28.27268
G1 X268.109 Y123.503 E28.29753
G1 X267.459 Y123.874 E28.32242
G1 X266.773 Y124.173 E28.34731
G1 X266.059 Y124.397 E28.3722
G1 X265.326 Y124.544 E28.39707
G1 X264.56 Y124.612 E28.42264
G1 X263.849 Y124.625 E28.4463
G1 X190.848 Y124.627 E30.87432
G1 X145.316 Y124.626 E32.38872
G1 X100.634 Y124.626 E33.87485
G1 X37.245 Y124.627 E35.98318
G1 X35.128 Y124.625 E36.05359
G1 X34.461 Y124.615 E36.07577
G1 X33.715 Y124.564 E36.10064
G1 X32.978 Y124.434 E36.12554
G1 X32.26 Y124.225 E36.15041
G1 X31.568 Y123.941 E36.17529
G1 X30.91 Y123.585 E36.20017
G1 X30.294 Y123.161 E36.22504
G1 X29.616 Y122.566 E36.25504
G1 X29.504 Y122.454 E36.26031
G1 X29.004 Y121.897 E36.28521
G1 X28.567 Y121.291 E36.31006
G1 X28.196 Y120.641 E36.33495
G1 X27.897 Y119.955 E36.35984
G1 X27.673 Y119.241 E36.38473
G1 X27.526 Y118.508 E36.40959
G1 X27.458 Y117.74 E36.43524
G1 X27.444 Y116.988 E36.46025
G1 X27.445 Y86.85 E37.46265
G1 X27.455 Y86.181 E37.4849
G1 X27.506 Y85.435 E37.50977
G1 X27.636 Y84.698 E37.53466
G1 X27.845 Y83.98 E37.55953
G1 X28.129 Y83.288 E37.58441
G1 X28.485 Y82.63 E37.6093
G1 X28.909 Y82.014 E37.63417
G1 X29.526 Y81.314 E37.6652
G1 X29.638 Y81.203 E37.67045
G1 X30.197 Y80.706 E37.69533
G1 X30.806 Y80.271 E37.72022
G1 X31.457 Y79.903 E37.74509
G1 X32.144 Y79.607 E37.76997
G0 F3600 X32.362 Y79.954
G1 F1800 X33.059 Y79.749 E37.79414
G1 X33.774 Y79.623 E37.81828
G1 X34.343 Y79.579 E37.83726
G1 X35.042 Y79.565 E37.86052
G1 X95.906 Y79.565 E39.88486
G1 X145.316 Y79.566 E41.52825
G1 X186.288 Y79.566 E42.89098
G1 X260.114 Y79.565 E45.34644
G1 X263.747 Y79.567 E45.46728
G1 X264.42 Y79.577 E45.48966
G1 X265.145 Y79.627 E45.51383
G1 X265.859 Y79.758 E45.53798
G1 X266.555 Y79.965 E45.56213
G1 X267.224 Y80.248 E45.58629
G1 X267.858 Y80.603 E45.61046
G1 X268.449 Y81.025 E45.63461
G1 X268.989 Y81.509 E45.65873
G1 X269.101 Y81.621 E45.664
G1 X269.585 Y82.162 E45.68814
G1 X270.008 Y82.753 E45.71231
G1 X270.362 Y83.387 E45.73647
G1 X270.645 Y84.056 E45.76063
G1 X270.853 Y84.752 E45.78479
G1 X270.983 Y85.467 E45.80896
G1 X271.03 Y86.046 E45.82828
G1 X271.043 Y86.726 E45.8509
G1 X271.044 Y116.782 E46.85057
G1 X271.033 Y117.595 E46.87761
G1 X270.983 Y118.32 E46.90178
G1 X270.854 Y119.035 E46.92595
G1 X270.647 Y119.731 E46.9501
G1 X270.365 Y120.4 E46.97424
G1 X270.01 Y121.034 E46.99841
G1 X269.589 Y121.626 E47.02257
G1 X269.101 Y122.171 E47.0469
G1 X268.989 Y122.283 E47.05217
G1 X268.448 Y122.767 E47.07632
G1 X267.857 Y123.19 E47.10049
G1 X267.223 Y123.544 E47.12464
G1 X266.554 Y123.827 E47.1488
G1 X265.858 Y124.035 E47.17296
G1 X265.143 Y124.165 E47.19713
G1 X264.546 Y124.212 E47.21705
G1 X263.844 Y124.226 E47.2404
G1 X190.848 Y124.227 E49.66826
G1 X145.316 Y124.226 E51.18266
G1 X100.634 Y124.226 E52.66879
G1 X37.245 Y124.227 E54.77712
G1 X35.134 Y124.225 E54.84733
G1 X34.467 Y124.215 E54.86951
G1 X33.742 Y124.164 E54.89369
G1 X33.028 Y124.034 E54.91783
G1 X32.332 Y123.826 E54.94199
G1 X31.663 Y123.543 E54.96615
G1 X31.029 Y123.188 E54.99031
G1 X30.438 Y122.766 E55.01447
G1 X29.899 Y122.283 E55.03854
G1 X29.787 Y122.171 E55.04381
G1 X29.303 Y121.63 E55.06795
G1 X28.88 Y121.039 E55.09212
G1 X28.526 Y120.405 E55.11628
G1 X28.243 Y119.736 E55.14044
G1 X28.035 Y119.04 E55.1646
G1 X27.905 Y118.325 E55.18877
G1 X27.858 Y117.727 E55.20872
G1 X27.844 Y116.984 E55.23343
G1 X27.845 Y86.856 E56.2355
G1 X27.855 Y86.187 E56.25775
G1 X27.906 Y85.463 E56.28189
G1 X28.036 Y84.748 E56.30606
G1 X28.244 Y84.052 E56.33022
G1 X28.527 Y83.383 E56.35438
G1 X28.881 Y82.749 E56.37853
G1 X29.304 Y82.159 E56.40268
G1 X29.808 Y81.598 E56.42776
G1 X29.92 Y81.487 E56.43301
G1 X30.463 Y81.005 E56.45716
G1 X31.056 Y80.586 E56.48131
G1 X31.692 Y80.234 E56.50548
G1 X32.362 Y79.954 E56.52963
G0 F3600 X32.578 Y80.303
G1 F1800 X33.256 Y80.115 E56.55304
G1 X33.952 Y80.006 E56.57647
G1 X34.505 Y79.974 E56.59489
G1 X35.047 Y79.965 E56.61292
G1 X95.906 Y79.965 E58.6371
G1 X145.316 Y79.966 E60.28048
G1 X186.288 Y79.966 E61.64322
G1 X260.114 Y79.965 E64.09868
G1 X263.741 Y79.967 E64.21931
G1 X264.414 Y79.977 E64.2417
G1 X265.116 Y80.027 E64.26511
G1 X265.808 Y80.157 E64.28853
G1 X266.481 Y80.364 E64.31195
G1 X267.126 Y80.646 E64.33536
G1 X267.735 Y81 E64.35879
G1 X268.3 Y81.42 E64.3822
G1 X268.706 Y81.792 E64.40052
G1 X268.818 Y81.904 E64.40579
G1 X269.287 Y82.429 E64.4292
G1 X269.693 Y83.004 E64.45261
G1 X270.031 Y83.622 E64.47604
G1 X270.298 Y84.273 E64.49944
G1 X270.488 Y84.951 E64.52286
G1 X270.601 Y85.646 E64.54628
G1 X270.635 Y86.196 E64.56461
G1 X270.644 Y86.811 E64.58507
G1 X270.643 Y116.868 E65.58477
G1 X270.633 Y117.59 E65.60878
G1 X270.584 Y118.292 E65.63219
G1 X270.455 Y118.984 E65.6556
G1 X270.248 Y119.657 E65.67902
G1 X269.967 Y120.302 E65.70242
G1 X269.614 Y120.912 E65.72586
G1 X269.194 Y121.477 E65.74928
G1 X268.818 Y121.888 E65.7678
G1 X268.706 Y122 E65.77307
G1 X268.181 Y122.469 E65.79649
G1 X267.606 Y122.875 E65.8199
G1 X266.988 Y123.213 E65.84333
G1 X266.337 Y123.48 E65.86673
G1 X265.659 Y123.67 E65.89015
G1 X264.964 Y123.783 E65.91357
G1 X264.386 Y123.817 E65.93282
G1 X263.839 Y123.826 E65.95102
G1 X190.848 Y123.827 E68.37871
G1 X145.316 Y123.826 E69.89311
G1 X100.634 Y123.826 E71.37924
G1 X37.245 Y123.827 E73.48757
G1 X35.14 Y123.825 E73.55758
G1 X34.473 Y123.815 E73.57977
G1 X33.771 Y123.765 E73.60317
G1 X33.079 Y123.635 E73.62659
G1 X32.406 Y123.428 E73.65001
G1 X31.761 Y123.145 E73.67344
G1 X31.153 Y122.792 E73.69682
G1 X30.588 Y122.371 E73.72026
G1 X30.182 Y122 E73.73855
G1 X30.07 Y121.888 E73.74382
G1 X29.601 Y121.363 E73.76723
G1 X29.195 Y120.788 E73.79064
G1 X28.857 Y120.17 E73.81407
G1 X28.59 Y119.519 E73.83747
G1 X28.4 Y118.841 E73.86089
G1 X28.287 Y118.146 E73.88431
G1 X28.253 Y117.565 E73.90367
G1 X28.244 Y116.98 E73.92313
G1 X28.245 Y86.862 E74.92486
G1 X28.255 Y86.193 E74.94711
G1 X28.305 Y85.491 E74.97052
G1 X28.435 Y84.799 E74.99394
G1 X28.642 Y84.126 E75.01736
G1 X28.925 Y83.482 E75.04075
G1 X29.278 Y82.873 E75.06417
G1 X29.698 Y82.308 E75.08758
G1 X30.09 Y81.882 E75.10684
G1 X30.202 Y81.771 E75.11208
G1 X30.729 Y81.305 E75.13548
G1 X31.306 Y80.901 E75.15891
G1 X31.925 Y80.566 E75.18232
G1 X32.578 Y80.303 E75.20573
G0 F3600 X34.644 Y86.365
;TYPE:SUPPORT
G1 F1800 X95.906 Y86.365 E77.24331
G1 X145.316 Y86.366 E78.8867
G1 X186.288 Y86.366 E80.24943
G1 X260.114 Y86.365 E82.70489
G1 X264.244 Y86.366 E82.84226
G1 X264.244 Y117.426 E83.87532
G1 X190.848 Y117.427 E86.31648
G1 X145.316 Y117.426 E87.83088
G1 X100.634 Y117.426 E89.31701
G1 X37.245 Y117.427 E91.42533
G1 X34.644 Y117.426 E91.51184
G1 X34.644 Y86.365 E92.54494
G0 F3600 X55.79 Y89.239
G1 F1800 X55.79 Y89.803 E92.5637
G1 X59.006 Y93.019 E92.71497
G1 X59.57 Y93.019 E92.73373
G1 X62.337 Y90.257 E92.86376
G1 X62.439 Y89.748 E92.88102
G1 X61.55 Y87.606 E92.95816
G1 X61.119 Y87.318 E92.9754
G1 X57.708 Y87.321 E93.08885
G1 X55.79 Y89.239 E93.17907
G0 F3600 X130.454 Y87.316
G1 F1800 X130.454 Y91.065 E93.30376
G1 X130.853 Y91.464 E93.32253
G1 X138.297 Y91.464 E93.57012
G1 X139.988 Y93.156 E93.64968
G1 X140.552 Y93.156 E93.66844
G1 X142.243 Y91.464 E93.748
G1 X149.035 Y91.464 E93.9739
G1 X149.046 Y91.467 E93.97428
G1 X149.515 Y91.761 E93.99269
G1 X149.8 Y92.036 E94.00587
G1 X149.813 Y92.041 E94.00633
G1 X150.896 Y93.08 E94.05625
G1 X154.506 Y93.08 E94.17632
G1 X154.849 Y92.572 E94.1967
G1 X153.617 Y89.558 E94.305
G1 X153.08 Y88.953 E94.33191
G1 X152.917 Y88.84 E94.3385
G1 X152.586 Y88.504 E94.35419
G1 X152.167 Y88.155 E94.37233
G1 X151.724 Y87.838 E94.39044
G1 X151.225 Y87.564 E94.40938
G1 X150.813 Y87.379 E94.4244
G1 X150.639 Y87.305 E94.43069
G1 X150.072 Y87.12 E94.45053
G1 X149.766 Y87.054 E94.46094
G1 X149.235 Y86.917 E94.47918
G1 X130.853 Y86.917 E95.09057
G1 X130.454 Y87.316 E95.10933
G0 F3600 X131.595 Y98.564
G1 F1800 X131.595 Y100.076 E95.15962
G1 X132.239 Y100.72 E95.18991
G1 X160.678 Y100.72 E96.1358
G1 X161.322 Y100.076 E96.16609
G1 X161.322 Y98.564 E96.21638
G1 X160.678 Y97.92 E96.24667
G1 X132.239 Y97.92 E97.19256
G1 X131.595 Y98.564 E97.22285
G0 F3600 X130.01 Y107.273
G1 F1800 X130.01 Y111.04 E97.34814
G1 X130.226 Y111.256 E97.3583
G1 X130.668 Y111.439 E97.37421
G1 X147.449 Y111.438 E97.93235
G1 X148.193 Y111.383 E97.95716
G1 X148.823 Y111.281 E97.97839
G1 X149.325 Y111.149 E97.99565
G1 X150.011 Y110.92 E98.01971
G1 X151.093 Y110.343 E98.06049
G1 X151.355 Y109.906 E98.07744
G1 X151.355 Y106.649 E98.18577
G1 X151.1 Y106.147 E98.20449
G1 X150.548 Y106.119 E98.22288
G1 X148.569 Y106.76 E98.29207
G1 X148.066 Y106.857 E98.3091
G1 X147.78 Y106.874 E98.31863
G1 X142.243 Y106.874 E98.50279
G1 X140.552 Y105.182 E98.58236
G1 X139.988 Y105.182 E98.60112
G1 X138.297 Y106.874 E98.68068
G1 X130.409 Y106.874 E98.94304
G1 X130.01 Y107.273 E98.9618
G0 F3600 X175.249 Y98.564
G1 F1800 X175.249 Y100.076 E99.01209
G1 X175.893 Y100.72 E99.04238
G1 X200.355 Y100.72 E99.85599
G1 X200.999 Y100.076 E99.88629
G1 X200.999 Y98.564 E99.93657
G1 X200.355 Y97.92 E99.96687
G1 X175.893 Y97.92 E100.78048
G1 X175.249 Y98.564 E100.81077
G0 F3600 X179.769 Y90.959
G1 F1800 X179.871 Y91.468 E100.82803
G1 X182.857 Y94.454 E100.96849
G1 X183.421 Y94.454 E100.98724
G1 X186.407 Y91.468 E101.1277
G1 X186.509 Y90.959 E101.14496
G1 X185.621 Y88.819 E101.22202
G1 X185.19 Y88.531 E101.23926
G1 X181.088 Y88.531 E101.3757
G1 X180.657 Y88.819 E101.39294
G1 X179.769 Y90.959 E101.47
G0 F3600 X191.453 Y90.959
G1 F1800 X191.555 Y91.468 E101.48727
G1 X193.764 Y93.677 E101.59117
G1 X194.273 Y93.779 E101.60844
G1 X196.413 Y92.891 E101.6855
G1 X196.701 Y92.46 E101.70274
G1 X196.701 Y88.93 E101.82015
G1 X196.302 Y88.531 E101.83892
G1 X192.772 Y88.531 E101.95632
G1 X192.341 Y88.819 E101.97356
G1 X191.453 Y90.959 E102.05063
G0 F3600 X224.478 Y93.007
G1 F1800 X224.621 Y93.517 E102.06824
G1 X226.67 Y95.106 E102.15448
G1 X227.199 Y95.12 E102.17208
G1 X228.726 Y94.046 E102.23418
G1 X228.97 Y93.588 E102.25144
G1 X229.216 Y93.211 E102.26641
G1 X229.777 Y92.595 E102.29412
G1 X230.489 Y92.206 E102.32111
G1 X231.033 Y92.03 E102.34012
G1 X232.444 Y92.031 E102.38705
G1 X232.483 Y92.037 E102.38837
G1 X234.67 Y92.752 E102.46489
G1 X235.174 Y92.509 E102.4835
G1 X236.376 Y89.269 E102.59844
G1 X236.152 Y88.756 E102.61706
G1 X234.026 Y87.872 E102.69364
G1 X233.478 Y87.704 E102.71271
G1 X233.083 Y87.602 E102.72627
G1 X232.492 Y87.5 E102.74622
G1 X231.808 Y87.444 E102.76905
G1 X231.207 Y87.446 E102.78904
G1 X230.686 Y87.488 E102.80642
G1 X230.007 Y87.607 E102.82935
G1 X229.444 Y87.762 E102.84877
G1 X229.074 Y87.886 E102.86175
G1 X227.716 Y88.392 E102.90995
G1 X226.839 Y89.207 E102.94977
G1 X225.52 Y90.326 E103.0073
G1 X225.261 Y90.942 E103.02953
G1 X224.478 Y93.007 E103.10298
G0 F3600 X224.688 Y92
G1 F1800 X196.861 Y92 E104.02851
G0 F3600 X196 Y93.236
G1 F1800 X196 Y97.76 E104.17898
G1 F1500 E97.67898
G0 F3600 X200.256 Y98.159
G0 X200.76 Y99.977
G0 X196 Y100.88
G1 F1500 E104.17898
G1 F1800 X196 Y117.267 E104.72401
G0 F3600 X192 Y117.267
G1 F1800 X192 Y100.88 E105.26905
G1 F1500 E98.76905
G0 F3600 X200.256 Y100.481
G0 X200.76 Y98.663
G0 X192 Y97.76
G1 F1500 E105.26905
G1 F1800 X192 Y92.14 E105.45597
G0 F3600 X191.861 Y92
G1 F1800 X186.101 Y92 E105.64755
G0 F3600 X184 Y94.102
G1 F1800 X184 Y97.76 E105.76921
G1 F1500 E99.26921
G0 F3600 X175.992 Y98.159
G0 X175.488 Y99.977
G0 X184 Y100.88
G1 F1500 E105.76921
G1 F1800 X184 Y117.266 E106.31421
G0 F3600 X180 Y117.266
G1 F1800 X180 Y100.88 E106.85921
G1 F1500 E100.35921
G0 F3600 X175.992 Y100.481
G0 X175.488 Y98.663
G0 X180 Y97.76
G1 F1500 E106.85921
G1 F1800 X180 Y91.824 E107.05665
G0 F3600 X180.177 Y92
G1 F1800 X154.788 Y92 E107.90109
G0 F3600 X152 Y93.24
G1 F1800 X152 Y97.76 E108.05142
G1 F1500 E101.55142
G0 F3600 X160.579 Y98.159
G0 X161.083 Y99.977
G0 X152 Y100.88
G1 F1500 E108.05142
G1 F1800 X152 Y117.266 E108.59643
G0 F3600 X148 Y117.266
G1 F1800 X148 Y111.557 E108.78631
G0 F3600 X144 Y111.598
G1 F1800 X144 Y117.266 E108.97483
G0 F3600 X140 Y117.266
G1 F1800 X140 Y111.598 E109.16334
G0 F3600 X136 Y111.598
G1 F1800 X136 Y117.266 E109.35186
G0 F3600 X132 Y117.266
G1 F1800 X132 Y111.598 E109.54038
G0 F3600 X129.85 Y108
G1 F1800 X34.803 Y108 E112.70166
G0 F3600 X34.803 Y104
G1 F1800 X264.084 Y104 E120.32757
G0 F3600 X264.084 Y100
