;FLAVOR:Marlin
;TIME:136
;Filament used: 0.103338m
;Layer height: 0.2
;MINX:132.6
;MINY:90.499
;MINZ:0.2
;MAXX:164.381
;MAXY:120.4
;MAXZ:4
;Generated with Cura_SteamEngine 4.7.0
M104 S205
M105
M109 S205
M82 ;absolute extrusion mode
; -- START GCODE --
M800        ; Custom GCODE to fire start print procedure
; -- end of START GCODE --
G92 E0
G92 E0
G1 F1500 E-6.5
;LAYER_COUNT:20
;LAYER:0
M107
G0 F3600 X135.9 Y93.829 Z0.2
;TYPE:SKIRT
G1 F1500 E0
G1 F1800 X136.367 Y93.217 E0.0256
G1 X136.804 Y92.745 E0.047
G1 X136.9 Y92.65 E0.05149
G1 X137.474 Y92.138 E0.07707
G1 X138.098 Y91.689 E0.10264
G1 X138.766 Y91.306 E0.12825
G1 X139.469 Y90.995 E0.15382
G1 X140.201 Y90.759 E0.1794
G1 X140.954 Y90.6 E0.205
G1 X141.855 Y90.514 E0.2351
G1 X142.592 Y90.501 E0.25962
G1 X143.185 Y90.499 E0.27934
G1 X144.001 Y90.51 E0.30648
G1 X144.769 Y90.561 E0.33208
G1 X145.527 Y90.691 E0.35766
G1 X146.267 Y90.9 E0.38324
G1 X146.982 Y91.184 E0.40883
G1 X147.663 Y91.54 E0.43439
G1 X148.304 Y91.966 E0.45998
G1 X148.933 Y92.489 E0.48719
G1 X149.748 Y93.247 E0.52421
G1 X151.758 Y95.063 E0.61431
G1 X153.729 Y96.746 E0.70051
G1 X155.768 Y98.389 E0.78761
G1 X157.867 Y99.984 E0.87529
G1 X159.524 Y101.181 E0.94328
G1 X159.939 Y101.474 E0.96017
G1 X160.462 Y101.878 E0.98215
G1 X160.858 Y102.214 E0.99943
G1 X161.047 Y102.379 E1.00777
G1 X161.597 Y102.916 E1.03334
G1 X162.006 Y103.399 E1.05439
G1 X162.336 Y103.824 E1.07228
G1 X162.504 Y104.048 E1.0816
G1 X162.928 Y104.69 E1.10719
G1 X163.191 Y105.181 E1.12571
G1 X163.486 Y105.79 E1.14822
G1 X163.545 Y105.92 E1.15297
G1 X163.827 Y106.636 E1.17856
G1 X163.978 Y107.151 E1.19641
G1 X164.112 Y107.677 E1.21447
G1 X164.165 Y107.899 E1.22206
G1 X164.3 Y108.656 E1.24763
G1 X164.351 Y109.251 E1.26749
G1 X164.38 Y110.012 E1.29282
G1 X164.381 Y110.127 E1.29665
G1 X164.347 Y110.895 E1.32222
G1 X164.284 Y111.384 E1.33862
G1 X164.201 Y111.892 E1.35574
G1 X164.136 Y112.243 E1.36761
G1 X163.947 Y112.989 E1.3932
G1 X163.628 Y113.866 E1.42424
G1 X163.486 Y114.214 E1.43674
G1 X163.154 Y114.908 E1.46233
G1 X162.872 Y115.381 E1.48065
G1 X162.578 Y115.836 E1.49867
G1 X162.402 Y116.097 E1.50914
G1 X161.932 Y116.706 E1.53472
G1 X161.573 Y117.096 E1.55235
G1 X161.218 Y117.454 E1.56912
G1 X160.98 Y117.684 E1.58013
G1 X160.395 Y118.184 E1.60573
G1 X159.964 Y118.492 E1.62334
G1 X159.542 Y118.771 E1.64017
G1 X159.24 Y118.962 E1.65206
G1 X158.564 Y119.33 E1.67766
G1 X157.677 Y119.702 E1.70965
G1 X157.302 Y119.841 E1.72295
G1 X156.566 Y120.063 E1.74852
G1 X156.083 Y120.165 E1.76494
G1 X155.559 Y120.257 E1.78263
G1 X155.059 Y120.327 E1.79942
G1 X154.842 Y120.35 E1.80668
G1 X154.155 Y120.39 E1.82957
G1 X153.346 Y120.4 E1.85648
G1 X143.593 Y120.399 E2.18087
G1 X142.895 Y120.389 E2.20408
G1 X142.262 Y120.356 E2.22517
G1 X141.558 Y120.281 E2.24871
G1 X140.8 Y120.153 E2.27428
G1 X140.312 Y120.026 E2.29105
G1 X139.731 Y119.851 E2.31123
G1 X139.548 Y119.791 E2.31764
G1 X138.83 Y119.513 E2.34325
G1 X138.361 Y119.283 E2.36062
G1 X137.775 Y118.967 E2.38277
G1 X137.633 Y118.886 E2.3882
G1 X136.986 Y118.47 E2.41379
G1 X136.561 Y118.141 E2.43166
G1 X136.103 Y117.755 E2.45158
G1 X135.942 Y117.612 E2.45875
G1 X135.394 Y117.072 E2.48434
G1 X134.807 Y116.364 E2.51492
G1 X134.566 Y116.05 E2.52809
G1 X134.134 Y115.413 E2.55369
G1 X133.879 Y114.956 E2.57109
G1 X133.63 Y114.461 E2.58952
G1 X133.524 Y114.238 E2.59774
G1 X133.23 Y113.527 E2.62333
G1 X133.071 Y113.019 E2.64103
G1 X132.904 Y112.404 E2.66223
G1 X132.874 Y112.284 E2.66634
G1 X132.685 Y111.181 E2.70356
G1 X132.623 Y110.427 E2.72872
G1 X132.604 Y109.904 E2.74613
G1 X132.6 Y109.516 E2.75904
G1 X132.601 Y107.565 E2.82393
G1 X132.612 Y106.881 E2.84668
G1 X132.712 Y105.783 E2.88335
G1 X132.83 Y105.209 E2.90284
G1 X132.95 Y104.723 E2.91949
G1 X133.415 Y102.933 E2.981
G1 X133.997 Y100.409 E3.06715
G1 X134.521 Y97.804 E3.15553
G1 X134.734 Y96.653 E3.19446
G1 X134.913 Y95.905 E3.22005
G1 X135.17 Y95.18 E3.24563
G1 X135.5 Y94.485 E3.27122
G1 X135.9 Y93.829 E3.29677
G0 F3600 X136.277 Y93.987
G1 F1800 X136.739 Y93.398 E3.32167
G1 X137.085 Y93.029 E3.3385
G1 X137.181 Y92.934 E3.34299
G1 X137.74 Y92.437 E3.36787
G1 X138.349 Y92.003 E3.39274
G1 X139.001 Y91.636 E3.41762
G1 X139.688 Y91.34 E3.4425
G1 X140.403 Y91.12 E3.46739
G1 X141.137 Y90.977 E3.49226
G1 X141.869 Y90.914 E3.51669
G1 X142.597 Y90.9 E3.54091
G1 X143.186 Y90.899 E3.5605
G1 X143.996 Y90.91 E3.58744
G1 X144.742 Y90.96 E3.61231
G1 X145.479 Y91.09 E3.6372
G1 X146.197 Y91.298 E3.66207
G1 X146.889 Y91.582 E3.68695
G1 X147.548 Y91.938 E3.71186
G1 X148.164 Y92.361 E3.73671
G1 X148.661 Y92.782 E3.75837
G1 X149.526 Y93.586 E3.79765
G1 X151.459 Y95.333 E3.88431
G1 X153.482 Y97.06 E3.97278
G1 X155.521 Y98.703 E4.05987
G1 X157.653 Y100.323 E4.14893
G1 X159.244 Y101.473 E4.21423
G1 X159.709 Y101.801 E4.23315
G1 X160.203 Y102.183 E4.25392
G1 X160.599 Y102.519 E4.2712
G1 X160.783 Y102.68 E4.27933
G1 X161.317 Y103.203 E4.30419
G1 X161.69 Y103.644 E4.3234
G1 X162.02 Y104.069 E4.3413
G1 X162.182 Y104.286 E4.3503
G1 X162.593 Y104.911 E4.37518
G1 X162.832 Y105.357 E4.39201
G1 X163.122 Y105.955 E4.41412
G1 X163.181 Y106.085 E4.41887
G1 X163.454 Y106.782 E4.44376
G1 X163.59 Y107.25 E4.45997
G1 X163.759 Y107.916 E4.48283
G1 X163.776 Y107.989 E4.48532
G1 X163.906 Y108.726 E4.51021
G1 X163.951 Y109.269 E4.52833
G1 X163.98 Y110.015 E4.55316
G1 X163.981 Y110.13 E4.55699
G1 X163.947 Y110.877 E4.58186
G1 X163.889 Y111.32 E4.59672
G1 X163.806 Y111.828 E4.61384
G1 X163.744 Y112.165 E4.62524
G1 X163.559 Y112.89 E4.65012
G1 X163.255 Y113.723 E4.67961
G1 X163.117 Y114.06 E4.69173
G1 X162.793 Y114.734 E4.7166
G1 X162.536 Y115.164 E4.73326
G1 X162.242 Y115.619 E4.75128
G1 X162.073 Y115.869 E4.76132
G1 X161.615 Y116.461 E4.78621
G1 X161.289 Y116.814 E4.80219
G1 X160.934 Y117.172 E4.81896
G1 X160.704 Y117.394 E4.82959
G1 X160.135 Y117.88 E4.85448
G1 X159.744 Y118.158 E4.87044
G1 X159.322 Y118.437 E4.88726
G1 X159.03 Y118.621 E4.89874
G1 X158.373 Y118.978 E4.92361
G1 X157.529 Y119.33 E4.95403
G1 X157.167 Y119.465 E4.96688
G1 X156.45 Y119.679 E4.99177
G1 X156.013 Y119.771 E5.00662
G1 X155.489 Y119.863 E5.02431
G1 X154.8 Y119.952 E5.04742
G1 X154.15 Y119.99 E5.06908
G1 X153.346 Y120 E5.09582
G1 X143.599 Y119.999 E5.42001
G1 X142.901 Y119.989 E5.44322
G1 X142.291 Y119.957 E5.46354
G1 X141.605 Y119.884 E5.48649
G1 X140.867 Y119.758 E5.51139
G1 X140.047 Y119.531 E5.53969
G1 X139.672 Y119.411 E5.55278
G1 X138.975 Y119.14 E5.57765
G1 X138.139 Y118.71 E5.60892
G1 X137.832 Y118.538 E5.62063
G1 X137.203 Y118.133 E5.64551
G1 X136.534 Y117.598 E5.674
G1 X136.207 Y117.313 E5.68843
G1 X135.676 Y116.787 E5.71329
G1 X135.119 Y116.114 E5.74234
G1 X134.885 Y115.808 E5.75516
G1 X134.466 Y115.189 E5.78002
G1 X134.081 Y114.472 E5.80708
G1 X133.885 Y114.066 E5.82208
G1 X133.6 Y113.374 E5.84697
G1 X133.332 Y112.461 E5.87862
G1 X133.262 Y112.187 E5.88802
G1 X133.084 Y111.143 E5.92325
G1 X133.023 Y110.409 E5.94775
G1 X133.004 Y109.9 E5.96469
G1 X133 Y109.512 E5.97759
G1 X133.001 Y107.571 E6.04215
G1 X133.012 Y106.887 E6.0649
G1 X133.106 Y105.849 E6.09957
G1 X133.218 Y105.304 E6.11807
G1 X133.337 Y104.824 E6.13452
G1 X133.804 Y103.026 E6.19631
G1 X134.395 Y100.464 E6.28376
G1 X134.914 Y97.883 E6.37132
G1 X134.917 Y97.856 E6.37223
G1 X135.127 Y96.726 E6.41045
G1 X135.303 Y95.999 E6.43533
G1 X135.555 Y95.295 E6.4602
G1 X135.881 Y94.621 E6.4851
G1 X136.277 Y93.987 E6.50997
G0 F3600 X136.654 Y94.148
G1 F1800 X137.11 Y93.583 E6.53411
G1 X137.463 Y93.219 E6.55098
G1 X138.006 Y92.737 E6.57513
G1 X138.599 Y92.318 E6.59928
G1 X139.235 Y91.967 E6.62344
G1 X139.906 Y91.687 E6.64762
G1 X140.603 Y91.483 E6.67178
G1 X141.318 Y91.357 E6.69592
G1 X141.882 Y91.314 E6.71474
G1 X142.602 Y91.3 E6.73869
G1 X143.186 Y91.299 E6.75811
G1 X143.99 Y91.31 E6.78486
G1 X144.714 Y91.36 E6.80899
G1 X145.429 Y91.49 E6.83317
G1 X146.125 Y91.697 E6.85732
G1 X146.794 Y91.98 E6.88148
G1 X147.428 Y92.334 E6.90563
G1 X148.019 Y92.756 E6.92978
G1 X148.389 Y93.075 E6.94603
G1 X149.23 Y93.857 E6.98423
G1 X151.214 Y95.65 E7.07317
G1 X153.238 Y97.377 E7.16166
G1 X155.273 Y99.018 E7.24861
G1 X157.39 Y100.627 E7.33705
G1 X159.074 Y101.843 E7.40614
G1 X159.478 Y102.128 E7.42258
G1 X159.944 Y102.488 E7.44217
G1 X160.428 Y102.9 E7.46331
G1 X160.519 Y102.98 E7.46734
G1 X161.037 Y103.489 E7.49149
G1 X161.374 Y103.889 E7.50889
G1 X161.704 Y104.314 E7.52679
G1 X161.86 Y104.523 E7.53546
G1 X162.258 Y105.13 E7.5596
G1 X162.674 Y105.943 E7.58998
G1 X162.817 Y106.25 E7.60124
G1 X163.08 Y106.927 E7.6254
G1 X163.203 Y107.349 E7.64002
G1 X163.337 Y107.875 E7.65807
G1 X163.386 Y108.08 E7.66508
G1 X163.512 Y108.795 E7.68923
G1 X163.574 Y109.785 E7.72222
G1 X163.581 Y110.134 E7.73383
G1 X163.547 Y110.859 E7.75797
G1 X163.495 Y111.255 E7.77125
G1 X163.412 Y111.763 E7.78837
G1 X163.351 Y112.088 E7.79937
G1 X163.171 Y112.791 E7.82351
G1 X162.882 Y113.579 E7.85142
G1 X162.748 Y113.906 E7.86318
G1 X162.432 Y114.56 E7.88734
G1 X162.2 Y114.947 E7.90234
G1 X161.906 Y115.402 E7.92036
G1 X161.744 Y115.642 E7.92999
G1 X161.299 Y116.215 E7.95412
G1 X161.004 Y116.532 E7.96853
G1 X160.649 Y116.89 E7.98529
G1 X160.429 Y117.104 E7.9955
G1 X159.875 Y117.575 E8.01969
G1 X159.523 Y117.825 E8.03405
G1 X159.101 Y118.104 E8.05087
G1 X158.821 Y118.28 E8.06187
G1 X158.182 Y118.626 E8.08604
G1 X157.38 Y118.959 E8.11492
G1 X157.032 Y119.088 E8.12727
G1 X156.336 Y119.296 E8.15143
G1 X155.944 Y119.377 E8.16474
G1 X155.42 Y119.469 E8.18244
G1 X154.758 Y119.554 E8.20464
G1 X154.145 Y119.59 E8.22506
G1 X153.346 Y119.6 E8.25164
G1 X143.604 Y119.599 E8.57566
G1 X142.906 Y119.589 E8.59888
G1 X142.32 Y119.558 E8.61839
G1 X141.651 Y119.487 E8.64077
G1 X140.935 Y119.363 E8.66494
G1 X140.161 Y119.147 E8.69167
G1 X139.797 Y119.031 E8.70437
G1 X139.12 Y118.767 E8.72854
G1 X138.327 Y118.358 E8.75822
G1 X138.03 Y118.191 E8.76955
G1 X137.42 Y117.797 E8.7937
G1 X136.79 Y117.291 E8.82058
G1 X136.473 Y117.014 E8.83458
G1 X135.957 Y116.502 E8.85876
G1 X135.431 Y115.864 E8.88626
G1 X135.204 Y115.567 E8.89869
G1 X134.798 Y114.965 E8.92284
G1 X134.437 Y114.29 E8.9483
G1 X134.246 Y113.894 E8.96293
G1 X133.971 Y113.222 E8.98708
G1 X133.718 Y112.355 E9.01711
G1 X133.65 Y112.09 E9.02621
G1 X133.482 Y111.106 E9.05942
G1 X133.423 Y110.391 E9.08328
G1 X133.4 Y109.508 E9.11266
G1 X133.401 Y107.578 E9.17685
G1 X133.412 Y106.894 E9.1996
G1 X133.501 Y105.915 E9.2323
G1 X133.606 Y105.4 E9.24978
G1 X133.724 Y104.924 E9.26609
G1 X134.198 Y103.102 E9.32871
G1 X134.783 Y100.561 E9.41543
G1 X135.305 Y97.968 E9.50341
G1 X135.31 Y97.929 E9.50471
G1 X135.52 Y96.799 E9.54294
G1 X135.692 Y96.093 E9.56711
G1 X135.94 Y95.411 E9.59125
G1 X136.262 Y94.76 E9.6154
G1 X136.654 Y94.148 E9.63957
G0 F3600 X137.029 Y94.311
G1 F1800 X137.648 Y93.598 E9.67098
G1 X137.744 Y93.503 E9.67547
G1 X138.272 Y93.037 E9.69889
G1 X138.849 Y92.634 E9.7223
G1 X139.468 Y92.299 E9.74571
G1 X140.121 Y92.036 E9.76913
G1 X140.8 Y91.849 E9.79255
G1 X141.495 Y91.74 E9.81595
G1 X142.044 Y91.709 E9.83424
G1 X142.606 Y91.7 E9.85293
G1 X143.187 Y91.699 E9.87226
G1 X143.984 Y91.71 E9.89877
G1 X144.686 Y91.76 E9.92218
G1 X145.378 Y91.889 E9.94559
G1 X146.051 Y92.096 E9.96901
G1 X146.696 Y92.378 E9.99242
G1 X147.305 Y92.731 E10.01583
G1 X148.116 Y93.368 E10.05013
G1 X148.937 Y94.131 E10.08741
G1 X150.95 Y95.95 E10.17765
G1 X152.972 Y97.676 E10.26607
G1 X155.026 Y99.332 E10.35382
G1 X157.154 Y100.949 E10.44272
G1 X158.84 Y102.167 E10.5119
G1 X159.248 Y102.455 E10.52851
G1 X159.685 Y102.793 E10.54688
G1 X160.164 Y103.201 E10.56781
G1 X160.255 Y103.281 E10.57184
G1 X160.756 Y103.775 E10.59524
G1 X161.058 Y104.135 E10.61087
G1 X161.388 Y104.56 E10.62877
G1 X161.538 Y104.76 E10.63708
G1 X161.923 Y105.35 E10.66051
G1 X162.315 Y106.119 E10.68922
G1 X162.453 Y106.416 E10.70011
G1 X162.707 Y107.072 E10.72351
G1 X162.815 Y107.447 E10.73649
G1 X162.949 Y107.973 E10.75454
G1 X162.996 Y108.171 E10.76131
G1 X163.117 Y108.864 E10.78471
G1 X163.174 Y109.803 E10.816
G1 X163.181 Y110.137 E10.82711
G1 X163.147 Y110.84 E10.85052
G1 X163.1 Y111.191 E10.8623
G1 X163.017 Y111.699 E10.87942
G1 X162.959 Y112.01 E10.88994
G1 X162.783 Y112.692 E10.91337
G1 X162.508 Y113.436 E10.93975
G1 X162.379 Y113.752 E10.9511
G1 X162.071 Y114.386 E10.97454
G1 X161.864 Y114.73 E10.9879
G1 X161.57 Y115.185 E11.00592
G1 X161.416 Y115.414 E11.01509
G1 X160.983 Y115.969 E11.03851
G1 X160.72 Y116.251 E11.05133
G1 X160.365 Y116.609 E11.0681
G1 X160.153 Y116.814 E11.07791
G1 X159.616 Y117.269 E11.10132
G1 X159.302 Y117.491 E11.11411
G1 X158.88 Y117.77 E11.13094
G1 X158.611 Y117.939 E11.1415
G1 X157.992 Y118.273 E11.1649
G1 X157.232 Y118.587 E11.19225
G1 X156.897 Y118.712 E11.20414
G1 X156.222 Y118.912 E11.22755
G1 X155.875 Y118.983 E11.23933
G1 X155.351 Y119.075 E11.25703
G1 X154.715 Y119.156 E11.27835
G1 X154.14 Y119.191 E11.29751
G1 X153.424 Y119.2 E11.32133
G1 X143.61 Y119.199 E11.64774
G1 X142.912 Y119.189 E11.67096
G1 X142.348 Y119.159 E11.68975
G1 X141.697 Y119.089 E11.71153
G1 X141.004 Y118.968 E11.73492
G1 X140.275 Y118.764 E11.7601
G1 X139.921 Y118.65 E11.77247
G1 X139.266 Y118.393 E11.79587
G1 X138.516 Y118.005 E11.82396
G1 X138.228 Y117.843 E11.83495
G1 X137.637 Y117.46 E11.85837
G1 X137.046 Y116.984 E11.88361
G1 X136.739 Y116.715 E11.89719
G1 X136.017 Y115.956 E11.93203
G1 X135.638 Y115.478 E11.95232
G1 X135.523 Y115.326 E11.95866
G1 X135.13 Y114.741 E11.9821
G1 X134.793 Y114.108 E12.00595
G1 X134.607 Y113.723 E12.02017
G1 X134.342 Y113.071 E12.04358
G1 X134.104 Y112.249 E12.07204
G1 X134.038 Y111.993 E12.08084
G1 X133.88 Y111.069 E12.11201
G1 X133.822 Y110.373 E12.13524
G1 X133.8 Y109.504 E12.16416
G1 X133.801 Y107.584 E12.22801
G1 X133.812 Y106.9 E12.25077
G1 X133.895 Y105.981 E12.28146
G1 X134.093 Y105.099 E12.31152
G1 X134.111 Y105.025 E12.31406
G1 X134.585 Y103.201 E12.37674
G1 X135.178 Y100.624 E12.46469
G1 X135.7 Y98.031 E12.55266
G1 X135.703 Y98.002 E12.55363
G1 X135.913 Y96.872 E12.59186
G1 X136.081 Y96.188 E12.61529
G1 X136.325 Y95.528 E12.63869
G1 X136.643 Y94.9 E12.6621
G1 X137.029 Y94.311 E12.68553
G1 F1500 E6.18553
;MESH:Taranis Pignon.stl
G0 F3600 X140.614 Y106.335
G0 X140.614 Y107.614
G0 X141.002 Y108.202
;TYPE:WALL-INNER
G1 F1500 E12.68553
G1 F1800 X141.001 Y108.201 E12.68557
G1 X141 Y108 E12.69226
G1 X141.201 Y108 E12.69658
G1 X141.202 Y108 E12.69661
G1 X141.762 Y108 E12.71524
G1 X142.31 Y108 E12.73347
G1 X142.913 Y108 E12.75352
G1 X142.31 Y108.105 E12.7564
G1 X141.836 Y108.38 E12.76812
G1 X141.705 Y108.456 E12.77316
G1 X141.389 Y108.832 E12.7895
G1 X141.254 Y108.992 E12.79646
G1 X141.016 Y109.651 E12.81976
G1 X141.01 Y108.995 E12.82615
G1 X141.008 Y108.785 E12.83186
G1 X141.002 Y108.202 E12.85125
G0 F3600 X141.138 Y110.687
G1 F1800 X141.168 Y110.77 E12.85419
G1 X141.129 Y110.691 E12.85422
G1 X141.103 Y110.589 E12.85771
G1 X141.138 Y110.687 E12.85773
G0 F3600 X141.558 Y111.369
G1 F1800 X141.581 Y111.396 E12.85891
G1 X141.554 Y111.373 E12.85892
G1 X141.462 Y111.255 E12.8639
G1 X141.558 Y111.369 E12.86393
G0 F3600 X141.863 Y111.635
G1 F1800 X141.961 Y111.692 E12.8677
G1 X141.862 Y111.638
G1 X141.854 Y111.63 E12.86806
G1 X141.863 Y111.635
G0 F3600 X142.604 Y111.946
G1 F1800 X142.718 Y111.966 E12.87191
G1 X142.603 Y111.954 E12.87193
G1 X142.545 Y111.936 E12.87394
G1 X142.604 Y111.946
G0 F3600 X154.51 Y111.927
G1 F1800 X154.521 Y111.925 E12.87431
G1 X154.511 Y111.928
G1 X154.4 Y111.946 E12.87805
G1 X154.51 Y111.927
G0 F3600 X154.888 Y111.781
G1 F1800 X154.993 Y111.72 E12.88209
G1 X154.891 Y111.785
G1 X154.863 Y111.795 E12.88307
G1 X154.888 Y111.781
G0 F3600 X155.525 Y111.285
G1 F1800 X155.463 Y111.346 E12.88596
G1 X155.518 Y111.28
G1 X155.571 Y111.218 E12.88866
G1 X155.525 Y111.285 E12.88869
G0 F3600 X155.915 Y110.557
G1 F1800 X155.868 Y110.674 E12.89288
G1 X155.91 Y110.556 E12.89289
G1 X155.921 Y110.527 E12.89392
G1 X155.915 Y110.557
G0 F3600 X155.885 Y109.345
G1 F1800 X155.905 Y109.429 E12.89679
G1 X155.876 Y109.349 E12.89681
G1 X155.84 Y109.249 E12.90033
G1 X155.885 Y109.345 E12.90037
G0 F3600 X155.461 Y108.641
G1 F1800 X155.538 Y108.743 E12.90462
G1 X155.456 Y108.646 E12.90466
G1 X155.425 Y108.609 E12.90626
G1 X155.461 Y108.641
G0 F3600 X155.16 Y108.376
