;FLAVOR:Marlin
;TIME:2770
;Filament used: 2.71941m
;Layer height: 0.2
;MINX:121.9
;MINY:70.362
;MINZ:0.2
;MAXX:175.1
;MAXY:139.638
;MAXZ:13.4
;Generated with Cura_SteamEngine 4.7.0
M104 S205
M105
M109 S205
M82 ;absolute extrusion mode
; -- START GCODE --
M800        ; Custom GCODE to fire start print procedure
; -- end of START GCODE --
G92 E0
G92 E0
G1 F1500 E-6.5
;LAYER_COUNT:67
;LAYER:0
M107
G0 F3600 X128.537 Y74.365 Z0.2
;TYPE:SKIRT
G1 F1500 E0
G1 F1800 X128.938 Y73.709 E0.02557
G1 X129.405 Y73.097 E0.05118
G1 X129.787 Y72.681 E0.06996
G1 X129.896 Y72.571 E0.07511
G1 X130.465 Y72.054 E0.10068
G1 X131.084 Y71.598 E0.12625
G1 X131.748 Y71.209 E0.15185
G1 X132.448 Y70.892 E0.17741
G1 X133.178 Y70.648 E0.20301
G1 X133.929 Y70.482 E0.22859
G1 X135.011 Y70.381 E0.26473
G1 X135.955 Y70.363 E0.29614
G1 X161.142 Y70.362 E1.13386
G1 X161.949 Y70.373 E1.1607
G1 X162.717 Y70.424 E1.1863
G1 X163.475 Y70.554 E1.21188
G1 X164.215 Y70.762 E1.23745
G1 X164.93 Y71.046 E1.26304
G1 X165.612 Y71.403 E1.28864
G1 X166.252 Y71.828 E1.31419
G1 X166.845 Y72.318 E1.33978
G1 X167.519 Y73.023 E1.37222
G1 X167.637 Y73.164 E1.37833
G1 X168.099 Y73.778 E1.40389
G1 X168.495 Y74.438 E1.42949
G1 X168.821 Y75.135 E1.45508
G1 X169.072 Y75.862 E1.48066
G1 X169.227 Y76.507 E1.50273
G1 X169.731 Y79.11 E1.59091
G1 X170.309 Y81.701 E1.67921
G1 X170.937 Y84.178 E1.7642
G1 X171.666 Y86.751 E1.85315
G1 X172.439 Y89.213 E1.93897
G1 X173.296 Y91.695 E2.02631
G1 X174.229 Y94.166 E2.11416
G1 X174.316 Y94.383 E2.12193
G1 X174.59 Y95.092 E2.14721
G1 X174.914 Y96.164 E2.18446
G1 X175.041 Y96.922 E2.21002
G1 X175.086 Y97.54 E2.23063
G1 X175.1 Y98.092 E2.249
G1 X175.099 Y104.148 E2.45042
G1 X175.088 Y104.873 E2.47454
G1 X175.037 Y105.641 E2.50014
G1 X174.906 Y106.399 E2.52572
G1 X174.635 Y107.313 E2.55743
G1 X174.312 Y108.191 E2.58855
G1 X173.401 Y110.773 E2.67961
G1 X172.604 Y113.254 E2.76628
G1 X171.873 Y115.776 E2.85362
G1 X171.223 Y118.278 E2.9396
G1 X170.624 Y120.88 E3.0284
G1 X170.114 Y123.435 E3.11506
G1 X169.671 Y126.021 E3.20232
G1 X169.306 Y128.587 E3.28853
G1 X169.01 Y131.206 E3.37619
G1 X168.963 Y131.749 E3.39432
G1 X168.857 Y132.824 E3.43025
G1 X168.742 Y133.585 E3.45585
G1 X168.549 Y134.329 E3.48141
G1 X168.279 Y135.049 E3.50699
G1 X167.936 Y135.738 E3.53259
G1 X167.523 Y136.387 E3.55817
G1 X167.036 Y137.001 E3.58424
G1 X166.921 Y137.131 E3.59001
G1 X166.382 Y137.68 E3.6156
G1 X165.789 Y138.17 E3.64118
G1 X165.148 Y138.596 E3.66678
G1 X164.467 Y138.952 E3.69234
G1 X163.752 Y139.237 E3.71794
G1 X163.012 Y139.445 E3.74351
G1 X162.254 Y139.576 E3.76909
G1 X161.628 Y139.624 E3.78997
G1 X160.911 Y139.637 E3.81383
G1 X136.324 Y139.638 E4.63159
G1 X135.517 Y139.627 E4.65844
G1 X134.749 Y139.576 E4.68404
G1 X133.991 Y139.446 E4.70962
G1 X133.251 Y139.238 E4.73518
G1 X132.536 Y138.954 E4.76077
G1 X131.854 Y138.597 E4.78637
G1 X131.214 Y138.172 E4.81193
G1 X130.366 Y137.437 E4.84925
G1 X130.253 Y137.323 E4.85459
G1 X129.741 Y136.75 E4.88015
G1 X129.291 Y136.126 E4.90574
G1 X128.908 Y135.459 E4.93132
G1 X128.597 Y134.756 E4.95688
G1 X128.36 Y134.024 E4.98248
G1 X128.2 Y133.272 E5.00805
G1 X128.14 Y132.794 E5.02407
G1 X128.049 Y131.803 E5.05717
G1 X127.766 Y129.163 E5.14548
G1 X127.414 Y126.568 E5.23258
G1 X126.988 Y123.979 E5.31985
G1 X126.489 Y121.402 E5.40715
G1 X125.919 Y118.849 E5.49416
G1 X125.293 Y116.371 E5.57916
G1 X124.564 Y113.8 E5.66805
G1 X123.771 Y111.276 E5.75604
G1 X122.914 Y108.798 E5.84325
G1 X122.48 Y107.637 E5.88447
G1 X122.32 Y107.185 E5.90042
G1 X122.106 Y106.446 E5.92601
G1 X121.969 Y105.689 E5.9516
G1 X121.912 Y104.96 E5.97592
G1 X121.9 Y104.432 E5.99348
G1 X121.901 Y98.354 E6.19564
G1 X121.912 Y97.647 E6.21916
G1 X121.964 Y96.879 E6.24476
G1 X122.095 Y96.122 E6.27031
G1 X122.304 Y95.381 E6.29592
G1 X122.512 Y94.836 E6.31532
G1 X123.461 Y92.372 E6.40314
G1 X124.358 Y89.834 E6.49267
G1 X125.137 Y87.412 E6.57729
G1 X125.88 Y84.856 E6.66583
G1 X126.544 Y82.306 E6.75347
G1 X127.115 Y79.833 E6.83788
G1 X127.672 Y77.052 E6.93222
G1 X127.769 Y76.532 E6.94981
G1 X127.949 Y75.784 E6.9754
G1 X128.206 Y75.059 E7.00098
G1 X128.537 Y74.365 E7.02656
G0 F3600 X128.918 Y74.501
G1 F1800 X129.314 Y73.867 E7.05142
G1 X129.776 Y73.279 E7.07629
G1 X130.18 Y72.853 E7.09582
G1 X130.734 Y72.35 E7.12071
G1 X131.339 Y71.91 E7.14559
G1 X131.987 Y71.537 E7.17045
G1 X132.671 Y71.234 E7.19534
G1 X133.384 Y71.007 E7.22022
G1 X134.117 Y70.857 E7.24511
G1 X135.019 Y70.781 E7.27522
G1 X135.963 Y70.763 E7.30662
G1 X161.142 Y70.762 E8.14408
G1 X161.944 Y70.773 E8.17075
G1 X162.69 Y70.823 E8.19562
G1 X163.427 Y70.953 E8.22051
G1 X164.145 Y71.161 E8.24538
G1 X164.838 Y71.444 E8.27027
G1 X165.496 Y71.8 E8.29516
G1 X166.112 Y72.224 E8.32003
G1 X166.68 Y72.711 E8.34491
G1 X167.212 Y73.279 E8.3708
G1 X167.33 Y73.42 E8.37691
G1 X167.779 Y74.019 E8.40181
G1 X168.161 Y74.662 E8.42669
G1 X168.473 Y75.342 E8.45157
G1 X168.71 Y76.052 E8.47647
G1 X168.835 Y76.583 E8.49461
G1 X169.342 Y79.201 E8.5833
G1 X169.925 Y81.814 E8.67235
G1 X170.55 Y84.28 E8.75696
G1 X171.272 Y86.828 E8.84504
G1 X172.066 Y89.358 E8.93324
G1 X172.916 Y91.818 E9.01981
G1 X173.856 Y94.31 E9.10839
G1 X173.943 Y94.528 E9.1162
G1 X174.217 Y95.237 E9.14148
G1 X174.523 Y96.25 E9.17667
G1 X174.646 Y96.988 E9.20156
G1 X174.687 Y97.552 E9.22037
G1 X174.7 Y98.092 E9.23833
G1 X174.699 Y104.142 E9.43956
G1 X174.688 Y104.867 E9.46367
G1 X174.637 Y105.613 E9.48854
G1 X174.506 Y106.35 E9.51344
G1 X174.26 Y107.175 E9.54207
G1 X173.904 Y108.144 E9.57641
G1 X173.026 Y110.633 E9.66419
G1 X172.228 Y113.116 E9.75094
G1 X171.485 Y115.678 E9.83966
G1 X170.832 Y118.193 E9.92608
G1 X170.236 Y120.783 E10.01448
G1 X169.721 Y123.36 E10.10189
G1 X169.275 Y125.963 E10.18972
G1 X168.912 Y128.523 E10.27572
G1 X168.613 Y131.163 E10.36409
G1 X168.565 Y131.71 E10.38235
G1 X168.459 Y132.785 E10.41828
G1 X168.346 Y133.524 E10.44315
G1 X168.155 Y134.248 E10.46805
G1 X167.887 Y134.946 E10.49292
G1 X167.547 Y135.612 E10.51779
G1 X167.137 Y136.238 E10.54268
G1 X166.736 Y136.736 E10.56394
G1 X166.621 Y136.866 E10.56972
G1 X166.096 Y137.399 E10.5946
G1 X165.517 Y137.873 E10.61949
G1 X164.891 Y138.282 E10.64436
G1 X164.225 Y138.623 E10.66924
G1 X163.526 Y138.89 E10.69413
G1 X162.803 Y139.081 E10.719
G1 X162.064 Y139.194 E10.74387
G1 X161.466 Y139.229 E10.76379
G1 X160.821 Y139.238 E10.78525
G1 X136.224 Y139.237 E11.60335
G1 X135.522 Y139.227 E11.6267
G1 X134.776 Y139.177 E11.65156
G1 X134.039 Y139.047 E11.67646
G1 X133.321 Y138.839 E11.70132
G1 X132.628 Y138.556 E11.72622
G1 X131.97 Y138.2 E11.7511
G1 X131.354 Y137.776 E11.77597
G1 X130.65 Y137.156 E11.80717
G1 X130.537 Y137.042 E11.81251
G1 X130.04 Y136.483 E11.83739
G1 X129.605 Y135.875 E11.86225
G1 X129.237 Y135.223 E11.88716
G1 X128.941 Y134.536 E11.91204
G1 X128.72 Y133.821 E11.93693
G1 X128.539 Y132.758 E11.97279
G1 X128.449 Y131.784 E12.00532
G1 X128.166 Y129.138 E12.09383
G1 X127.806 Y126.486 E12.18285
G1 X127.383 Y123.91 E12.26967
G1 X126.886 Y121.344 E12.35661
G1 X126.311 Y118.77 E12.44433
G1 X125.671 Y116.236 E12.53125
G1 X124.945 Y113.676 E12.61976
G1 X124.155 Y111.162 E12.70741
G1 X123.288 Y108.655 E12.79563
G1 X122.855 Y107.497 E12.83675
G1 X122.698 Y107.053 E12.85242
G1 X122.49 Y106.335 E12.87728
G1 X122.36 Y105.598 E12.90217
G1 X122.312 Y104.949 E12.92382
G1 X122.3 Y104.432 E12.94102
G1 X122.301 Y98.36 E13.14297
G1 X122.312 Y97.653 E13.16649
G1 X122.363 Y96.907 E13.19136
G1 X122.494 Y96.17 E13.21626
G1 X122.816 Y95.152 E13.25177
G1 X122.885 Y94.981 E13.2579
G1 X123.852 Y92.47 E13.3474
G1 X124.715 Y90.027 E13.43357
G1 X125.539 Y87.466 E13.52305
G1 X126.257 Y84.996 E13.6086
G1 X126.935 Y82.391 E13.69813
G1 X127.503 Y79.93 E13.78214
G1 X128.064 Y77.131 E13.87709
G1 X128.162 Y76.605 E13.89488
G1 X128.338 Y75.878 E13.91976
G1 X128.591 Y75.174 E13.94464
G1 X128.918 Y74.501 E13.96953
G0 F3600 X129.299 Y74.64
G1 F1800 X129.691 Y74.028 E13.9937
G1 X130.355 Y73.244 E14.02787
G1 X130.464 Y73.134 E14.03302
G1 X131.003 Y72.647 E14.05718
G1 X131.592 Y72.223 E14.08132
G1 X132.224 Y71.865 E14.10548
G1 X132.892 Y71.579 E14.12965
G1 X133.587 Y71.368 E14.15381
G1 X134.301 Y71.235 E14.17796
G1 X135.026 Y71.181 E14.20214
G1 X135.97 Y71.163 E14.23355
G1 X161.142 Y71.162 E15.07077
G1 X161.938 Y71.173 E15.09725
G1 X162.663 Y71.223 E15.12142
G1 X163.377 Y71.353 E15.14556
G1 X164.073 Y71.56 E15.16971
G1 X164.743 Y71.843 E15.1939
G1 X165.377 Y72.197 E15.21805
G1 X165.968 Y72.619 E15.2422
G1 X166.509 Y73.103 E15.26635
G1 X166.905 Y73.536 E15.28586
G1 X167.023 Y73.677 E15.29198
G1 X167.458 Y74.259 E15.31615
G1 X167.826 Y74.885 E15.3403
G1 X168.124 Y75.548 E15.36447
G1 X168.346 Y76.239 E15.38861
G1 X168.442 Y76.659 E15.40294
G1 X168.951 Y79.292 E15.49214
G1 X169.527 Y81.869 E15.57997
G1 X170.17 Y84.407 E15.66705
G1 X170.895 Y86.965 E15.75548
G1 X171.678 Y89.461 E15.84248
G1 X172.55 Y91.985 E15.9313
G1 X173.475 Y94.436 E16.01843
G1 X173.57 Y94.672 E16.02689
G1 X173.844 Y95.381 E16.05218
G1 X174.133 Y96.337 E16.08539
G1 X174.251 Y97.054 E16.10956
G1 X174.287 Y97.565 E16.1266
G1 X174.3 Y98.092 E16.14413
G1 X174.299 Y104.136 E16.34516
G1 X174.288 Y104.861 E16.36927
G1 X174.237 Y105.586 E16.39345
G1 X174.107 Y106.3 E16.41759
G1 X173.884 Y107.037 E16.4432
G1 X173.528 Y108.006 E16.47753
G1 X172.655 Y110.483 E16.56488
G1 X171.837 Y113.029 E16.65383
G1 X171.102 Y115.562 E16.74155
G1 X170.441 Y118.109 E16.82907
G1 X169.847 Y120.688 E16.91709
G1 X169.321 Y123.32 E17.00637
G1 X168.884 Y125.877 E17.09264
G1 X168.512 Y128.493 E17.18053
G1 X168.215 Y131.12 E17.26846
G1 X168.167 Y131.671 E17.28686
G1 X168.061 Y132.746 E17.32278
G1 X167.95 Y133.463 E17.34691
G1 X167.761 Y134.165 E17.37109
G1 X167.496 Y134.841 E17.39524
G1 X167.158 Y135.484 E17.41941
G1 X166.752 Y136.086 E17.44356
G1 X166.321 Y136.601 E17.46589
G1 X165.811 Y137.118 E17.49005
G1 X165.247 Y137.575 E17.51419
G1 X164.636 Y137.968 E17.53835
G1 X163.985 Y138.291 E17.56252
G1 X163.303 Y138.541 E17.58668
G1 X162.598 Y138.714 E17.61083
G1 X161.601 Y138.824 E17.64419
G1 X160.902 Y138.838 E17.66744
G1 X136.23 Y138.837 E18.48804
G1 X135.528 Y138.827 E18.51139
G1 X134.803 Y138.777 E18.53556
G1 X134.089 Y138.647 E18.5597
G1 X133.393 Y138.44 E18.58385
G1 X132.723 Y138.157 E18.60804
G1 X132.089 Y137.803 E18.63219
G1 X131.498 Y137.381 E18.65634
G1 X130.935 Y136.874 E18.68154
G1 X130.822 Y136.76 E18.68688
G1 X130.339 Y136.217 E18.71105
G1 X129.92 Y135.624 E18.7352
G1 X129.568 Y134.989 E18.75935
G1 X129.288 Y134.318 E18.78353
G1 X129.083 Y133.621 E18.8077
G1 X128.937 Y132.721 E18.83802
G1 X128.851 Y131.787 E18.86922
G1 X128.557 Y129.043 E18.96101
G1 X128.204 Y126.439 E19.04841
G1 X127.783 Y123.875 E19.13483
G1 X127.268 Y121.219 E19.22481
G1 X126.704 Y118.69 E19.311
G1 X126.058 Y116.134 E19.39868
G1 X125.326 Y113.552 E19.48794
G1 X124.542 Y111.06 E19.57483
G1 X123.669 Y108.534 E19.66372
G1 X123.229 Y107.357 E19.70552
G1 X123.076 Y106.922 E19.72085
G1 X122.875 Y106.224 E19.74501
G1 X122.752 Y105.508 E19.76918
G1 X122.712 Y104.938 E19.78818
G1 X122.7 Y104.432 E19.80502
G1 X122.701 Y98.366 E20.00677
G1 X122.712 Y97.659 E20.03029
G1 X122.763 Y96.935 E20.05443
G1 X122.894 Y96.22 E20.07861
G1 X123.187 Y95.301 E20.11069
G1 X123.248 Y95.148 E20.11617
G1 X124.231 Y92.598 E20.20706
G1 X125.101 Y90.135 E20.29394
G1 X125.918 Y87.595 E20.38269
G1 X126.649 Y85.08 E20.4698
G1 X127.311 Y82.536 E20.55723
G1 X127.904 Y79.968 E20.64489
G1 X128.443 Y77.278 E20.73614
G1 X128.555 Y76.679 E20.75641
G1 X128.727 Y75.973 E20.78057
G1 X128.976 Y75.291 E20.80472
G1 X129.299 Y74.64 E20.82889
G0 F3600 X129.679 Y74.78
G1 F1800 X130.066 Y74.192 E20.85231
G1 X130.639 Y73.526 E20.88153
G1 X130.748 Y73.416 E20.88668
G1 X131.271 Y72.945 E20.91009
G1 X131.844 Y72.536 E20.9335
G1 X132.46 Y72.195 E20.95692
G1 X133.111 Y71.926 E20.98035
G1 X133.787 Y71.732 E21.00374
G1 X134.482 Y71.616 E21.02717
G1 X135.034 Y71.581 E21.04557
G1 X135.978 Y71.563 E21.07697
G1 X161.142 Y71.562 E21.91393
G1 X161.932 Y71.573 E21.94021
G1 X162.635 Y71.623 E21.96365
G1 X163.327 Y71.752 E21.98706
G1 X163.999 Y71.959 E22.01045
G1 X164.645 Y72.241 E22.03389
G1 X165.254 Y72.594 E22.05731
G1 X165.819 Y73.014 E22.08072
G1 X166.332 Y73.495 E22.10411
G1 X166.717 Y73.934 E22.12353
G1 X167.137 Y74.499 E22.14695
G1 X167.491 Y75.107 E22.17035
G1 X167.773 Y75.752 E22.19376
G1 X168.049 Y76.735 E22.22772
G1 X168.555 Y79.35 E22.31631
G1 X169.143 Y81.982 E22.40601
G1 X169.783 Y84.509 E22.49271
G1 X170.505 Y87.056 E22.58076
G1 X171.305 Y89.606 E22.66965
G1 X172.17 Y92.109 E22.75773
G1 X173.102 Y94.58 E22.84557
G1 X173.197 Y94.816 E22.85403
G1 X173.471 Y95.525 E22.87931
G1 X173.742 Y96.424 E22.91054
G1 X173.856 Y97.119 E22.93397
G1 X173.897 Y97.9 E22.95998
G1 X173.9 Y98.092 E22.96637
G1 X173.899 Y104.13 E23.16719
G1 X173.888 Y104.855 E23.19131
G1 X173.838 Y105.557 E23.21471
G1 X173.708 Y106.249 E23.23813
G1 X173.509 Y106.899 E23.26074
G1 X173.153 Y107.868 E23.29508
G1 X172.273 Y110.365 E23.38313
G1 X171.458 Y112.901 E23.47173
G1 X170.714 Y115.464 E23.5605
G1 X170.05 Y118.024 E23.64846
G1 X169.461 Y120.584 E23.73583
G1 X168.927 Y123.252 E23.82633
G1 X168.488 Y125.819 E23.91295
G1 X168.117 Y128.429 E24.00063
G1 X167.813 Y131.114 E24.0905
G1 X167.769 Y131.631 E24.10776
G1 X167.663 Y132.706 E24.14369
G1 X167.554 Y133.402 E24.16712
G1 X167.367 Y134.081 E24.19054
G1 X167.105 Y134.734 E24.21394
G1 X166.77 Y135.353 E24.23735
G1 X166.367 Y135.93 E24.26076
G1 X166.022 Y136.336 E24.27848
G1 X165.526 Y136.836 E24.30191
G1 X164.977 Y137.276 E24.32531
G1 X164.382 Y137.652 E24.34872
G1 X163.747 Y137.957 E24.37215
G1 X163.083 Y138.189 E24.39554
G1 X162.396 Y138.344 E24.41897
G1 X161.587 Y138.424 E24.44601
G1 X160.897 Y138.438 E24.46896
G1 X136.236 Y138.437 E25.28919
G1 X135.534 Y138.427 E25.31254
G1 X134.831 Y138.377 E25.33598
G1 X134.139 Y138.248 E25.35939
G1 X133.467 Y138.041 E25.38278
G1 X132.821 Y137.759 E25.40622
G1 X132.212 Y137.406 E25.42964
G1 X131.647 Y136.986 E25.45305
G1 X131.219 Y136.593 E25.47238
G1 X131.106 Y136.479 E25.47772
G1 X130.639 Y135.951 E25.50116
G1 X130.236 Y135.375 E25.52454
G1 X129.9 Y134.756 E25.54797
G1 X129.637 Y134.103 E25.57138
G1 X129.449 Y133.424 E25.59482
G1 X129.335 Y132.684 E25.61972
G1 X129.244 Y131.698 E25.65265
G1 X128.957 Y129.019 E25.74227
G1 X128.601 Y126.387 E25.8306
G1 X128.17 Y123.771 E25.91879
G1 X127.665 Y121.161 E26.0072
G1 X127.088 Y118.577 E26.09526
G1 X126.445 Y116.033 E26.18254
G1 X125.716 Y113.461 E26.27145
G1 X124.915 Y110.914 E26.36026
G1 X124.043 Y108.39 E26.44908
G1 X123.604 Y107.217 E26.49073
G1 X123.454 Y106.79 E26.50579
G1 X123.26 Y106.113 E26.52921
G1 X123.145 Y105.419 E26.55261
G1 X123.102 Y104.606 E26.57968
G1 X123.1 Y104.432 E26.58547
G1 X123.101 Y98.373 E26.787
G1 X123.112 Y97.666 E26.81051
G1 X123.163 Y96.963 E26.83396
G1 X123.293 Y96.272 E26.85734
G1 X123.558 Y95.45 E26.88607
G1 X123.621 Y95.293 E26.89169
G1 X124.605 Y92.739 E26.98273
G1 X125.483 Y90.253 E27.07042
G1 X126.297 Y87.724 E27.15878
G1 X127.037 Y85.178 E27.24697
G1 X127.702 Y82.621 E27.33484
G1 X128.293 Y80.064 E27.42213
G1 X128.833 Y77.366 E27.51365
G1 X128.948 Y76.752 E27.53442
G1 X129.117 Y76.069 E27.55782
G1 X129.361 Y75.409 E27.58123
G1 X129.679 Y74.78 E27.60467
G0 F3600 X135.234 Y77.962
;TYPE:SUPPORT
G1 F1800 X161.766 Y77.962 E28.48713
G1 X161.766 Y96.862 E29.11574
G1 X135.233 Y96.862 E29.99824
G1 X135.235 Y82.024 E30.49175
G1 X135.234 Y77.962 E30.62685
G0 F3600 X136 Y78.122
G1 F1800 X136 Y96.702 E31.24483
G0 F3600 X135.394 Y96
G1 F1800 X161.606 Y96 E32.11664
G0 F3600 X160 Y96.702
G1 F1800 X160 Y78.122 E32.73461
G0 F3600 X161.606 Y80
G1 F1800 X135.394 Y80 E33.60643
G0 F3600 X135.395 Y84
G1 F1800 X161.606 Y84 E34.47821
G0 F3600 X161.606 Y88
G1 F1800 X135.395 Y88 E35.34999
G0 F3600 X135.394 Y92
G1 F1800 X161.606 Y92 E36.22181
G0 F3600 X156 Y96.702
G1 F1800 X156 Y78.122 E36.83978
G0 F3600 X152 Y78.122
G1 F1800 X152 Y96.702 E37.45775
G0 F3600 X148 Y96.702
G1 F1800 X148 Y78.122 E38.07573
G0 F3600 X144 Y78.122
G1 F1800 X144 Y96.702 E38.6937
G0 F3600 X140 Y96.702
G1 F1800 X140 Y78.122 E39.31167
G1 F1500 E32.81167
G0 F3600 X128.639 Y97.605
G0 X128.639 Y104.919
G0 X135.657 Y105.423
G0 X143.1 Y100.762
G1 F1500 E39.31167
