;FLAVOR:Marlin
;TIME:6444
;Filament used: 5.58042m
;Layer height: 0.2
;MINX:68.1
;MINY:73.557
;MINZ:0.2
;MAXX:228.9
;MAXY:136.593
;MAXZ:31
;Generated with Cura_SteamEngine 4.7.0
M104 S205
M105
M109 S205
M82 ;absolute extrusion mode
; -- START GCODE --
M800        ; Custom GCODE to fire start print procedure
; -- end of START GCODE --
G92 E0
G92 E0
G1 F1500 E-6.5
;LAYER_COUNT:155
;LAYER:0
M107
G0 F3600 X71.081 Y83.774 Z0.2
;TYPE:SKIRT
G1 F1500 E0
G1 F1800 X73.196 Y82.091 E0.0899
G1 X75.201 Y80.401 E0.17712
G1 X76.631 Y79.134 E0.24066
G1 X77.183 Y78.634 E0.26543
G1 X77.779 Y78.148 E0.29101
G1 X78.217 Y77.85 E0.30863
G1 X78.894 Y77.452 E0.33475
G1 X79.583 Y77.11 E0.36033
G1 X80.303 Y76.841 E0.3859
G1 X81.048 Y76.649 E0.41149
G1 X81.447 Y76.579 E0.42496
G1 X82.303 Y76.501 E0.45355
G1 X82.935 Y76.488 E0.47457
G1 X112.093 Y76.49 E1.44437
G1 X112.797 Y76.5 E1.46779
G1 X113.565 Y76.551 E1.49339
G1 X114.323 Y76.681 E1.51897
G1 X114.866 Y76.826 E1.53766
G1 X115.229 Y76.938 E1.5503
G1 X117.894 Y77.796 E1.64342
G1 X120.398 Y78.523 E1.73014
G1 X122.924 Y79.181 E1.81696
G1 X125.501 Y79.774 E1.90491
G1 X128.072 Y80.289 E1.99212
G1 X130.654 Y80.731 E2.07925
G1 X133.226 Y81.098 E2.16566
G1 X135.856 Y81.397 E2.2537
G1 X138.44 Y81.617 E2.33995
G1 X141.058 Y81.765 E2.42716
G1 X143.694 Y81.839 E2.51487
G1 X145.042 Y81.849 E2.55971
G1 X148.478 Y81.849 E2.67399
G1 X151.133 Y81.811 E2.76231
G1 X153.753 Y81.7 E2.84952
G1 X156.339 Y81.517 E2.93575
G1 X158.976 Y81.255 E3.02389
G1 X161.565 Y80.924 E3.1107
G1 X164.156 Y80.517 E3.19793
G1 X166.724 Y80.04 E3.28481
G1 X169.321 Y79.481 E3.37316
G1 X171.819 Y78.867 E3.45872
G1 X174.367 Y78.166 E3.54661
G1 X174.83 Y78.024 E3.56272
G1 X176.026 Y77.675 E3.60416
G1 X176.775 Y77.498 E3.62976
G1 X177.873 Y77.382 E3.66648
G1 X178.427 Y77.369 E3.68491
G1 X180.496 Y77.37 E3.75373
G1 X181.193 Y77.38 E3.77691
G1 X181.607 Y77.397 E3.79069
G1 X182.633 Y77.47 E3.8249
G1 X183.647 Y77.556 E3.85875
G1 X186.285 Y77.702 E3.94663
G1 X188.876 Y77.774 E4.03284
G1 X191.498 Y77.772 E4.12004
G1 X194.133 Y77.696 E4.20772
G1 X195.238 Y77.64 E4.24452
G1 X195.782 Y77.622 E4.26262
G1 X196.018 Y77.618 E4.27048
G1 X202.701 Y77.619 E4.49275
G1 X203.402 Y77.629 E4.51607
G1 X204.169 Y77.68 E4.54164
G1 X204.625 Y77.748 E4.55697
G1 X205.293 Y77.9 E4.57976
G1 X206.148 Y78.136 E4.60926
G1 X206.544 Y78.257 E4.62303
G1 X207.519 Y78.586 E4.65726
G1 X210.055 Y79.401 E4.74585
G1 X212.589 Y80.138 E4.83363
G1 X215.119 Y80.797 E4.92058
G1 X217.641 Y81.378 E5.00666
G1 X220.249 Y81.902 E5.09514
G1 X222.485 Y82.286 E5.17059
G1 X222.711 Y82.328 E5.17824
G1 X223.459 Y82.507 E5.20382
G1 X224.184 Y82.764 E5.2294
G1 X224.879 Y83.094 E5.25499
G1 X225.535 Y83.494 E5.28055
G1 X226.147 Y83.961 E5.30615
G1 X226.611 Y84.39 E5.32717
G1 X226.742 Y84.522 E5.33336
G1 X227.255 Y85.096 E5.35896
G1 X227.706 Y85.719 E5.38454
G1 X228.089 Y86.386 E5.41012
G1 X228.401 Y87.089 E5.43571
G1 X228.638 Y87.821 E5.4613
G1 X228.798 Y88.573 E5.48687
G1 X228.885 Y89.455 E5.51635
G1 X228.899 Y90.195 E5.54096
G1 X228.9 Y100.35 E5.87872
G1 X228.894 Y102.204 E5.94038
G1 X228.9 Y102.927 E5.96443
G1 X228.9 Y107.223 E6.10732
G1 X228.894 Y108.852 E6.1615
G1 X228.9 Y109.586 E6.18591
G1 X228.899 Y119.66 E6.52097
G1 X228.889 Y120.387 E6.54516
G1 X228.839 Y121.154 E6.57072
G1 X228.709 Y121.912 E6.5963
G1 X228.501 Y122.653 E6.6219
G1 X228.217 Y123.368 E6.64749
G1 X227.861 Y124.049 E6.67305
G1 X227.436 Y124.69 E6.69863
G1 X226.946 Y125.284 E6.72424
G1 X226.309 Y125.901 E6.75373
G1 X226.175 Y126.016 E6.75961
G1 X225.566 Y126.485 E6.78517
G1 X224.912 Y126.89 E6.81076
G1 X224.219 Y127.224 E6.83634
G1 X223.495 Y127.484 E6.86193
G1 X222.749 Y127.668 E6.88749
G1 X222.04 Y127.768 E6.9113
G1 X221.343 Y127.833 E6.93458
G1 X218.659 Y128.12 E7.02436
G1 X216.064 Y128.472 E7.11146
G1 X213.495 Y128.894 E7.19805
G1 X210.263 Y129.537 E7.30766
G1 X209.974 Y129.592 E7.31744
G1 X209.212 Y129.696 E7.34302
G1 X208.707 Y129.721 E7.35984
G1 X207.762 Y129.735 E7.39127
G1 X204.106 Y129.734 E7.51287
G1 X203.383 Y129.723 E7.53692
G1 X202.655 Y129.683 E7.56117
G1 X200.004 Y129.533 E7.64948
G1 X197.385 Y129.459 E7.73663
G1 X194.763 Y129.459 E7.82384
G1 X192.133 Y129.533 E7.91134
G1 X189.556 Y129.678 E7.99719
G1 X188.696 Y129.726 E8.02584
G1 X187.984 Y129.735 E8.04952
G1 X183.612 Y129.735 E8.19494
G1 X182.953 Y129.725 E8.21686
G1 X181.92 Y129.637 E8.25134
G1 X181.227 Y129.528 E8.27467
G1 X179.655 Y129.26 E8.32771
G1 X177.086 Y128.895 E8.41401
G1 X174.517 Y128.605 E8.5
G1 X171.84 Y128.378 E8.58936
G1 X169.287 Y128.235 E8.67441
G1 X165.32 Y128.152 E8.80638
G1 X145.054 Y128.152 E9.48043
G1 X142.399 Y128.19 E9.56874
G1 X139.782 Y128.301 E9.65586
G1 X137.191 Y128.484 E9.74225
G1 X134.555 Y128.746 E9.83036
G1 X131.967 Y129.077 E9.91714
G1 X129.382 Y129.483 E10.00417
G1 X126.802 Y129.963 E10.09145
G1 X124.275 Y130.506 E10.17742
G1 X121.709 Y131.135 E10.26529
G1 X119.165 Y131.835 E10.35305
G1 X118.538 Y132.026 E10.37485
G1 X117.593 Y132.3 E10.40758
G1 X116.844 Y132.476 E10.43317
G1 X116.081 Y132.573 E10.45875
G1 X115.688 Y132.591 E10.47183
G1 X114.6 Y132.614 E10.50803
G1 X114.444 Y132.616 E10.51322
G1 X85.778 Y132.615 E11.46665
G1 X85.074 Y132.605 E11.49007
G1 X84.306 Y132.554 E11.51567
G1 X83.548 Y132.424 E11.54125
G1 X83.036 Y132.289 E11.55886
G1 X82.742 Y132.196 E11.56912
G1 X82.124 Y131.988 E11.5908
G1 X81.162 Y131.587 E11.62547
G1 X80.474 Y131.233 E11.6512
G1 X77.914 Y129.803 E11.74873
G1 X75.585 Y128.587 E11.83612
G1 X73.156 Y127.406 E11.92595
G1 X72.489 Y127.092 E11.95047
G1 X71.811 Y126.728 E11.97606
G1 X71.175 Y126.296 E12.00164
G1 X70.409 Y125.63 E12.0354
G1 X70.277 Y125.498 E12.04161
G1 X69.763 Y124.926 E12.06718
G1 X69.31 Y124.304 E12.09278
G1 X68.924 Y123.639 E12.11835
G1 X68.609 Y122.937 E12.14394
G1 X68.369 Y122.206 E12.16953
G1 X68.206 Y121.455 E12.19509
G1 X68.115 Y120.546 E12.22548
G1 X68.1 Y119.735 E12.25245
G1 X68.1 Y109.581 E12.59018
G1 X68.105 Y107.937 E12.64486
G1 X68.1 Y107.238 E12.66811
G1 X68.1 Y102.778 E12.81645
G1 X68.106 Y101.149 E12.87063
G1 X68.1 Y100.416 E12.89501
G1 X68.101 Y90.309 E13.23117
G1 X68.111 Y89.627 E13.25386
G1 X68.162 Y88.859 E13.27946
G1 X68.293 Y88.101 E13.30504
G1 X68.501 Y87.361 E13.33061
G1 X68.786 Y86.646 E13.35621
G1 X69.142 Y85.965 E13.38177
G1 X69.568 Y85.324 E13.40736
G1 X70.058 Y84.731 E13.43295
G1 X70.577 Y84.213 E13.45734
G1 X71.081 Y83.774 E13.47957
G0 F3600 X71.33 Y84.087
G1 F1800 X73.437 Y82.411 E13.56911
G1 X75.487 Y80.682 E13.65831
G1 X76.925 Y79.408 E13.72221
G1 X77.452 Y78.931 E13.74585
G1 X78.338 Y78.249 E13.78304
G1 X78.813 Y77.957 E13.80158
G1 X79.09 Y77.801 E13.81216
G1 X79.761 Y77.469 E13.83706
G1 X80.463 Y77.211 E13.86193
G1 X81.487 Y76.977 E13.89687
G1 X81.507 Y76.974 E13.89754
G1 X82.316 Y76.901 E13.92456
G1 X82.938 Y76.888 E13.94525
G1 X112.087 Y76.89 E14.91475
G1 X112.791 Y76.9 E14.93817
G1 X113.538 Y76.95 E14.96307
G1 X114.274 Y77.08 E14.98793
G1 X115.019 Y77.291 E15.01368
G1 X117.763 Y78.174 E15.10956
G1 X120.301 Y78.911 E15.19746
G1 X122.839 Y79.572 E15.28469
G1 X125.397 Y80.161 E15.37199
G1 X128.03 Y80.688 E15.4613
G1 X130.567 Y81.123 E15.54692
G1 X133.196 Y81.498 E15.63524
G1 X135.778 Y81.791 E15.72167
G1 X138.419 Y82.016 E15.80983
G1 X141.058 Y82.165 E15.89774
G1 X143.68 Y82.239 E15.98499
G1 X145.039 Y82.249 E16.03019
G1 X148.484 Y82.249 E16.14477
G1 X151.121 Y82.212 E16.23248
G1 X153.797 Y82.098 E16.32157
G1 X156.37 Y81.916 E16.40736
G1 X159.033 Y81.652 E16.49637
G1 X161.607 Y81.322 E16.58268
G1 X164.219 Y80.912 E16.67062
G1 X166.809 Y80.43 E16.75824
G1 X169.396 Y79.874 E16.84625
G1 X171.949 Y79.246 E16.93369
G1 X174.453 Y78.557 E17.02007
G1 X174.942 Y78.408 E17.03708
G1 X176.138 Y78.059 E17.07851
G1 X176.866 Y77.888 E17.10339
G1 X177.886 Y77.782 E17.13749
G1 X178.427 Y77.769 E17.15549
G1 X180.49 Y77.77 E17.22411
G1 X181.187 Y77.78 E17.24729
G1 X181.579 Y77.796 E17.26034
G1 X182.599 Y77.869 E17.29435
G1 X183.625 Y77.956 E17.3286
G1 X186.252 Y78.102 E17.41611
G1 X188.865 Y78.174 E17.50305
G1 X191.509 Y78.172 E17.59099
G1 X194.166 Y78.095 E17.6794
G1 X195.258 Y78.04 E17.71577
G1 X195.795 Y78.022 E17.73364
G1 X196.018 Y78.018 E17.74106
G1 X202.695 Y78.019 E17.96313
G1 X203.396 Y78.029 E17.98645
G1 X204.142 Y78.079 E18.01132
G1 X204.555 Y78.142 E18.02522
G1 X205.187 Y78.285 E18.04677
G1 X206.042 Y78.521 E18.07627
G1 X206.416 Y78.636 E18.08928
G1 X207.396 Y78.966 E18.12368
G1 X209.969 Y79.794 E18.21358
G1 X212.449 Y80.515 E18.29948
G1 X215.034 Y81.188 E18.38832
G1 X217.544 Y81.766 E18.47399
G1 X220.168 Y82.293 E18.563
G1 X222.412 Y82.679 E18.63874
G1 X222.638 Y82.721 E18.64638
G1 X223.365 Y82.897 E18.67126
G1 X224.069 Y83.149 E18.69613
G1 X224.743 Y83.475 E18.72103
G1 X225.377 Y83.871 E18.74589
G1 X225.966 Y84.333 E18.77079
G1 X226.459 Y84.804 E18.79347
G1 X226.956 Y85.362 E18.81832
G1 X227.392 Y85.971 E18.84323
G1 X227.76 Y86.622 E18.86811
G1 X228.056 Y87.309 E18.89299
G1 X228.278 Y88.023 E18.91786
G1 X228.421 Y88.758 E18.94276
G1 X228.485 Y89.47 E18.96654
G1 X228.499 Y90.2 E18.99082
G1 X228.5 Y100.349 E19.32838
G1 X228.494 Y102.207 E19.39018
G1 X228.5 Y102.93 E19.41423
G1 X228.5 Y107.221 E19.55694
G1 X228.494 Y108.855 E19.61129
G1 X228.5 Y109.589 E19.63571
G1 X228.499 Y119.654 E19.97047
G1 X228.489 Y120.381 E19.99465
G1 X228.439 Y121.128 E20.01955
G1 X228.309 Y121.864 E20.04441
G1 X228.102 Y122.583 E20.0693
G1 X227.819 Y123.276 E20.09419
G1 X227.464 Y123.934 E20.11906
G1 X227.04 Y124.551 E20.14396
G1 X226.553 Y125.118 E20.16882
G1 X226.049 Y125.597 E20.19195
G1 X225.915 Y125.712 E20.19782
G1 X225.322 Y126.168 E20.2227
G1 X224.684 Y126.558 E20.24757
G1 X224.008 Y126.878 E20.27245
G1 X223.301 Y127.124 E20.29734
G1 X222.572 Y127.294 E20.32224
G1 X222.003 Y127.37 E20.34133
G1 X221.261 Y127.439 E20.36612
G1 X218.633 Y127.72 E20.45403
G1 X215.982 Y128.08 E20.54301
G1 X213.442 Y128.497 E20.62862
G1 X210.189 Y129.144 E20.73893
G1 X209.9 Y129.199 E20.74872
G1 X209.158 Y129.299 E20.77362
G1 X208.701 Y129.321 E20.78884
G1 X207.762 Y129.335 E20.82007
G1 X204.113 Y129.334 E20.94144
G1 X203.39 Y129.323 E20.96549
G1 X202.705 Y129.286 E20.9883
G1 X200.004 Y129.133 E21.07828
G1 X197.396 Y129.059 E21.16506
G1 X194.752 Y129.059 E21.253
G1 X192.136 Y129.133 E21.34004
G1 X189.507 Y129.281 E21.42762
G1 X188.691 Y129.326 E21.45481
G1 X187.984 Y129.335 E21.47832
G1 X183.618 Y129.335 E21.62354
G1 X182.959 Y129.325 E21.64546
G1 X181.982 Y129.242 E21.67807
G1 X181.388 Y129.149 E21.69807
G1 X179.742 Y128.868 E21.7536
G1 X177.151 Y128.5 E21.84065
G1 X174.524 Y128.204 E21.92857
G1 X171.897 Y127.981 E22.01626
G1 X169.289 Y127.835 E22.10314
G1 X165.328 Y127.752 E22.23491
G1 X145.048 Y127.752 E22.90943
G1 X142.412 Y127.789 E22.99711
G1 X139.735 Y127.903 E23.08623
G1 X137.159 Y128.086 E23.17212
G1 X134.505 Y128.349 E23.26083
G1 X131.921 Y128.679 E23.34747
G1 X129.312 Y129.089 E23.43531
G1 X126.723 Y129.571 E23.5229
G1 X124.16 Y130.122 E23.61009
G1 X121.621 Y130.744 E23.69704
G1 X119.08 Y131.443 E23.78469
G1 X118.525 Y131.613 E23.804
G1 X117.481 Y131.916 E23.84015
G1 X116.753 Y132.086 E23.86502
G1 X115.68 Y132.191 E23.90088
G1 X114.444 Y132.216 E23.942
G1 X85.784 Y132.215 E24.89523
G1 X85.08 Y132.205 E24.91865
G1 X84.333 Y132.155 E24.94355
G1 X83.597 Y132.025 E24.96841
G1 X83.075 Y131.883 E24.9864
G1 X82.87 Y131.817 E24.99356
G1 X82.252 Y131.609 E25.01525
G1 X81.342 Y131.23 E25.04804
G1 X80.669 Y130.884 E25.07321
G1 X78.088 Y129.442 E25.17154
G1 X75.766 Y128.23 E25.25866
G1 X73.355 Y127.058 E25.34782
G1 X72.659 Y126.73 E25.37341
G1 X72.001 Y126.375 E25.39828
G1 X71.383 Y125.953 E25.42317
G1 X70.692 Y125.347 E25.45374
G1 X70.56 Y125.215 E25.45995
G1 X70.06 Y124.658 E25.48484
G1 X69.623 Y124.052 E25.50969
G1 X69.252 Y123.402 E25.53458
G1 X68.953 Y122.716 E25.55947
G1 X68.729 Y122.002 E25.58436
G1 X68.582 Y121.269 E25.60923
G1 X68.515 Y120.531 E25.63388
G1 X68.5 Y119.732 E25.66045
G1 X68.5 Y109.583 E25.99801
G1 X68.505 Y107.934 E26.05286
G1 X68.5 Y107.235 E26.07611
G1 X68.5 Y102.78 E26.22428
G1 X68.506 Y101.145 E26.27866
G1 X68.5 Y100.412 E26.30304
G1 X68.501 Y90.314 E26.6389
G1 X68.511 Y89.632 E26.66159
G1 X68.562 Y88.886 E26.68646
G1 X68.692 Y88.149 E26.71135
G1 X68.9 Y87.431 E26.73621
G1 X69.184 Y86.739 E26.76109
G1 X69.54 Y86.081 E26.78598
G1 X69.964 Y85.464 E26.81087
G1 X70.675 Y84.673 E26.84625
G1 X70.854 Y84.502 E26.85448
G1 X71.33 Y84.087 E26.87549
G0 F3600 X71.579 Y84.4
G1 F1800 X73.698 Y82.714 E26.96555
G1 X75.727 Y81.004 E27.05381
G1 X77.176 Y79.72 E27.1182
G1 X77.72 Y79.227 E27.14262
G1 X78.556 Y78.584 E27.1777
G1 X79.009 Y78.305 E27.19539
G1 X79.286 Y78.149 E27.20597
G1 X79.938 Y77.828 E27.23014
G1 X80.621 Y77.581 E27.25429
G1 X81.546 Y77.373 E27.28583
G1 X81.566 Y77.37 E27.2865
G1 X82.329 Y77.301 E27.31198
G1 X82.942 Y77.288 E27.33237
G1 X112.082 Y77.29 E28.30158
G1 X112.786 Y77.3 E28.32499
G1 X113.51 Y77.35 E28.34913
G1 X114.225 Y77.48 E28.3733
G1 X114.901 Y77.673 E28.39668
G1 X117.669 Y78.563 E28.49339
G1 X120.193 Y79.296 E28.58081
G1 X122.745 Y79.961 E28.66852
G1 X125.342 Y80.558 E28.75715
G1 X127.923 Y81.075 E28.8447
G1 X130.514 Y81.52 E28.93214
G1 X133.13 Y81.892 E29.02002
G1 X135.767 Y82.192 E29.1083
G1 X138.399 Y82.416 E29.19615
G1 X141.024 Y82.565 E29.2836
G1 X143.666 Y82.639 E29.37151
G1 X145.037 Y82.649 E29.41711
G1 X148.49 Y82.649 E29.53196
G1 X151.143 Y82.611 E29.6202
G1 X153.807 Y82.498 E29.70889
G1 X156.405 Y82.314 E29.79552
G1 X159.048 Y82.052 E29.88385
G1 X161.687 Y81.714 E29.97234
G1 X164.283 Y81.306 E30.05975
G1 X166.895 Y80.821 E30.14811
G1 X169.511 Y80.258 E30.23711
G1 X172.002 Y79.646 E30.32242
G1 X174.603 Y78.93 E30.41215
G1 X175.054 Y78.792 E30.42784
G1 X176.25 Y78.443 E30.46928
G1 X176.958 Y78.278 E30.49345
G1 X177.898 Y78.182 E30.52488
G1 X178.427 Y78.169 E30.54248
G1 X180.485 Y78.17 E30.61093
G1 X181.182 Y78.18 E30.63412
G1 X181.551 Y78.195 E30.6464
G1 X182.565 Y78.267 E30.68021
G1 X183.604 Y78.355 E30.71489
G1 X186.253 Y78.502 E30.80313
G1 X188.854 Y78.574 E30.88967
G1 X191.521 Y78.572 E30.97838
G1 X194.15 Y78.496 E31.06586
G1 X195.278 Y78.439 E31.10342
G1 X195.808 Y78.421 E31.12106
G1 X196.018 Y78.418 E31.12805
G1 X202.689 Y78.419 E31.34992
G1 X203.39 Y78.429 E31.37324
G1 X204.456 Y78.531 E31.40886
G1 X204.484 Y78.536 E31.40981
G1 X205.08 Y78.671 E31.43013
G1 X205.935 Y78.907 E31.45963
G1 X206.288 Y79.015 E31.47191
G1 X207.293 Y79.354 E31.50719
G1 X209.839 Y80.173 E31.59614
G1 X212.365 Y80.907 E31.68363
G1 X214.924 Y81.573 E31.77158
G1 X217.447 Y82.155 E31.8577
G1 X220.093 Y82.686 E31.94746
G1 X222.339 Y83.072 E32.02326
G1 X222.565 Y83.114 E32.0309
G1 X223.271 Y83.286 E32.05507
G1 X223.953 Y83.534 E32.07921
G1 X224.604 Y83.856 E32.10336
G1 X225.216 Y84.248 E32.12753
G1 X226.044 Y84.954 E32.16373
G1 X226.175 Y85.086 E32.16991
G1 X226.657 Y85.629 E32.19406
G1 X227.077 Y86.221 E32.2182
G1 X227.429 Y86.857 E32.24238
G1 X227.71 Y87.527 E32.26654
G1 X227.915 Y88.224 E32.29071
G1 X228.042 Y88.939 E32.31486
G1 X228.085 Y89.485 E32.33308
G1 X228.1 Y90.205 E32.35703
G1 X228.1 Y100.347 E32.69436
G1 X228.094 Y102.21 E32.75632
G1 X228.1 Y102.933 E32.78037
G1 X228.1 Y107.22 E32.92295
G1 X228.094 Y108.858 E32.97743
G1 X228.1 Y109.592 E33.00185
G1 X228.099 Y119.649 E33.33634
G1 X228.089 Y120.376 E33.36053
G1 X228.039 Y121.1 E33.38466
G1 X227.91 Y121.815 E33.40883
G1 X227.703 Y122.511 E33.43298
G1 X227.421 Y123.181 E33.45716
G1 X227.067 Y123.815 E33.48131
G1 X226.645 Y124.406 E33.50546
G1 X226.161 Y124.948 E33.52963
G1 X225.788 Y125.293 E33.54653
G1 X225.654 Y125.408 E33.5524
G1 X225.078 Y125.85 E33.57655
G1 X224.456 Y126.226 E33.60073
G1 X223.797 Y126.532 E33.62489
G1 X223.109 Y126.763 E33.64903
G1 X222.399 Y126.917 E33.67319
G1 X221.966 Y126.972 E33.68771
G1 X221.249 Y127.038 E33.71166
G1 X218.543 Y127.328 E33.80218
G1 X215.965 Y127.678 E33.88871
G1 X213.331 Y128.111 E33.97749
G1 X210.114 Y128.751 E34.08659
G1 X209.825 Y128.806 E34.09637
G1 X209.105 Y128.902 E34.12053
G1 X208.694 Y128.921 E34.13422
G1 X207.762 Y128.935 E34.16522
G1 X204.119 Y128.934 E34.28638
G1 X203.396 Y128.923 E34.31043
G1 X202.678 Y128.883 E34.33435
G1 X200.038 Y128.733 E34.4223
G1 X197.407 Y128.659 E34.50984
G1 X194.741 Y128.659 E34.59851
