;FLAVOR:Marlin
;TIME:13884
;Filament used: 16.4786m
;Layer height: 0.2
;MINX:98.1
;MINY:58.6
;MINZ:0.2
;MAXX:198.9
;MAXY:151.4
;MAXZ:23
;Generated with Cura_SteamEngine 4.7.0
M104 S205
M105
M109 S205
M82 ;absolute extrusion mode
; -- START GCODE --
M800        ; Custom GCODE to fire start print procedure
; -- end of START GCODE --
G92 E0
G92 E0
G1 F1500 E-6.5
;LAYER_COUNT:115
;LAYER:0
M107
G0 F3600 X99.672 Y63.546 Z0.2
;TYPE:SKIRT
G1 F1500 E0
G1 F1800 X99.92 Y63.156 E0.01537
G1 X100.372 Y62.533 E0.04097
G1 X100.954 Y61.877 E0.07014
G1 X101.269 Y61.551 E0.08522
G1 X101.836 Y61.032 E0.11078
G1 X102.559 Y60.492 E0.1408
G1 X102.89 Y60.264 E0.15417
G1 X103.55 Y59.868 E0.17977
G1 X104.007 Y59.645 E0.19668
G1 X104.607 Y59.38 E0.21849
G1 X104.759 Y59.317 E0.22397
G1 X105.484 Y59.06 E0.24955
G1 X106.327 Y58.852 E0.27843
G1 X106.737 Y58.77 E0.29234
G1 X107.574 Y58.663 E0.3204
G1 X108.138 Y58.623 E0.33921
G1 X108.996 Y58.6 E0.36776
G1 X187.97 Y58.6 E2.99444
G1 X188.127 Y58.602 E2.99966
G1 X188.786 Y58.616 E3.02159
G1 X189.631 Y58.682 E3.04978
G1 X190.276 Y58.774 E3.07145
G1 X190.454 Y58.804 E3.07745
G1 X191.205 Y58.971 E3.10304
G1 X192.082 Y59.262 E3.13377
G1 X192.473 Y59.409 E3.14767
G1 X193.175 Y59.724 E3.17326
G1 X193.954 Y60.172 E3.20315
G1 X194.329 Y60.409 E3.2179
G1 X194.952 Y60.859 E3.24346
G1 X195.596 Y61.427 E3.27202
G1 X195.95 Y61.769 E3.28839
G1 X196.469 Y62.337 E3.31398
G1 X197.006 Y63.056 E3.34383
G1 X197.236 Y63.391 E3.35735
G1 X197.632 Y64.05 E3.38292
G1 X197.855 Y64.507 E3.39983
G1 X198.12 Y65.107 E3.42165
G1 X198.183 Y65.259 E3.42712
G1 X198.44 Y65.984 E3.4527
G1 X198.648 Y66.827 E3.48158
G1 X198.73 Y67.237 E3.49549
G1 X198.837 Y68.074 E3.52355
G1 X198.877 Y68.637 E3.54233
G1 X198.9 Y69.496 E3.57091
G1 X198.9 Y140.514 E5.93298
G1 X198.898 Y140.682 E5.93856
G1 X198.884 Y141.297 E5.95902
G1 X198.82 Y142.117 E5.98638
G1 X198.731 Y142.747 E6.00754
G1 X198.699 Y142.939 E6.01402
G1 X198.534 Y143.69 E6.03959
G1 X198.38 Y144.18 E6.05667
G1 X198.158 Y144.8 E6.07858
G1 X198.091 Y144.973 E6.08475
G1 X197.776 Y145.675 E6.11034
G1 X197.53 Y146.117 E6.12716
G1 X197.213 Y146.638 E6.14745
G1 X197.1 Y146.814 E6.1544
G1 X196.651 Y147.439 E6.18
G1 X196.073 Y148.096 E6.20911
G1 X195.731 Y148.45 E6.22548
G1 X195.163 Y148.969 E6.25107
G1 X194.444 Y149.506 E6.28091
G1 X194.1 Y149.742 E6.29479
G1 X193.44 Y150.137 E6.32037
G1 X192.587 Y150.537 E6.35171
G1 X192.241 Y150.683 E6.3642
G1 X191.516 Y150.94 E6.38978
G1 X190.673 Y151.148 E6.41866
G1 X190.195 Y151.243 E6.43487
G1 X189.182 Y151.363 E6.4688
G1 X188.688 Y151.383 E6.48524
G1 X187.527 Y151.4 E6.52386
G1 X109.206 Y151.4 E9.12883
G1 X108.402 Y151.389 E9.15557
G1 X107.753 Y151.355 E9.17719
G1 X107.092 Y151.286 E9.19929
G1 X106.333 Y151.16 E9.22488
G1 X105.817 Y151.027 E9.24261
G1 X105.22 Y150.846 E9.26335
G1 X105.048 Y150.79 E9.26937
G1 X104.33 Y150.515 E9.29494
G1 X103.848 Y150.279 E9.31279
G1 X103.303 Y149.984 E9.33341
G1 X103.125 Y149.882 E9.34023
G1 X102.478 Y149.465 E9.36583
G1 X102.061 Y149.141 E9.38339
G1 X101.592 Y148.747 E9.40377
G1 X101.458 Y148.629 E9.40971
G1 X100.908 Y148.091 E9.4353
G1 X100.567 Y147.693 E9.45273
G1 X100.185 Y147.211 E9.47318
G1 X100.071 Y147.06 E9.47948
G1 X99.64 Y146.423 E9.50506
G1 X99.385 Y145.964 E9.52252
G1 X99.087 Y145.373 E9.54453
G1 X99.016 Y145.223 E9.55005
G1 X98.724 Y144.512 E9.57562
G1 X98.571 Y144.024 E9.59263
G1 X98.403 Y143.401 E9.61409
G1 X98.366 Y143.25 E9.61926
G1 X98.185 Y142.173 E9.65558
G1 X98.125 Y141.453 E9.67961
G1 X98.104 Y140.907 E9.69779
G1 X98.1 Y140.533 E9.71023
G1 X98.1 Y69.465 E12.07396
G1 X98.102 Y69.291 E12.07975
G1 X98.116 Y68.696 E12.09954
G1 X98.181 Y67.88 E12.12677
G1 X98.269 Y67.253 E12.14783
G1 X98.301 Y67.061 E12.1543
G1 X98.466 Y66.31 E12.17988
G1 X98.62 Y65.82 E12.19696
G1 X98.842 Y65.2 E12.21886
G1 X98.909 Y65.027 E12.22503
G1 X99.224 Y64.325 E12.25062
G1 X99.672 Y63.546 E12.28051
G0 F3600 X100.015 Y63.752
G1 F1800 X100.256 Y63.374 E12.29542
G1 X100.696 Y62.769 E12.3203
G1 X101.249 Y62.148 E12.34796
G1 X101.554 Y61.832 E12.36257
G1 X102.106 Y61.328 E12.38743
G1 X102.793 Y60.817 E12.41591
G1 X103.114 Y60.596 E12.42887
G1 X103.756 Y60.212 E12.45375
G1 X104.584 Y59.825 E12.48415
G1 X104.912 Y59.686 E12.496
G1 X105.617 Y59.437 E12.52087
G1 X106.415 Y59.242 E12.54819
G1 X106.811 Y59.163 E12.56162
G1 X107.603 Y59.062 E12.58817
G1 X108.167 Y59.022 E12.60698
G1 X109 Y59 E12.6347
G1 X187.97 Y59 E15.26125
G1 X188.778 Y59.016 E15.28813
G1 X189.577 Y59.078 E15.31478
G1 X190.209 Y59.168 E15.33602
G1 X190.387 Y59.198 E15.34202
G1 X191.117 Y59.362 E15.3669
G1 X191.949 Y59.639 E15.39607
G1 X192.329 Y59.782 E15.40957
G1 X193.011 Y60.089 E15.43445
G1 X193.748 Y60.515 E15.46276
G1 X194.112 Y60.745 E15.47708
G1 X194.718 Y61.184 E15.50197
G1 X195.326 Y61.723 E15.529
G1 X195.669 Y62.054 E15.54485
G1 X196.173 Y62.607 E15.56974
G1 X196.681 Y63.29 E15.59805
G1 X196.904 Y63.615 E15.61116
G1 X197.289 Y64.256 E15.63603
G1 X197.675 Y65.084 E15.66641
G1 X197.814 Y65.412 E15.67826
G1 X198.063 Y66.117 E15.70313
G1 X198.258 Y66.915 E15.73045
G1 X198.337 Y67.311 E15.74388
G1 X198.438 Y68.102 E15.7704
G1 X198.478 Y68.665 E15.78918
G1 X198.5 Y69.5 E15.81696
G1 X198.5 Y140.514 E18.17889
G1 X198.498 Y140.673 E18.18418
G1 X198.484 Y141.288 E18.20464
G1 X198.423 Y142.063 E18.2305
G1 X198.337 Y142.681 E18.25125
G1 X198.305 Y142.873 E18.25773
G1 X198.143 Y143.603 E18.2826
G1 X197.859 Y144.453 E18.3124
G1 X197.718 Y144.829 E18.32576
G1 X197.411 Y145.511 E18.35064
G1 X196.984 Y146.249 E18.37899
G1 X196.763 Y146.598 E18.39273
G1 X196.326 Y147.205 E18.41761
G1 X195.777 Y147.826 E18.44518
G1 X195.446 Y148.169 E18.46103
G1 X194.893 Y148.673 E18.48592
G1 X194.21 Y149.181 E18.51423
G1 X193.877 Y149.41 E18.52767
G1 X193.235 Y149.793 E18.55254
G1 X192.423 Y150.172 E18.58234
G1 X192.088 Y150.314 E18.59444
G1 X191.383 Y150.563 E18.61931
G1 X190.585 Y150.758 E18.64663
G1 X190.12 Y150.85 E18.6624
G1 X189.163 Y150.964 E18.69445
G1 X188.682 Y150.983 E18.71046
G1 X187.527 Y151 E18.74888
G1 X109.206 Y151 E21.35385
G1 X108.408 Y150.989 E21.38039
G1 X107.782 Y150.956 E21.40124
G1 X107.137 Y150.889 E21.42281
G1 X106.399 Y150.765 E21.4477
G1 X105.517 Y150.52 E21.47815
G1 X105.172 Y150.41 E21.49019
G1 X104.474 Y150.141 E21.51507
G1 X103.68 Y149.735 E21.54473
G1 X103.324 Y149.534 E21.55833
G1 X102.695 Y149.128 E21.58323
G1 X101.997 Y148.566 E21.61304
G1 X101.723 Y148.328 E21.62511
G1 X101.189 Y147.805 E21.64997
G1 X100.622 Y147.121 E21.67952
G1 X100.39 Y146.819 E21.69218
G1 X99.972 Y146.198 E21.71708
G1 X99.541 Y145.388 E21.7476
G1 X99.378 Y145.052 E21.76002
G1 X99.095 Y144.36 E21.78489
G1 X98.842 Y143.501 E21.81467
G1 X98.754 Y143.155 E21.82654
G1 X98.583 Y142.136 E21.86091
G1 X98.525 Y141.434 E21.88434
G1 X98.504 Y140.903 E21.90201
G1 X98.5 Y140.529 E21.91445
G1 X98.5 Y69.465 E24.27805
G1 X98.502 Y69.3 E24.28354
G1 X98.516 Y68.705 E24.30334
G1 X98.577 Y67.933 E24.32909
G1 X98.663 Y67.319 E24.34971
G1 X98.695 Y67.127 E24.35619
G1 X98.857 Y66.397 E24.38106
G1 X99.141 Y65.547 E24.41087
G1 X99.282 Y65.171 E24.42422
G1 X99.589 Y64.489 E24.4491
G1 X100.015 Y63.752 E24.47741
G0 F3600 X100.358 Y63.958
G1 F1800 X100.591 Y63.591 E24.49187
G1 X101.019 Y63.005 E24.516
G1 X101.543 Y62.418 E24.54218
G1 X101.839 Y62.113 E24.55631
G1 X102.376 Y61.624 E24.58047
G1 X103.027 Y61.141 E24.60743
G1 X103.338 Y60.928 E24.61997
G1 X103.961 Y60.556 E24.6441
G1 X104.747 Y60.19 E24.67294
G1 X105.065 Y60.056 E24.68442
G1 X105.75 Y59.815 E24.70857
G1 X106.503 Y59.633 E24.73433
G1 X106.885 Y59.557 E24.74729
G1 X107.631 Y59.461 E24.7723
G1 X108.195 Y59.421 E24.79111
G1 X109.004 Y59.4 E24.81803
G1 X187.97 Y59.4 E27.44445
G1 X188.11 Y59.401 E27.4491
G1 X188.769 Y59.415 E27.47103
G1 X189.523 Y59.475 E27.49618
G1 X190.143 Y59.563 E27.51701
G1 X190.321 Y59.593 E27.52302
G1 X191.029 Y59.753 E27.54716
G1 X191.817 Y60.016 E27.57479
G1 X192.185 Y60.155 E27.58787
G1 X192.846 Y60.455 E27.61202
G1 X193.542 Y60.858 E27.63876
G1 X193.895 Y61.082 E27.65267
G1 X194.482 Y61.508 E27.67679
G1 X195.056 Y62.018 E27.70233
G1 X195.388 Y62.338 E27.71767
G1 X195.876 Y62.876 E27.74183
G1 X196.357 Y63.524 E27.76867
G1 X196.573 Y63.838 E27.78134
G1 X196.945 Y64.462 E27.80551
G1 X197.31 Y65.247 E27.8343
G1 X197.444 Y65.565 E27.84578
G1 X197.685 Y66.25 E27.86993
G1 X197.867 Y67.003 E27.8957
G1 X197.943 Y67.385 E27.90865
G1 X198.039 Y68.13 E27.93363
G1 X198.079 Y68.693 E27.95241
G1 X198.1 Y69.504 E27.97939
G1 X198.1 Y140.514 E30.34119
G1 X198.098 Y140.664 E30.34618
G1 X198.084 Y141.279 E30.36664
G1 X198.027 Y142.01 E30.39103
G1 X197.942 Y142.615 E30.41135
G1 X197.91 Y142.807 E30.41782
G1 X197.752 Y143.516 E30.44198
G1 X197.482 Y144.321 E30.47022
G1 X197.345 Y144.685 E30.48316
G1 X197.045 Y145.346 E30.5073
G1 X196.641 Y146.043 E30.5341
G1 X196.427 Y146.382 E30.54743
G1 X196.001 Y146.971 E30.57161
G1 X195.482 Y147.556 E30.59762
G1 X195.162 Y147.888 E30.61296
G1 X194.624 Y148.376 E30.63711
G1 X193.976 Y148.857 E30.66395
G1 X193.654 Y149.077 E30.67693
G1 X193.03 Y149.449 E30.70109
G1 X192.259 Y149.807 E30.72936
G1 X191.935 Y149.944 E30.74106
G1 X191.25 Y150.185 E30.76521
G1 X190.497 Y150.367 E30.79098
G1 X190.046 Y150.457 E30.80628
G1 X189.143 Y150.564 E30.83652
G1 X188.676 Y150.583 E30.85206
G1 X187.527 Y150.6 E30.89029
G1 X109.206 Y150.6 E33.49525
G1 X108.413 Y150.589 E33.52163
G1 X107.81 Y150.557 E33.54171
G1 X107.182 Y150.491 E33.56272
G1 X106.466 Y150.37 E33.58687
G1 X105.631 Y150.137 E33.6157
G1 X105.296 Y150.03 E33.6274
G1 X104.618 Y149.767 E33.65159
G1 X103.869 Y149.382 E33.6796
G1 X103.523 Y149.187 E33.69281
G1 X102.913 Y148.792 E33.71698
G1 X102.253 Y148.259 E33.74519
G1 X101.987 Y148.028 E33.75691
G1 X101.469 Y147.519 E33.78106
G1 X100.934 Y146.871 E33.80901
G1 X100.71 Y146.578 E33.82128
G1 X100.304 Y145.975 E33.84546
G1 X99.897 Y145.206 E33.8744
G1 X99.74 Y144.881 E33.8864
G1 X99.465 Y144.208 E33.91058
G1 X99.228 Y143.395 E33.93875
G1 X99.143 Y143.06 E33.95024
G1 X98.981 Y142.099 E33.98266
G1 X98.924 Y141.415 E34.00549
G1 X98.904 Y140.899 E34.02266
G1 X98.9 Y140.525 E34.0351
G1 X98.9 Y69.465 E36.39857
G1 X98.902 Y69.31 E36.40372
G1 X98.916 Y68.715 E36.42352
G1 X98.973 Y67.987 E36.44781
G1 X99.058 Y67.385 E36.46803
G1 X99.09 Y67.193 E36.4745
G1 X99.248 Y66.484 E36.49866
G1 X99.518 Y65.679 E36.5269
G1 X99.655 Y65.315 E36.53984
G1 X99.955 Y64.654 E36.56398
G1 X100.358 Y63.958 E36.59073
G0 F3600 X100.701 Y64.164
G1 F1800 X100.927 Y63.809 E36.60473
G1 X101.559 Y62.993 E36.63906
G1 X101.99 Y62.53 E36.66009
G1 X102.124 Y62.394 E36.66644
G1 X102.913 Y61.717 E36.70102
G1 X103.423 Y61.353 E36.72186
G1 X103.561 Y61.26 E36.7274
G1 X104.166 Y60.9 E36.75081
G1 X104.911 Y60.555 E36.77812
G1 X105.218 Y60.425 E36.78921
G1 X105.883 Y60.193 E36.81263
G1 X106.591 Y60.023 E36.83685
G1 X106.958 Y59.95 E36.8493
G1 X107.659 Y59.86 E36.8728
G1 X108.223 Y59.82 E36.89161
G1 X109.008 Y59.8 E36.91773
G1 X187.97 Y59.8 E39.54401
G1 X188.102 Y59.801 E39.5484
G1 X188.761 Y59.815 E39.57033
G1 X189.469 Y59.871 E39.59395
G1 X190.076 Y59.957 E39.61434
G1 X190.254 Y59.987 E39.62034
G1 X190.941 Y60.143 E39.64378
G1 X191.684 Y60.394 E39.66986
G1 X192.04 Y60.528 E39.68251
G1 X192.681 Y60.82 E39.70594
G1 X193.336 Y61.201 E39.73114
G1 X193.678 Y61.418 E39.74461
G1 X194.498 Y62.049 E39.77903
G1 X194.959 Y62.477 E39.79995
G1 X195.107 Y62.623 E39.80686
G1 X195.781 Y63.41 E39.84133
G1 X196.146 Y63.921 E39.86221
G1 X196.241 Y64.062 E39.86787
G1 X196.6 Y64.667 E39.89127
G1 X196.945 Y65.411 E39.91854
G1 X197.075 Y65.718 E39.92963
G1 X197.307 Y66.383 E39.95306
G1 X197.477 Y67.091 E39.97727
G1 X197.55 Y67.458 E39.98972
G1 X197.64 Y68.159 E40.01323
G1 X197.68 Y68.722 E40.032
G1 X197.7 Y69.508 E40.05815
G1 X197.7 Y140.514 E42.41982
G1 X197.684 Y141.27 E42.44497
G1 X197.631 Y141.956 E42.46785
G1 X197.548 Y142.549 E42.48777
G1 X197.516 Y142.741 E42.49424
G1 X197.361 Y143.428 E42.51767
G1 X197.105 Y144.188 E42.54434
G1 X196.972 Y144.54 E42.55686
G1 X196.68 Y145.181 E42.58028
G1 X196.298 Y145.837 E42.60553
G1 X196.09 Y146.166 E42.61848
G1 X195.451 Y146.998 E42.65337
G1 X195.023 Y147.459 E42.67429
G1 X194.877 Y147.607 E42.68121
G1 X194.09 Y148.281 E42.71567
G1 X193.571 Y148.651 E42.73687
G1 X193.431 Y148.745 E42.74248
G1 X192.511 Y149.256 E42.77748
G1 X191.934 Y149.512 E42.79848
G1 X191.782 Y149.575 E42.80395
G1 X191.117 Y149.807 E42.82737
G1 X190.409 Y149.977 E42.85159
G1 X189.972 Y150.064 E42.86641
G1 X189.124 Y150.165 E42.89482
G1 X188.67 Y150.183 E42.90993
G1 X187.527 Y150.2 E42.94795
G1 X109.206 Y150.2 E45.55292
G1 X108.419 Y150.189 E45.57909
G1 X107.839 Y150.158 E45.59841
G1 X107.227 Y150.094 E45.61888
G1 X106.533 Y149.975 E45.6423
G1 X105.745 Y149.753 E45.66953
G1 X105.42 Y149.649 E45.68088
G1 X104.764 Y149.394 E45.70429
G1 X104.057 Y149.03 E45.73073
G1 X103.721 Y148.84 E45.74357
G1 X103.131 Y148.456 E45.76699
G1 X102.509 Y147.952 E45.79361
G1 X102.252 Y147.728 E45.80495
G1 X101.75 Y147.234 E45.82838
G1 X101.247 Y146.621 E45.85475
G1 X101.029 Y146.337 E45.86666
G1 X100.637 Y145.752 E45.89008
G1 X100.253 Y145.024 E45.91746
G1 X100.101 Y144.71 E45.92906
G1 X99.836 Y144.057 E45.9525
G1 X99.613 Y143.288 E45.97913
G1 X99.531 Y142.965 E45.99021
G1 X99.38 Y142.062 E46.02066
G1 X99.324 Y141.396 E46.04289
G1 X99.304 Y140.894 E46.0596
G1 X99.3 Y140.52 E46.07204
G1 X99.3 Y69.465 E48.43534
G1 X99.302 Y69.319 E48.4402
G1 X99.316 Y68.724 E48.45999
G1 X99.37 Y68.041 E48.48278
G1 X99.452 Y67.451 E48.50259
G1 X99.484 Y67.259 E48.50907
G1 X99.639 Y66.572 E48.53249
G1 X99.895 Y65.812 E48.55916
G1 X100.028 Y65.46 E48.57168
G1 X100.32 Y64.819 E48.59511
G1 X100.701 Y64.164 E48.62031
G0 F3600 X107.885 Y68.682
;TYPE:SUPPORT
G1 F1800 X107.991 Y68.532 E48.62642
G1 X108.145 Y68.407 E48.63302
G1 X108.311 Y68.334 E48.63905
G1 X108.561 Y68.3 E48.64744
G1 X188.46 Y68.3 E51.30489
G1 X188.628 Y68.317 E51.31051
G1 X188.818 Y68.385 E51.31722
G1 X188.968 Y68.491 E51.32333
G1 X189.093 Y68.645 E51.32992
G1 X189.166 Y68.811 E51.33596
G1 X189.2 Y69.061 E51.34435
G1 X189.2 Y140.96 E53.73572
G1 X189.183 Y141.128 E53.74133
G1 X189.115 Y141.318 E53.74805
G1 X189.009 Y141.468 E53.75416
G1 X188.855 Y141.593 E53.76075
G1 X188.689 Y141.666 E53.76678
G1 X188.439 Y141.7 E53.77518
G1 X108.54 Y141.7 E56.43263
G1 X108.372 Y141.683 E56.43824
G1 X108.182 Y141.615 E56.44496
G1 X108.032 Y141.509 E56.45106
G1 X107.907 Y141.355 E56.45766
G1 X107.834 Y141.189 E56.46369
G1 X107.8 Y140.939 E56.47208
G1 X107.8 Y69.04 E58.86345
G1 X107.817 Y68.872 E58.86907
G1 X107.885 Y68.682 E58.87578
G0 F3600 X108 Y68.835
G1 F1800 X108 Y141.168 E61.28159
G0 F3600 X107.959 Y140
G1 F1800 X189.04 Y140 E63.97835
G0 F3600 X188 Y141.54
G1 F1800 X188 Y68.46 E66.409
G0 F3600 X189.04 Y72
G1 F1800 X107.96 Y72 E69.10574
G0 F3600 X107.96 Y76
G1 F1800 X189.04 Y76 E71.80247
G0 F3600 X189.04 Y80
G1 F1800 X107.96 Y80 E74.4992
G0 F3600 X107.96 Y84
G1 F1800 X189.04 Y84 E77.19593
G0 F3600 X189.04 Y88
G1 F1800 X107.96 Y88 E79.89266
G0 F3600 X107.96 Y92
G1 F1800 X189.04 Y92 E82.58939
G0 F3600 X189.04 Y96
G1 F1800 X107.96 Y96 E85.28613
G0 F3600 X107.96 Y100
G1 F1800 X189.04 Y100 E87.98286
G0 F3600 X189.04 Y104
G1 F1800 X107.96 Y104 E90.67959
G0 F3600 X107.96 Y108
G1 F1800 X189.04 Y108 E93.37632
G0 F3600 X189.04 Y112
G1 F1800 X107.96 Y112 E96.07305
G0 F3600 X107.96 Y116
G1 F1800 X189.04 Y116 E98.76978
G0 F3600 X189.04 Y120
G1 F1800 X107.959 Y120 E101.46655
G0 F3600 X107.959 Y124
G1 F1800 X189.04 Y124 E104.16331
G0 F3600 X189.04 Y128
G1 F1800 X107.959 Y128 E106.86008
G0 F3600 X107.959 Y132
G1 F1800 X189.04 Y132 E109.55684
G0 F3600 X189.04 Y136
G1 F1800 X107.959 Y136 E112.25361
G0 F3600 X112 Y141.54
G1 F1800 X112 Y68.46 E114.68426
G0 F3600 X116 Y68.46
G1 F1800 X116 Y141.54 E117.11491
G0 F3600 X120 Y141.54
G1 F1800 X120 Y68.46 E119.54556
G0 F3600 X124 Y68.46
G1 F1800 X124 Y141.54 E121.97621
G0 F3600 X128 Y141.54
G1 F1800 X128 Y68.46 E124.40686
G0 F3600 X132 Y68.46
G1 F1800 X132 Y141.54 E126.83751
G0 F3600 X136 Y141.54
G1 F1800 X136 Y68.46 E129.26816
G0 F3600 X140 Y68.46
G1 F1800 X140 Y141.54 E131.69882
G0 F3600 X144 Y141.54
G1 F1800 X144 Y68.46 E134.12947
G0 F3600 X148 Y68.46
G1 F1800 X148 Y141.54 E136.56012
G0 F3600 X152 Y141.54
