;FLAVOR:Marlin
;TIME:948
;Filament used: 0.921827m
;Layer height: 0.2
;MINX:108.904
;MINY:65.403
;MINZ:0.2
;MAXX:188.097
;MAXY:144.597
;MAXZ:7
;Generated with Cura_SteamEngine 4.7.0
M104 S205
M105
M109 S205
M82 ;absolute extrusion mode
; -- START GCODE --
M800        ; Custom GCODE to fire start print procedure
; -- end of START GCODE --
G92 E0
G92 E0
G1 F1500 E-6.5
;LAYER_COUNT:35
;LAYER:0
M107
G0 F3600 X116.336 Y81.906 Z0.2
;TYPE:SKIRT
G1 F1500 E0
G1 F1800 X116.704 Y81.402 E0.02076
G1 X116.796 Y81.279 E0.02586
G1 X117.376 Y80.521 E0.05761
G1 X117.777 Y80.02 E0.07895
G1 X118.223 Y79.483 E0.10217
G1 X118.764 Y78.854 E0.12977
G1 X118.869 Y78.734 E0.13507
G1 X119.219 Y78.345 E0.15247
G1 X119.84 Y77.679 E0.18276
G1 X119.954 Y77.559 E0.18826
G1 X120.411 Y77.092 E0.21
G1 X120.936 Y76.573 E0.23455
G1 X121.036 Y76.476 E0.23918
G1 X121.43 Y76.101 E0.25728
G1 X121.553 Y75.987 E0.26285
G1 X122.084 Y75.504 E0.28673
G1 X122.187 Y75.412 E0.29132
G1 X122.639 Y75.016 E0.31131
G1 X122.752 Y74.919 E0.31626
G1 X123.382 Y74.39 E0.34362
G1 X123.87 Y73.996 E0.36448
G1 X124.471 Y73.528 E0.38982
G1 X124.6 Y73.43 E0.39521
G1 X125.227 Y72.965 E0.42117
G1 X125.759 Y72.585 E0.44291
G1 X125.89 Y72.494 E0.44822
G1 X126.428 Y72.127 E0.46988
G1 X127.072 Y71.703 E0.49553
G1 X127.211 Y71.613 E0.50103
G1 X127.726 Y71.291 E0.52124
G1 X128.482 Y70.837 E0.55057
G1 X129.019 Y70.527 E0.57119
G1 X129.15 Y70.453 E0.57619
G1 X129.83 Y70.081 E0.60197
G1 X130.491 Y69.736 E0.62677
G1 X130.614 Y69.673 E0.63137
G1 X131.188 Y69.388 E0.65268
G1 X131.333 Y69.318 E0.65804
G1 X131.895 Y69.054 E0.67869
G1 X132.655 Y68.713 E0.7064
G1 X133.289 Y68.442 E0.72933
G1 X133.433 Y68.382 E0.73452
G1 X134.129 Y68.103 E0.75946
G1 X134.828 Y67.838 E0.78432
G1 X134.973 Y67.785 E0.78946
G1 X135.496 Y67.6 E0.80791
G1 X135.627 Y67.555 E0.81251
G1 X136.336 Y67.319 E0.83737
G1 X136.486 Y67.271 E0.84261
G1 X137.171 Y67.06 E0.86645
G1 X137.834 Y66.868 E0.8894
G1 X137.98 Y66.827 E0.89445
G1 X138.552 Y66.674 E0.91414
G1 X138.693 Y66.638 E0.91898
G1 X139.415 Y66.46 E0.94371
G1 X140.02 Y66.321 E0.96436
G1 X140.188 Y66.284 E0.97008
G1 X140.897 Y66.139 E0.99415
G1 X141.061 Y66.107 E0.99971
G1 X141.729 Y65.986 E1.02229
G1 X142.406 Y65.875 E1.04511
G1 X142.551 Y65.853 E1.04998
G1 X143.187 Y65.762 E1.07135
G1 X143.338 Y65.742 E1.07642
G1 X144.059 Y65.654 E1.10058
G1 X144.211 Y65.637 E1.10566
G1 X144.911 Y65.567 E1.12906
G1 X145.52 Y65.516 E1.14939
G1 X145.674 Y65.505 E1.15452
G1 X146.326 Y65.464 E1.17625
G1 X146.477 Y65.456 E1.18128
G1 X147.209 Y65.425 E1.20565
G1 X147.364 Y65.42 E1.21081
G1 X148.103 Y65.405 E1.23539
G1 X148.641 Y65.403 E1.25329
G1 X148.8 Y65.404 E1.25857
G1 X149.536 Y65.417 E1.28306
G1 X149.682 Y65.421 E1.28792
G1 X150.322 Y65.445 E1.30922
G1 X151.059 Y65.487 E1.33377
G1 X151.195 Y65.496 E1.3383
G1 X151.898 Y65.55 E1.36175
G1 X152.047 Y65.563 E1.36673
G1 X152.767 Y65.634 E1.39079
G1 X153.425 Y65.711 E1.41283
G1 X153.576 Y65.73 E1.41789
G1 X154.272 Y65.826 E1.44126
G1 X155.02 Y65.944 E1.46644
G1 X155.174 Y65.97 E1.47164
G1 X155.886 Y66.099 E1.4957
G1 X156.516 Y66.224 E1.51707
G1 X157.329 Y66.401 E1.54474
G1 X157.477 Y66.435 E1.54979
G1 X158.296 Y66.633 E1.57782
G1 X158.898 Y66.793 E1.59853
G1 X159.719 Y67.026 E1.62692
G1 X160.336 Y67.214 E1.64837
G1 X160.458 Y67.252 E1.65262
G1 X161.084 Y67.456 E1.67452
G1 X161.229 Y67.505 E1.67961
G1 X161.894 Y67.737 E1.70304
G1 X162.044 Y67.791 E1.70834
G1 X162.665 Y68.024 E1.7304
G1 X163.395 Y68.312 E1.7565
G1 X164.072 Y68.595 E1.78091
G1 X164.196 Y68.648 E1.78539
G1 X164.878 Y68.95 E1.8102
G1 X165.503 Y69.24 E1.83311
G1 X166.239 Y69.6 E1.86037
G1 X166.361 Y69.661 E1.8649
G1 X166.9 Y69.938 E1.88506
G1 X167.031 Y70.007 E1.88998
G1 X167.576 Y70.301 E1.91058
G1 X167.71 Y70.375 E1.91567
G1 X168.312 Y70.716 E1.93868
G1 X168.45 Y70.796 E1.94399
G1 X168.949 Y71.093 E1.9633
G1 X169.651 Y71.527 E1.99075
G1 X169.778 Y71.607 E1.99574
G1 X170.331 Y71.965 E2.01765
G1 X170.464 Y72.053 E2.02296
G1 X171.037 Y72.443 E2.04601
G1 X171.581 Y72.827 E2.06816
G1 X172.262 Y73.327 E2.09626
G1 X172.381 Y73.416 E2.1012
G1 X172.88 Y73.799 E2.12212
G1 X173.474 Y74.273 E2.1474
G1 X173.579 Y74.358 E2.15189
G1 X174.058 Y74.756 E2.17261
G1 X174.176 Y74.856 E2.17775
G1 X174.694 Y75.305 E2.20055
G1 X174.812 Y75.41 E2.2058
G1 X175.434 Y75.974 E2.23373
G1 X175.842 Y76.358 E2.25237
G1 X176.45 Y76.953 E2.28066
G1 X176.987 Y77.499 E2.30613
G1 X177.089 Y77.605 E2.31102
G1 X177.579 Y78.125 E2.33479
G1 X178.049 Y78.641 E2.358
G1 X178.16 Y78.766 E2.36356
G1 X178.628 Y79.305 E2.3873
G1 X179.081 Y79.846 E2.41077
G1 X179.182 Y79.97 E2.41609
G1 X179.627 Y80.526 E2.43978
G1 X180.027 Y81.042 E2.46149
G1 X180.617 Y81.84 E2.4945
G1 X180.967 Y82.332 E2.51458
G1 X181.375 Y82.929 E2.53863
G1 X181.464 Y83.063 E2.54398
G1 X181.882 Y83.706 E2.56949
G1 X181.959 Y83.827 E2.57426
G1 X182.309 Y84.391 E2.59634
G1 X182.692 Y85.032 E2.62118
G1 X182.773 Y85.17 E2.6265
G1 X183.135 Y85.809 E2.65092
G1 X183.42 Y86.333 E2.67076
G1 X183.826 Y87.112 E2.69998
G1 X183.897 Y87.253 E2.70523
G1 X184.205 Y87.879 E2.72844
G1 X184.497 Y88.502 E2.75132
G1 X184.562 Y88.645 E2.75655
G1 X184.815 Y89.216 E2.77732
G1 X185.17 Y90.061 E2.8078
G1 X185.4 Y90.636 E2.8284
G1 X185.461 Y90.795 E2.83406
G1 X185.741 Y91.548 E2.86078
G1 X185.938 Y92.107 E2.8805
G1 X185.986 Y92.247 E2.88542
G1 X186.198 Y92.889 E2.90791
G1 X186.446 Y93.69 E2.9358
G1 X186.485 Y93.821 E2.94034
G1 X186.654 Y94.408 E2.96066
G1 X186.697 Y94.564 E2.96604
G1 X186.897 Y95.325 E2.99221
G1 X187.085 Y96.105 E3.0189
G1 X187.195 Y96.597 E3.03567
G1 X187.39 Y97.556 E3.06821
G1 X187.419 Y97.705 E3.07326
G1 X187.518 Y98.252 E3.09175
G1 X187.632 Y98.953 E3.11537
G1 X187.655 Y99.103 E3.12042
G1 X187.765 Y99.889 E3.14682
G1 X187.853 Y100.616 E3.17117
G1 X187.868 Y100.751 E3.17569
G1 X187.93 Y101.366 E3.19625
G1 X187.994 Y102.154 E3.22255
G1 X188.004 Y102.297 E3.22731
G1 X188.05 Y103.056 E3.25261
G1 X188.061 Y103.286 E3.26026
G1 X188.089 Y104.236 E3.29187
G1 X188.097 Y104.926 E3.31483
G1 X188.09 Y105.719 E3.3412
G1 X188.064 Y106.593 E3.37028
G1 X188.059 Y106.733 E3.37494
G1 X188.033 Y107.253 E3.39226
G1 X187.979 Y108.045 E3.41866
G1 X187.967 Y108.197 E3.42373
G1 X187.889 Y109.057 E3.45246
G1 X187.832 Y109.575 E3.46979
G1 X187.692 Y110.645 E3.50568
G1 X187.617 Y111.147 E3.52256
G1 X187.591 Y111.309 E3.52802
G1 X187.438 Y112.193 E3.55786
G1 X187.321 Y112.796 E3.57829
G1 X187.121 Y113.73 E3.61006
G1 X186.992 Y114.287 E3.62907
G1 X186.954 Y114.442 E3.63438
G1 X186.762 Y115.193 E3.66016
G1 X186.593 Y115.806 E3.68131
G1 X186.551 Y115.953 E3.6864
G1 X186.345 Y116.644 E3.71038
G1 X186.127 Y117.33 E3.73432
G1 X186.084 Y117.461 E3.73891
G1 X185.884 Y118.05 E3.7596
G1 X185.832 Y118.199 E3.76484
G1 X185.599 Y118.84 E3.78753
G1 X185.327 Y119.548 E3.81275
G1 X185.269 Y119.695 E3.81801
G1 X185.042 Y120.248 E3.83789
G1 X184.697 Y121.049 E3.8669
G1 X184.631 Y121.199 E3.87235
G1 X184.358 Y121.795 E3.89415
G1 X184.093 Y122.35 E3.91461
G1 X184.027 Y122.484 E3.91958
G1 X183.688 Y123.156 E3.94461
G1 X183.615 Y123.297 E3.94989
G1 X183.207 Y124.062 E3.97873
G1 X182.91 Y124.593 E3.99897
G1 X182.561 Y125.192 E4.02202
G1 X182.485 Y125.32 E4.02697
G1 X182.102 Y125.948 E4.05144
G1 X182.019 Y126.081 E4.05665
G1 X181.668 Y126.628 E4.07827
G1 X181.274 Y127.221 E4.10195
G1 X180.822 Y127.873 E4.12834
G1 X180.737 Y127.993 E4.13323
G1 X180.289 Y128.609 E4.15856
G1 X179.912 Y129.109 E4.17939
G1 X179.814 Y129.236 E4.18473
G1 X179.415 Y129.742 E4.20616
G1 X179.324 Y129.855 E4.21098
G1 X178.875 Y130.402 E4.23452
G1 X178.773 Y130.524 E4.23981
G1 X178.43 Y130.924 E4.25734
G1 X177.869 Y131.557 E4.28547
G1 X177.77 Y131.667 E4.29039
G1 X177.341 Y132.131 E4.31141
G1 X176.761 Y132.735 E4.33926
G1 X176.642 Y132.856 E4.3449
G1 X176.124 Y133.369 E4.36915
G1 X175.744 Y133.734 E4.38668
G1 X175.638 Y133.834 E4.39152
G1 X175.065 Y134.363 E4.41746
G1 X174.94 Y134.475 E4.42304
G1 X174.346 Y134.998 E4.44937
G1 X173.872 Y135.399 E4.47002
G1 X173.23 Y135.923 E4.49758
G1 X172.682 Y136.354 E4.52077
G1 X172.562 Y136.446 E4.5258
G1 X171.939 Y136.913 E4.55169
G1 X171.303 Y137.371 E4.57776
G1 X170.701 Y137.787 E4.6021
G1 X170.122 Y138.171 E4.62521
G1 X170.018 Y138.239 E4.62934
G1 X169.437 Y138.609 E4.65225
G1 X169.295 Y138.697 E4.65781
G1 X168.624 Y139.102 E4.68387
G1 X168.06 Y139.429 E4.70556
G1 X167.297 Y139.85 E4.73454
G1 X166.736 Y140.147 E4.75565
G1 X166.597 Y140.219 E4.76086
G1 X165.996 Y140.521 E4.78323
G1 X165.857 Y140.589 E4.78838
G1 X165.236 Y140.885 E4.81126
G1 X164.556 Y141.195 E4.83612
G1 X164.415 Y141.257 E4.84124
G1 X163.748 Y141.542 E4.86536
G1 X163.079 Y141.814 E4.88938
G1 X162.204 Y142.15 E4.92056
G1 X161.544 Y142.386 E4.94387
G1 X160.819 Y142.632 E4.96934
G1 X160.207 Y142.827 E4.9907
G1 X160.063 Y142.871 E4.99571
G1 X159.284 Y143.1 E5.02271
G1 X158.567 Y143.295 E5.04743
G1 X157.803 Y143.488 E5.07364
G1 X157.644 Y143.526 E5.07907
G1 X157.116 Y143.647 E5.09709
G1 X156.102 Y143.86 E5.13155
G1 X155.598 Y143.955 E5.14861
G1 X154.696 Y144.108 E5.17904
G1 X154.546 Y144.132 E5.18409
G1 X154.037 Y144.207 E5.2012
G1 X153.161 Y144.321 E5.23059
G1 X153.005 Y144.34 E5.23581
G1 X152.447 Y144.4 E5.25448
G1 X152.291 Y144.415 E5.25969
G1 X151.559 Y144.478 E5.28413
G1 X150.886 Y144.524 E5.30656
G1 X150.746 Y144.532 E5.31123
G1 X150.043 Y144.566 E5.33464
G1 X149.887 Y144.572 E5.33983
G1 X149.12 Y144.592 E5.36535
G1 X148.497 Y144.597 E5.38607
G1 X147.75 Y144.589 E5.41092
G1 X147.586 Y144.586 E5.41637
G1 X146.817 Y144.56 E5.44196
G1 X146.677 Y144.554 E5.44662
G1 X145.96 Y144.515 E5.47051
G1 X145.391 Y144.475 E5.48948
G1 X145.224 Y144.461 E5.49505
G1 X144.483 Y144.392 E5.51981
G1 X144.331 Y144.376 E5.52489
G1 X143.658 Y144.299 E5.54742
G1 X142.96 Y144.207 E5.57084
G1 X142.221 Y144.095 E5.5957
G1 X142.066 Y144.07 E5.60092
G1 X141.372 Y143.949 E5.62435
G1 X140.698 Y143.82 E5.64717
G1 X140.547 Y143.79 E5.65229
G1 X139.861 Y143.643 E5.67563
G1 X139.702 Y143.607 E5.68105
G1 X139.121 Y143.469 E5.70091
G1 X138.262 Y143.249 E5.7304
G1 X138.116 Y143.21 E5.73543
G1 X137.452 Y143.024 E5.75836
G1 X136.88 Y142.853 E5.77822
G1 X136.738 Y142.809 E5.78317
G1 X135.975 Y142.564 E5.80982
G1 X135.398 Y142.366 E5.83011
G1 X135.276 Y142.323 E5.83441
G1 X134.505 Y142.041 E5.86172
G1 X133.924 Y141.817 E5.88243
G1 X133.773 Y141.757 E5.88783
G1 X133.083 Y141.472 E5.91266
G1 X132.428 Y141.188 E5.93641
G1 X132.281 Y141.122 E5.94177
G1 X131.641 Y140.827 E5.9652
G1 X131.512 Y140.766 E5.96995
G1 X130.808 Y140.424 E5.99598
G1 X130.347 Y140.19 E6.01318
G1 X130.214 Y140.121 E6.01816
G1 X129.492 Y139.736 E6.04538
G1 X128.94 Y139.429 E6.06638
G1 X128.165 Y138.976 E6.09624
G1 X128.037 Y138.899 E6.10121
G1 X127.522 Y138.583 E6.12131
G1 X127.393 Y138.502 E6.12637
G1 X126.755 Y138.091 E6.15161
G1 X126.18 Y137.706 E6.17463
G1 X125.572 Y137.283 E6.19926
G1 X125.446 Y137.193 E6.20441
G1 X124.783 Y136.708 E6.23174
G1 X124.199 Y136.263 E6.25616
G1 X123.667 Y135.841 E6.27874
G1 X123.071 Y135.351 E6.3044
G1 X122.953 Y135.252 E6.30953
G1 X122.45 Y134.82 E6.33158
G1 X122.337 Y134.721 E6.33658
G1 X121.792 Y134.232 E6.36093
G1 X121.24 Y133.718 E6.38602
G1 X120.796 Y133.291 E6.40651
G1 X120.685 Y133.181 E6.4117
G1 X120.111 Y132.603 E6.4388
G1 X119.67 Y132.142 E6.46002
G1 X119.581 Y132.047 E6.46435
G1 X119.076 Y131.497 E6.48918
G1 X118.971 Y131.38 E6.49441
G1 X118.576 Y130.931 E6.5143
G1 X118.476 Y130.815 E6.51939
G1 X118.039 Y130.297 E6.54193
G1 X117.615 Y129.778 E6.56422
G1 X117.516 Y129.654 E6.5695
G1 X117.031 Y129.032 E6.59574
G1 X116.608 Y128.468 E6.61918
G1 X116.153 Y127.838 E6.64503
G1 X116.057 Y127.702 E6.65057
G1 X115.674 Y127.144 E6.67308
G1 X115.24 Y126.487 E6.69927
G1 X115.155 Y126.355 E6.70449
G1 X114.864 Y125.892 E6.72268
G1 X114.788 Y125.768 E6.72751
G1 X114.329 Y125.003 E6.75719
G1 X114.056 Y124.53 E6.77535
G1 X113.982 Y124.399 E6.78036
G1 X113.621 Y123.743 E6.80526
G1 X113.551 Y123.613 E6.81017
G1 X113.247 Y123.031 E6.83201
G1 X112.9 Y122.335 E6.85788
G1 X112.54 Y121.576 E6.88582
G1 X112.259 Y120.954 E6.90852
G1 X112.194 Y120.806 E6.91389
G1 X111.959 Y120.254 E6.93385
G1 X111.657 Y119.507 E6.96065
G1 X111.602 Y119.367 E6.96565
G1 X111.335 Y118.661 E6.99075
G1 X111.122 Y118.066 E7.01177
G1 X111.074 Y117.927 E7.01667
G1 X110.835 Y117.215 E7.04164
G1 X110.787 Y117.068 E7.04679
G1 X110.636 Y116.585 E7.06362
G1 X110.593 Y116.443 E7.06855
G1 X110.372 Y115.683 E7.09488
G1 X110.221 Y115.13 E7.11395
G1 X109.989 Y114.204 E7.1457
G1 X109.95 Y114.04 E7.1513
G1 X109.796 Y113.352 E7.17475
G1 X109.66 Y112.702 E7.19684
G1 X109.628 Y112.542 E7.20227
G1 X109.514 Y111.93 E7.22297
G1 X109.487 Y111.778 E7.22811
G1 X109.388 Y111.177 E7.24837
G1 X109.271 Y110.379 E7.27519
G1 X109.251 Y110.23 E7.28019
G1 X109.151 Y109.42 E7.30734
G1 X109.086 Y108.793 E7.3283
G1 X109.018 Y108.007 E7.35454
G1 X108.967 Y107.241 E7.38008
G1 X108.958 Y107.085 E7.38527
G1 X108.923 Y106.261 E7.4127
G1 X108.909 Y105.7 E7.43137
G1 X108.907 Y105.549 E7.43639
G1 X108.904 Y104.896 E7.45811
G1 X108.905 Y104.745 E7.46313
G1 X108.917 Y103.987 E7.48835
G1 X108.937 Y103.391 E7.50818
G1 X108.943 Y103.249 E7.51291
G1 X108.986 Y102.462 E7.53912
G1 X109.038 Y101.753 E7.56277
G1 X109.05 Y101.605 E7.56771
G1 X109.133 Y100.741 E7.59658
G1 X109.21 Y100.077 E7.61881
G1 X109.314 Y99.316 E7.64435
G1 X109.334 Y99.179 E7.64896
G1 X109.424 Y98.601 E7.66842
G1 X109.557 Y97.835 E7.69427
G1 X109.587 Y97.676 E7.69966
G1 X109.743 Y96.892 E7.72624
G1 X109.892 Y96.207 E7.74956
G1 X110.033 Y95.609 E7.76999
G1 X110.07 Y95.461 E7.77507
G1 X110.28 Y94.653 E7.80283
G1 X110.321 Y94.502 E7.80804
G1 X110.501 Y93.867 E7.82999
G1 X110.702 Y93.202 E7.8531
G1 X110.985 Y92.33 E7.88359
G1 X111.202 Y91.705 E7.90559
G1 X111.475 Y90.963 E7.93189
G1 X111.527 Y90.826 E7.93676
G1 X111.753 Y90.249 E7.95738
G1 X111.808 Y90.112 E7.96229
G1 X112.013 Y89.618 E7.98007
G1 X112.071 Y89.482 E7.98499
G1 X112.414 Y88.7 E8.01339
G1 X112.687 Y88.11 E8.03502
G1 X113.045 Y87.371 E8.06233
G1 X113.114 Y87.232 E8.06749
G1 X113.454 Y86.569 E8.09227
G1 X113.754 Y86.008 E8.11343
G1 X114.146 Y85.312 E8.14
G1 X114.212 Y85.197 E8.14441
G1 X114.576 Y84.579 E8.16826
G1 X114.657 Y84.445 E8.17347
G1 X114.974 Y83.932 E8.19353
G1 X115.381 Y83.298 E8.21859
G1 X115.457 Y83.182 E8.2232
G1 X115.814 Y82.65 E8.24451
G1 X115.912 Y82.507 E8.25027
G1 X116.336 Y81.906 E8.27474
G0 F3600 X116.663 Y82.137
G1 F1800 X117.027 Y81.638 E8.29528
G1 X117.114 Y81.521 E8.30013
G1 X117.689 Y80.77 E8.33159
G1 X118.085 Y80.276 E8.35265
G1 X118.613 Y79.642 E8.38009
G1 X119.067 Y79.115 E8.40322
G1 X119.166 Y79.002 E8.40822
G1 X119.602 Y78.519 E8.42986
G1 X120.132 Y77.951 E8.4557
G1 X120.24 Y77.838 E8.4609
G1 X120.603 Y77.466 E8.47819
G1 X121.217 Y76.858 E8.50693
G1 X121.706 Y76.391 E8.52942
G1 X121.822 Y76.283 E8.53469
G1 X122.45 Y75.713 E8.5629
G1 X122.902 Y75.317 E8.58288
G1 X123.009 Y75.225 E8.58758
G1 X123.525 Y74.791 E8.61
G1 X124.221 Y74.229 E8.63976
G1 X124.716 Y73.844 E8.66061
G1 X124.839 Y73.751 E8.66574
G1 X125.459 Y73.291 E8.69142
G1 X125.991 Y72.911 E8.71316
G1 X126.115 Y72.824 E8.7182
G1 X126.653 Y72.457 E8.73986
G1 X127.291 Y72.037 E8.76527
G1 X127.938 Y71.631 E8.79067
G1 X128.688 Y71.18 E8.81978
G1 X129.218 Y70.874 E8.84014
G1 X129.342 Y70.804 E8.84487
G1 X130.022 Y70.432 E8.87065
G1 X130.675 Y70.091 E8.89515
G1 X130.792 Y70.031 E8.89953
G1 X131.366 Y69.746 E8.92084
G1 X131.503 Y69.68 E8.9259
G1 X132.065 Y69.416 E8.94655
G1 X132.818 Y69.078 E8.97401
G1 X133.445 Y68.81 E8.99668
G1 X133.581 Y68.754 E9.00158
G1 X134.277 Y68.475 E9.02652
G1 X134.41 Y68.423 E9.03127
G1 X134.969 Y68.212 E9.05114
G1 X135.753 Y67.934 E9.07881
G1 X136.462 Y67.698 E9.10366
G1 X137.16 Y67.481 E9.12797
G1 X137.282 Y67.444 E9.13221
G1 X137.945 Y67.252 E9.15517
G1 X138.655 Y67.061 E9.17962
G1 X139.624 Y66.821 E9.21283
G1 X140.268 Y66.676 E9.23478
G1 X140.977 Y66.531 E9.25885
G1 X141.132 Y66.501 E9.2641
G1 X141.8 Y66.38 E9.28668
G1 X142.471 Y66.27 E9.3093
G1 X142.608 Y66.249 E9.31391
G1 X143.244 Y66.158 E9.33528
G1 X143.387 Y66.139 E9.34007
G1 X144.108 Y66.051 E9.36423
G1 X144.251 Y66.035 E9.36902
G1 X144.945 Y65.965 E9.39222
G1 X145.554 Y65.914 E9.41254
G1 X146.351 Y65.863 E9.43911
G1 X146.494 Y65.855 E9.44387
