;FLAVOR:Marlin
;TIME:10686
;Filament used: 10.3768m
;Layer height: 0.2
;MINX:98.1
;MINY:58.6
;MINZ:0.2
;MAXX:198.9
;MAXY:151.4
;MAXZ:20
;Generated with Cura_SteamEngine 4.7.0
M104 S205
M105
M109 S205
M82 ;absolute extrusion mode
; -- START GCODE --
M800        ; Custom GCODE to fire start print procedure
; -- end of START GCODE --
G92 E0
G92 E0
G1 F1500 E-6.5
;LAYER_COUNT:100
;LAYER:0
M107
G0 F3600 X99.611 Y63.637 Z0.2
;TYPE:SKIRT
G1 F1500 E0
G1 F1800 X100.026 Y62.99 E0.02557
G1 X100.359 Y62.56 E0.04365
G1 X100.73 Y62.119 E0.06282
G1 X100.857 Y61.974 E0.06923
G1 X101.393 Y61.423 E0.0948
G1 X101.803 Y61.07 E0.1128
G1 X102.283 Y60.69 E0.13316
G1 X102.431 Y60.578 E0.13933
G1 X103.067 Y60.147 E0.16488
G1 X103.527 Y59.89 E0.18241
G1 X104.127 Y59.587 E0.20477
G1 X104.277 Y59.516 E0.21029
G1 X104.988 Y59.224 E0.23585
G1 X105.476 Y59.071 E0.25286
G1 X106.099 Y58.903 E0.27432
G1 X106.25 Y58.866 E0.27949
G1 X107.327 Y58.685 E0.31582
G1 X108.047 Y58.625 E0.33985
G1 X108.593 Y58.604 E0.35802
G1 X108.967 Y58.6 E0.37046
G1 X187.782 Y58.6 E2.99186
G1 X188.199 Y58.603 E3.00573
G1 X188.773 Y58.615 E3.02482
G1 X189.612 Y58.68 E3.05281
G1 X190.276 Y58.774 E3.07512
G1 X190.454 Y58.804 E3.08112
G1 X191.205 Y58.971 E3.10671
G1 X192.082 Y59.262 E3.13744
G1 X192.473 Y59.409 E3.15133
G1 X193.175 Y59.724 E3.17693
G1 X193.954 Y60.172 E3.20681
G1 X194.329 Y60.409 E3.22157
G1 X194.952 Y60.859 E3.24713
G1 X195.596 Y61.427 E3.27569
G1 X195.947 Y61.766 E3.29192
G1 X196.466 Y62.334 E3.31751
G1 X197.001 Y63.05 E3.34724
G1 X197.236 Y63.391 E3.36101
G1 X197.632 Y64.05 E3.38659
G1 X197.855 Y64.507 E3.4035
G1 X198.12 Y65.107 E3.42531
G1 X198.183 Y65.259 E3.43079
G1 X198.44 Y65.984 E3.45637
G1 X198.644 Y66.813 E3.48477
G1 X198.724 Y67.206 E3.4981
G1 X198.853 Y68.306 E3.53494
G1 X198.888 Y69.139 E3.56267
G1 X198.9 Y69.846 E3.58619
G1 X198.9 Y140.259 E5.92814
G1 X198.889 Y141.092 E5.95584
G1 X198.857 Y141.724 E5.97689
G1 X198.786 Y142.406 E5.9997
G1 X198.66 Y143.165 E6.02529
G1 X198.528 Y143.677 E6.04287
G1 X198.339 Y144.304 E6.06465
G1 X198.282 Y144.477 E6.07071
G1 X198.004 Y145.194 E6.09629
G1 X197.779 Y145.652 E6.11326
G1 X197.497 Y146.174 E6.133
G1 X197.397 Y146.35 E6.13973
G1 X196.983 Y146.998 E6.1653
G1 X196.646 Y147.433 E6.18361
G1 X196.274 Y147.876 E6.20285
G1 X196.138 Y148.031 E6.2097
G1 X195.602 Y148.582 E6.23527
G1 X195.197 Y148.93 E6.25303
G1 X194.717 Y149.31 E6.27339
G1 X194.569 Y149.422 E6.27957
G1 X193.933 Y149.853 E6.30512
G1 X193.473 Y150.11 E6.32265
G1 X192.856 Y150.421 E6.34563
G1 X192.705 Y150.492 E6.35118
G1 X191.993 Y150.782 E6.37675
G1 X191.112 Y151.042 E6.4073
G1 X190.75 Y151.134 E6.41972
G1 X189.673 Y151.315 E6.45604
G1 X188.953 Y151.375 E6.48007
G1 X188.407 Y151.396 E6.49825
G1 X188.033 Y151.4 E6.51069
G1 X109.218 Y151.4 E9.13209
G1 X108.802 Y151.397 E9.14592
G1 X108.227 Y151.385 E9.16505
G1 X107.385 Y151.32 E9.19314
G1 X106.724 Y151.226 E9.21535
G1 X106.546 Y151.196 E9.22135
G1 X105.795 Y151.029 E9.24694
G1 X104.918 Y150.738 E9.27767
G1 X104.527 Y150.591 E9.29156
G1 X103.825 Y150.276 E9.31716
G1 X103.046 Y149.828 E9.34704
G1 X102.671 Y149.591 E9.3618
G1 X102.048 Y149.141 E9.38736
G1 X101.404 Y148.573 E9.41592
G1 X101.05 Y148.231 E9.43229
G1 X100.531 Y147.663 E9.45788
G1 X99.994 Y146.944 E9.48773
G1 X99.764 Y146.609 E9.50125
G1 X99.368 Y145.95 E9.52682
G1 X99.145 Y145.493 E9.54373
G1 X98.88 Y144.893 E9.56555
G1 X98.817 Y144.741 E9.57102
G1 X98.56 Y144.016 E9.5966
G1 X98.352 Y143.173 E9.62548
G1 X98.259 Y142.705 E9.64135
G1 X98.162 Y142.032 E9.66397
G1 X98.127 Y141.487 E9.68213
G1 X98.102 Y140.52 E9.7143
G1 X98.1 Y140.329 E9.72066
G1 X98.1 Y69.706 E12.06959
G1 X98.111 Y68.903 E12.0963
G1 X98.145 Y68.255 E12.11788
G1 X98.211 Y67.61 E12.13945
G1 X98.336 Y66.851 E12.16503
G1 X98.474 Y66.313 E12.1835
G1 X98.654 Y65.72 E12.20411
G1 X98.71 Y65.548 E12.21013
G1 X98.985 Y64.83 E12.2357
G1 X99.221 Y64.348 E12.25355
G1 X99.51 Y63.814 E12.27375
G1 X99.611 Y63.637 E12.28053
G0 F3600 X99.958 Y63.836
G1 F1800 X100.363 Y63.207 E12.30541
G1 X100.925 Y62.507 E12.33527
G1 X101.158 Y62.238 E12.3471
G1 X101.68 Y61.702 E12.37199
G1 X102.377 Y61.123 E12.40213
G1 X102.672 Y60.897 E12.41449
G1 X103.292 Y60.478 E12.43937
G1 X104.106 Y60.044 E12.47006
G1 X104.448 Y59.878 E12.4827
G1 X105.14 Y59.595 E12.50757
G1 X105.999 Y59.342 E12.53735
G1 X106.345 Y59.254 E12.54922
G1 X107.364 Y59.083 E12.58359
G1 X108.066 Y59.025 E12.60702
G1 X108.597 Y59.004 E12.62469
G1 X108.971 Y59 E12.63713
G1 X187.78 Y59 E15.25833
G1 X188.19 Y59.003 E15.27197
G1 X188.764 Y59.015 E15.29106
G1 X189.558 Y59.076 E15.31755
G1 X190.209 Y59.168 E15.33942
G1 X190.387 Y59.198 E15.34542
G1 X191.117 Y59.362 E15.37031
G1 X191.949 Y59.639 E15.39947
G1 X192.329 Y59.782 E15.41298
G1 X193.011 Y60.089 E15.43785
G1 X193.748 Y60.515 E15.46617
G1 X194.112 Y60.745 E15.48049
G1 X194.718 Y61.184 E15.50537
G1 X195.326 Y61.723 E15.5324
G1 X195.666 Y62.051 E15.54811
G1 X196.17 Y62.604 E15.573
G1 X196.677 Y63.284 E15.60121
G1 X196.904 Y63.615 E15.61456
G1 X197.289 Y64.256 E15.63943
G1 X197.675 Y65.084 E15.66981
G1 X197.814 Y65.412 E15.68166
G1 X198.063 Y66.117 E15.70653
G1 X198.254 Y66.901 E15.73337
G1 X198.332 Y67.282 E15.7463
G1 X198.454 Y68.323 E15.78116
G1 X198.489 Y69.156 E15.80889
G1 X198.5 Y69.85 E15.83198
G1 X198.5 Y140.259 E18.17379
G1 X198.489 Y141.087 E18.20133
G1 X198.458 Y141.696 E18.22162
G1 X198.389 Y142.361 E18.24385
G1 X198.265 Y143.099 E18.26874
G1 X198.023 Y143.976 E18.299
G1 X197.902 Y144.352 E18.31214
G1 X197.631 Y145.048 E18.33698
G1 X197.235 Y145.82 E18.36584
G1 X197.049 Y146.152 E18.3785
G1 X196.645 Y146.782 E18.40339
G1 X196.088 Y147.478 E18.43304
G1 X195.838 Y147.767 E18.44575
G1 X195.315 Y148.302 E18.47063
G1 X194.623 Y148.877 E18.50056
G1 X194.328 Y149.103 E18.51292
G1 X193.708 Y149.522 E18.53781
G1 X192.894 Y149.956 E18.56849
G1 X192.535 Y150.13 E18.58176
G1 X191.842 Y150.411 E18.60663
G1 X191.005 Y150.657 E18.63564
G1 X190.655 Y150.746 E18.64766
G1 X189.636 Y150.917 E18.68202
G1 X188.934 Y150.975 E18.70545
G1 X188.403 Y150.996 E18.72312
G1 X188.029 Y151 E18.73556
G1 X109.22 Y151 E21.35676
G1 X108.81 Y150.997 E21.3704
G1 X108.235 Y150.985 E21.38953
G1 X107.439 Y150.923 E21.41608
G1 X106.791 Y150.832 E21.43785
G1 X106.613 Y150.802 E21.44385
G1 X105.883 Y150.638 E21.46874
G1 X105.051 Y150.361 E21.4979
G1 X104.671 Y150.218 E21.51141
G1 X103.989 Y149.911 E21.53628
G1 X103.252 Y149.485 E21.56459
G1 X102.888 Y149.255 E21.57892
G1 X102.282 Y148.816 E21.6038
G1 X101.674 Y148.277 E21.63083
G1 X101.331 Y147.946 E21.64668
G1 X100.827 Y147.393 E21.67157
G1 X100.319 Y146.71 E21.69988
G1 X100.096 Y146.385 E21.71299
G1 X99.711 Y145.744 E21.73786
G1 X99.325 Y144.916 E21.76824
G1 X99.186 Y144.588 E21.78009
G1 X98.937 Y143.883 E21.80496
G1 X98.742 Y143.085 E21.83228
G1 X98.651 Y142.63 E21.84772
G1 X98.56 Y141.993 E21.86912
G1 X98.527 Y141.477 E21.88632
G1 X98.502 Y140.51 E21.91849
G1 X98.5 Y140.329 E21.92451
G1 X98.5 Y69.706 E24.27344
G1 X98.511 Y68.909 E24.29995
G1 X98.544 Y68.284 E24.32077
G1 X98.609 Y67.654 E24.34183
G1 X98.731 Y66.916 E24.36671
G1 X98.858 Y66.427 E24.38351
G1 X99.034 Y65.844 E24.40377
G1 X99.09 Y65.672 E24.40979
G1 X99.359 Y64.974 E24.43467
G1 X99.765 Y64.18 E24.46433
G1 X99.958 Y63.836 E24.47745
G0 F3600 X100.306 Y64.034
G1 F1800 X100.7 Y63.424 E24.5016
G1 X101.232 Y62.763 E24.52982
G1 X101.459 Y62.501 E24.54135
G1 X101.967 Y61.982 E24.5655
G1 X102.627 Y61.436 E24.59399
G1 X102.913 Y61.216 E24.606
G1 X103.516 Y60.81 E24.63017
G1 X104.288 Y60.4 E24.65925
G1 X104.619 Y60.24 E24.67148
G1 X105.292 Y59.965 E24.69566
G1 X106.105 Y59.728 E24.72382
G1 X106.44 Y59.643 E24.73532
G1 X107.401 Y59.481 E24.76773
G1 X108.085 Y59.424 E24.79056
G1 X108.601 Y59.404 E24.80773
G1 X108.975 Y59.4 E24.82017
G1 X187.779 Y59.4 E27.44121
G1 X188.182 Y59.402 E27.45461
G1 X188.756 Y59.414 E27.47371
G1 X189.504 Y59.473 E27.49866
G1 X190.143 Y59.563 E27.52012
G1 X190.321 Y59.593 E27.52613
G1 X191.029 Y59.753 E27.55027
G1 X191.817 Y60.016 E27.5779
G1 X192.185 Y60.155 E27.59098
G1 X192.846 Y60.455 E27.61513
G1 X193.542 Y60.858 E27.64188
G1 X193.895 Y61.082 E27.65578
G1 X194.482 Y61.508 E27.67991
G1 X195.056 Y62.018 E27.70544
G1 X195.386 Y62.336 E27.72069
G1 X195.874 Y62.874 E27.74485
G1 X196.353 Y63.519 E27.77157
G1 X196.573 Y63.838 E27.78446
G1 X196.945 Y64.462 E27.80862
G1 X197.31 Y65.247 E27.83741
G1 X197.444 Y65.565 E27.84889
G1 X197.685 Y66.25 E27.87304
G1 X197.864 Y66.989 E27.89833
G1 X197.939 Y67.358 E27.91085
G1 X198.054 Y68.34 E27.94374
G1 X198.089 Y69.173 E27.97147
G1 X198.1 Y69.854 E27.99412
G1 X198.1 Y140.259 E30.3358
G1 X198.089 Y141.081 E30.36314
G1 X198.059 Y141.668 E30.38269
G1 X197.991 Y142.316 E30.40437
G1 X197.87 Y143.033 E30.42855
G1 X197.639 Y143.862 E30.45717
G1 X197.523 Y144.226 E30.46988
G1 X197.258 Y144.903 E30.49406
G1 X196.882 Y145.631 E30.52131
G1 X196.701 Y145.954 E30.53363
G1 X196.308 Y146.565 E30.55779
G1 X195.781 Y147.222 E30.5858
G1 X195.537 Y147.503 E30.59818
G1 X195.029 Y148.022 E30.62234
G1 X194.373 Y148.564 E30.65064
G1 X194.087 Y148.784 E30.66264
G1 X193.484 Y149.19 E30.68682
G1 X192.712 Y149.6 E30.71589
G1 X192.364 Y149.768 E30.72874
G1 X191.691 Y150.04 E30.75289
G1 X190.899 Y150.271 E30.78033
G1 X190.56 Y150.357 E30.79196
G1 X189.599 Y150.519 E30.82437
G1 X188.915 Y150.576 E30.8472
G1 X188.399 Y150.596 E30.86438
G1 X188.025 Y150.6 E30.87682
G1 X109.221 Y150.6 E33.49785
G1 X108.818 Y150.598 E33.51125
G1 X108.243 Y150.586 E33.53038
G1 X107.493 Y150.527 E33.5554
G1 X106.857 Y150.437 E33.57677
G1 X106.679 Y150.407 E33.58277
G1 X105.971 Y150.247 E33.60691
G1 X105.183 Y149.984 E33.63454
G1 X104.815 Y149.845 E33.64763
G1 X104.154 Y149.545 E33.67177
G1 X103.458 Y149.142 E33.69852
G1 X103.105 Y148.918 E33.71243
G1 X102.518 Y148.492 E33.73655
G1 X101.944 Y147.982 E33.76209
G1 X101.612 Y147.662 E33.77742
G1 X101.124 Y147.124 E33.80158
G1 X100.643 Y146.476 E33.82842
G1 X100.427 Y146.162 E33.8411
G1 X100.055 Y145.538 E33.86526
G1 X99.69 Y144.753 E33.89406
G1 X99.556 Y144.435 E33.90553
G1 X99.315 Y143.75 E33.92968
G1 X99.133 Y142.997 E33.95545
G1 X99.044 Y142.555 E33.97045
G1 X98.958 Y141.953 E33.99067
G1 X98.927 Y141.467 E34.00687
G1 X98.902 Y140.5 E34.03904
G1 X98.9 Y140.329 E34.04473
G1 X98.9 Y69.706 E36.39366
G1 X98.911 Y68.914 E36.42001
G1 X98.943 Y68.313 E36.44002
G1 X99.006 Y67.698 E36.46059
G1 X99.126 Y66.982 E36.48473
G1 X99.365 Y66.126 E36.51429
G1 X99.47 Y65.796 E36.52581
G1 X99.733 Y65.118 E36.55
G1 X100.118 Y64.369 E36.57801
G1 X100.306 Y64.034 E36.59078
G0 F3600 X100.653 Y64.232
G1 F1800 X101.036 Y63.642 E36.61418
G1 X101.539 Y63.02 E36.64079
G1 X101.76 Y62.765 E36.65201
G1 X102.253 Y62.263 E36.67541
G1 X102.877 Y61.748 E36.70232
G1 X103.155 Y61.535 E36.71397
G1 X103.739 Y61.143 E36.73736
G1 X104.47 Y60.756 E36.76487
G1 X104.79 Y60.601 E36.7767
G1 X105.443 Y60.336 E36.80014
G1 X106.212 Y60.113 E36.82677
G1 X106.535 Y60.031 E36.83785
G1 X107.438 Y59.88 E36.8683
G1 X108.104 Y59.824 E36.89053
G1 X108.606 Y59.804 E36.90724
G1 X108.98 Y59.8 E36.91968
G1 X187.778 Y59.8 E39.54052
G1 X188.174 Y59.802 E39.55369
G1 X188.748 Y59.814 E39.57278
G1 X189.451 Y59.869 E39.59624
G1 X190.076 Y59.957 E39.61723
G1 X190.254 Y59.987 E39.62323
G1 X190.941 Y60.143 E39.64666
G1 X191.684 Y60.394 E39.67275
G1 X192.04 Y60.528 E39.6854
G1 X192.681 Y60.82 E39.70883
G1 X193.336 Y61.201 E39.73403
G1 X193.678 Y61.418 E39.7475
G1 X194.498 Y62.049 E39.78192
G1 X194.959 Y62.477 E39.80284
G1 X195.105 Y62.621 E39.80966
G1 X195.776 Y63.403 E39.84393
G1 X196.146 Y63.921 E39.8651
G1 X196.241 Y64.062 E39.87076
G1 X196.6 Y64.667 E39.89416
G1 X196.945 Y65.411 E39.92143
G1 X197.075 Y65.718 E39.93252
G1 X197.307 Y66.383 E39.95595
G1 X197.474 Y67.077 E39.97969
G1 X197.546 Y67.435 E39.99183
G1 X197.655 Y68.357 E40.02271
G1 X197.69 Y69.19 E40.05044
G1 X197.7 Y69.859 E40.0727
G1 X197.7 Y140.259 E42.41421
G1 X197.689 Y141.076 E42.44139
G1 X197.66 Y141.64 E42.46017
G1 X197.594 Y142.272 E42.4813
G1 X197.475 Y142.966 E42.50472
G1 X197.256 Y143.748 E42.53173
G1 X197.143 Y144.101 E42.54406
G1 X196.885 Y144.756 E42.56748
G1 X196.53 Y145.443 E42.5932
G1 X196.354 Y145.757 E42.60517
G1 X195.972 Y146.348 E42.62857
G1 X195.474 Y146.966 E42.65497
G1 X195.236 Y147.239 E42.66702
G1 X194.743 Y147.741 E42.69042
G1 X194.123 Y148.252 E42.71714
G1 X193.845 Y148.465 E42.72879
G1 X193.261 Y148.857 E42.75218
G1 X192.53 Y149.244 E42.77969
G1 X192.194 Y149.406 E42.7921
G1 X191.208 Y149.771 E42.82707
G1 X190.616 Y149.932 E42.84748
G1 X190.465 Y149.969 E42.85265
G1 X189.562 Y150.12 E42.8831
G1 X188.896 Y150.176 E42.90533
G1 X188.394 Y150.196 E42.92204
G1 X188.02 Y150.2 E42.93448
G1 X109.222 Y150.2 E45.55531
G1 X108.827 Y150.198 E45.56845
G1 X108.252 Y150.186 E45.58758
G1 X107.547 Y150.131 E45.61109
G1 X106.924 Y150.043 E45.63202
G1 X106.746 Y150.013 E45.63803
G1 X106.059 Y149.857 E45.66146
G1 X105.316 Y149.606 E45.68754
G1 X104.96 Y149.472 E45.70019
G1 X104.319 Y149.18 E45.72362
G1 X103.664 Y148.799 E45.74882
G1 X103.322 Y148.582 E45.76229
G1 X102.502 Y147.951 E45.79671
G1 X102.041 Y147.523 E45.81763
G1 X101.893 Y147.377 E45.82455
G1 X101.219 Y146.59 E45.85901
G1 X100.854 Y146.079 E45.87989
G1 X100.759 Y145.938 E45.88555
G1 X100.4 Y145.333 E45.90895
G1 X100.055 Y144.589 E45.93622
G1 X99.925 Y144.282 E45.94731
G1 X99.693 Y143.617 E45.97074
G1 X99.523 Y142.909 E45.99496
G1 X99.437 Y142.48 E46.00951
G1 X99.356 Y141.913 E46.02856
G1 X99.327 Y141.456 E46.04379
G1 X99.302 Y140.489 E46.07596
G1 X99.3 Y140.329 E46.08128
G1 X99.3 Y69.706 E48.43021
G1 X99.311 Y68.92 E48.45636
G1 X99.342 Y68.341 E48.47564
G1 X99.404 Y67.742 E48.49567
G1 X99.521 Y67.048 E48.51908
G1 X99.748 Y66.24 E48.547
G1 X99.851 Y65.92 E48.55818
G1 X100.106 Y65.264 E48.58159
G1 X100.47 Y64.557 E48.60804
G1 X100.653 Y64.232 E48.62044
G1 F1500 E42.12044
;MESH:TelemBas.stl
G0 F3600 X107.931 Y65.378
G0 X108.519 Y66.619
G0 X188.597 Y66.703
G0 X188.604 Y66.604
;TYPE:WALL-INNER
G1 F1500 E48.62044
G1 F1800 X189.098 Y66.68 E48.63706
G1 X189.556 Y66.849 E48.6533
G1 X189.968 Y67.106 E48.66945
G1 X190.319 Y67.44 E48.68557
G1 X190.594 Y67.834 E48.70155
G1 X190.786 Y68.281 E48.71773
G1 X190.886 Y68.766 E48.7342
G1 X190.9 Y69.4 E48.75529
G1 X190.9 Y140.97 E51.13572
G1 X190.848 Y141.48 E51.15277
G1 X190.702 Y141.946 E51.16901
G1 X190.466 Y142.37 E51.18515
G1 X190.152 Y142.736 E51.20119
G1 X189.768 Y143.034 E51.21736
G1 X189.332 Y143.247 E51.2335
G1 X188.853 Y143.372 E51.24996
G1 X188.481 Y143.4 E51.26237
G1 X108.949 Y143.4 E53.90762
G1 X108.396 Y143.396 E53.92601
G1 X107.902 Y143.32 E53.94263
G1 X107.444 Y143.151 E53.95887
G1 X107.032 Y142.894 E53.97502
G1 X106.681 Y142.56 E53.99114
G1 X106.406 Y142.166 E54.00712
G1 X106.214 Y141.718 E54.02333
G1 X106.11 Y141.214 E54.04044
G1 X106.104 Y141.132 E54.04318
G1 X106.1 Y140.557 E54.0623
G1 X106.1 Y69.029 E56.44133
G1 X106.152 Y68.52 E56.45835
G1 X106.298 Y68.054 E56.47459
G1 X106.534 Y67.63 E56.49073
G1 X106.848 Y67.264 E56.50677
G1 X107.232 Y66.966 E56.52294
G1 X107.668 Y66.753 E56.53908
G1 X108.147 Y66.628 E56.55554
G1 X108.519 Y66.6 E56.56795
G1 X188.051 Y66.6 E59.2132
G1 X188.604 Y66.604 E59.23159
G0 F3600 X188.634 Y66.204
;TYPE:WALL-OUTER
G1 F1800 X189.2 Y66.291 E59.25064
G1 X189.733 Y66.488 E59.26954
G1 X190.213 Y66.788 E59.28836
G1 X190.625 Y67.179 E59.30725
G1 X190.946 Y67.639 E59.32591
G1 X191.17 Y68.162 E59.34483
G1 X191.285 Y68.72 E59.36378
G1 X191.3 Y69.4 E59.38641
G1 X191.3 Y140.99 E61.7675
G1 X191.242 Y141.563 E61.78665
G1 X191.072 Y142.104 E61.80552
G1 X190.797 Y142.599 E61.82435
G1 X190.429 Y143.027 E61.84312
G1 X189.981 Y143.375 E61.86199
G1 X189.472 Y143.624 E61.88084
G1 X188.917 Y143.768 E61.89991
G1 X188.498 Y143.8 E61.91388
G1 X108.946 Y143.8 E64.5598
G1 X108.366 Y143.796 E64.57909
G1 X107.8 Y143.709 E64.59813
G1 X107.267 Y143.512 E64.61703
G1 X106.787 Y143.212 E64.63586
G1 X106.375 Y142.821 E64.65475
G1 X106.054 Y142.361 E64.67341
G1 X105.83 Y141.838 E64.69233
G1 X105.713 Y141.271 E64.71159
G1 X105.704 Y141.15 E64.71562
G1 X105.7 Y140.557 E64.73535
G1 X105.7 Y69.009 E67.11504
G1 X105.758 Y68.437 E67.13416
G1 X105.928 Y67.896 E67.15303
G1 X106.203 Y67.401 E67.17186
G1 X106.571 Y66.973 E67.19063
