;FLAVOR:Marlin
;TIME:647
;Filament used: 0.601721m
;Layer height: 0.2
;MINX:117.556
;MINY:74.055
;MINZ:0.2
;MAXX:179.444
;MAXY:135.945
;MAXZ:2
;Generated with Cura_SteamEngine 4.7.0
M104 S205
M105
M109 S205
M82 ;absolute extrusion mode
; -- START GCODE --
M800        ; Custom GCODE to fire start print procedure
; -- end of START GCODE --
G92 E0
G92 E0
G1 F1500 E-6.5
;LAYER_COUNT:10
;LAYER:0
M107
G0 F3600 X123.222 Y87.148 Z0.2
;TYPE:SKIRT
G1 F1500 E0
G1 F1800 X123.607 Y86.615 E0.02187
G1 X123.71 Y86.478 E0.02757
G1 X124.121 Y85.94 E0.05009
G1 X124.532 Y85.427 E0.07195
G1 X124.636 Y85.3 E0.07741
G1 X124.997 Y84.871 E0.09606
G1 X125.109 Y84.742 E0.10174
G1 X125.534 Y84.26 E0.12311
G1 X125.971 Y83.787 E0.14453
G1 X126.52 Y83.22 E0.17078
G1 X126.937 Y82.806 E0.19033
G1 X127.059 Y82.689 E0.19595
G1 X127.459 Y82.312 E0.21423
G1 X127.582 Y82.198 E0.21981
G1 X128.035 Y81.79 E0.24009
G1 X128.172 Y81.67 E0.24614
G1 X128.584 Y81.317 E0.26419
G1 X128.707 Y81.214 E0.26952
G1 X129.107 Y80.886 E0.28673
G1 X129.246 Y80.775 E0.29265
G1 X129.647 Y80.462 E0.30956
G1 X129.785 Y80.356 E0.31535
G1 X130.245 Y80.014 E0.33442
G1 X130.379 Y79.917 E0.33992
G1 X130.84 Y79.59 E0.35872
G1 X130.97 Y79.5 E0.36398
G1 X131.395 Y79.212 E0.38105
G1 X131.546 Y79.112 E0.38708
G1 X131.999 Y78.821 E0.40498
G1 X132.149 Y78.727 E0.41087
G1 X132.648 Y78.423 E0.43031
G1 X132.819 Y78.323 E0.43689
G1 X133.346 Y78.021 E0.4571
G1 X133.492 Y77.939 E0.46267
G1 X133.965 Y77.682 E0.48057
G1 X134.105 Y77.608 E0.48584
G1 X134.574 Y77.366 E0.50339
G1 X134.734 Y77.285 E0.50935
G1 X135.187 Y77.065 E0.5261
G1 X135.341 Y76.993 E0.53176
G1 X135.918 Y76.729 E0.55286
G1 X136.524 Y76.466 E0.57483
G1 X136.684 Y76.4 E0.58059
G1 X137.186 Y76.198 E0.59859
G1 X137.345 Y76.136 E0.60427
G1 X137.888 Y75.932 E0.62356
G1 X138.052 Y75.873 E0.62935
G1 X138.703 Y75.647 E0.65227
G1 X139.261 Y75.467 E0.67178
G1 X139.413 Y75.42 E0.67707
G1 X139.908 Y75.272 E0.69425
G1 X140.077 Y75.224 E0.70009
G1 X140.571 Y75.089 E0.71713
G1 X140.743 Y75.044 E0.72304
G1 X141.381 Y74.886 E0.7449
G1 X141.966 Y74.753 E0.76486
G1 X142.125 Y74.719 E0.77026
G1 X142.687 Y74.606 E0.78933
G1 X142.859 Y74.574 E0.79515
G1 X143.38 Y74.482 E0.81275
G1 X143.56 Y74.452 E0.81881
G1 X144.135 Y74.365 E0.83816
G1 X144.315 Y74.34 E0.8442
G1 X145.044 Y74.248 E0.86864
G1 X145.673 Y74.183 E0.88967
G1 X145.841 Y74.168 E0.89528
G1 X146.352 Y74.129 E0.91233
G1 X147.13 Y74.086 E0.93824
G1 X147.296 Y74.079 E0.94377
G1 X147.805 Y74.063 E0.96071
G1 X147.984 Y74.059 E0.96666
G1 X148.547 Y74.055 E0.98539
G1 X149.195 Y74.063 E1.00694
G1 X149.374 Y74.067 E1.0129
G1 X149.971 Y74.09 E1.03277
G1 X150.142 Y74.099 E1.03846
G1 X150.757 Y74.137 E1.05896
G1 X151.413 Y74.192 E1.08085
G1 X152.046 Y74.258 E1.10202
G1 X152.235 Y74.281 E1.10835
G1 X152.866 Y74.365 E1.12953
G1 X153.026 Y74.388 E1.1349
G1 X153.528 Y74.466 E1.1518
G1 X153.689 Y74.493 E1.15723
G1 X154.189 Y74.582 E1.17412
G1 X154.348 Y74.612 E1.1795
G1 X154.881 Y74.719 E1.19758
G1 X155.092 Y74.764 E1.20476
G1 X155.689 Y74.902 E1.22514
G1 X155.834 Y74.937 E1.2301
G1 X156.333 Y75.063 E1.24722
G1 X156.497 Y75.107 E1.25287
G1 X157.096 Y75.273 E1.27354
G1 X157.632 Y75.432 E1.29213
G1 X157.818 Y75.49 E1.29861
G1 X158.394 Y75.679 E1.31878
G1 X159.021 Y75.898 E1.34087
G1 X159.19 Y75.96 E1.34685
G1 X159.831 Y76.204 E1.36967
G1 X160.386 Y76.428 E1.38957
G1 X160.541 Y76.493 E1.39516
G1 X161.028 Y76.704 E1.41282
G1 X161.184 Y76.774 E1.4185
G1 X161.748 Y77.034 E1.43916
G1 X162.353 Y77.328 E1.46153
G1 X162.508 Y77.406 E1.4673
G1 X163.025 Y77.675 E1.48669
G1 X163.524 Y77.947 E1.50559
G1 X163.683 Y78.036 E1.51165
G1 X164.331 Y78.411 E1.53655
G1 X164.89 Y78.752 E1.55833
G1 X165.014 Y78.83 E1.5632
G1 X165.525 Y79.159 E1.58342
G1 X166.064 Y79.522 E1.60503
G1 X166.21 Y79.624 E1.61095
G1 X166.784 Y80.035 E1.63443
G1 X167.239 Y80.374 E1.65331
G1 X167.383 Y80.484 E1.65933
G1 X167.781 Y80.796 E1.67615
G1 X167.91 Y80.899 E1.68164
G1 X168.328 Y81.242 E1.69963
G1 X168.46 Y81.353 E1.70536
G1 X168.911 Y81.741 E1.72515
G1 X169.415 Y82.195 E1.74771
G1 X169.532 Y82.303 E1.75301
G1 X170.123 Y82.863 E1.78009
G1 X170.532 Y83.27 E1.79928
G1 X171.068 Y83.828 E1.82501
G1 X171.417 Y84.206 E1.84212
G1 X171.521 Y84.321 E1.84728
G1 X171.972 Y84.834 E1.87
G1 X172.38 Y85.318 E1.89105
G1 X172.495 Y85.459 E1.89711
G1 X172.919 Y85.992 E1.91976
G1 X173.265 Y86.446 E1.93874
G1 X173.717 Y87.067 E1.96429
G1 X173.814 Y87.204 E1.96987
G1 X174.137 Y87.671 E1.98876
G1 X174.446 Y88.136 E2.00733
G1 X174.914 Y88.88 E2.03656
G1 X175.217 Y89.387 E2.05621
G1 X175.3 Y89.53 E2.06171
G1 X175.605 Y90.072 E2.08239
G1 X175.683 Y90.214 E2.08778
G1 X175.948 Y90.71 E2.10649
G1 X176.037 Y90.882 E2.11293
G1 X176.275 Y91.357 E2.1306
G1 X176.554 Y91.941 E2.15212
G1 X176.63 Y92.106 E2.15817
G1 X176.928 Y92.778 E2.18262
G1 X177.165 Y93.345 E2.20306
G1 X177.232 Y93.513 E2.20907
G1 X177.419 Y93.993 E2.2262
G1 X177.474 Y94.138 E2.23136
G1 X177.674 Y94.685 E2.25073
G1 X177.872 Y95.263 E2.27106
G1 X177.922 Y95.417 E2.27644
G1 X178.122 Y96.054 E2.29865
G1 X178.176 Y96.233 E2.30487
G1 X178.335 Y96.788 E2.32407
G1 X178.487 Y97.362 E2.34382
G1 X178.526 Y97.517 E2.34913
G1 X178.652 Y98.044 E2.36715
G1 X178.69 Y98.213 E2.37292
G1 X178.814 Y98.791 E2.39258
G1 X178.849 Y98.961 E2.39835
G1 X178.96 Y99.545 E2.41812
G1 X179.064 Y100.161 E2.4389
G1 X179.085 Y100.296 E2.44344
G1 X179.162 Y100.824 E2.46119
G1 X179.187 Y101.017 E2.46766
G1 X179.274 Y101.748 E2.49215
G1 X179.329 Y102.319 E2.51123
G1 X179.385 Y103.069 E2.53624
G1 X179.417 Y103.671 E2.55629
G1 X179.424 Y103.848 E2.56219
G1 X179.442 Y104.559 E2.58584
G1 X179.444 Y104.758 E2.59246
G1 X179.443 Y105.357 E2.61238
G1 X179.433 Y105.881 E2.62981
G1 X179.428 Y106.049 E2.63541
G1 X179.4 Y106.689 E2.65671
G1 X179.367 Y107.218 E2.67434
G1 X179.352 Y107.402 E2.68048
G1 X179.282 Y108.166 E2.706
G1 X179.212 Y108.79 E2.72688
G1 X179.191 Y108.954 E2.73238
G1 X179.091 Y109.669 E2.75639
G1 X178.996 Y110.258 E2.77624
G1 X178.879 Y110.892 E2.79768
G1 X178.852 Y111.031 E2.80239
G1 X178.735 Y111.595 E2.82155
G1 X178.695 Y111.775 E2.82768
G1 X178.578 Y112.276 E2.84479
G1 X178.542 Y112.423 E2.84983
G1 X178.408 Y112.948 E2.86785
G1 X178.356 Y113.141 E2.8745
G1 X178.2 Y113.69 E2.89348
G1 X178.15 Y113.858 E2.89931
G1 X177.977 Y114.416 E2.91874
G1 X177.926 Y114.576 E2.92432
G1 X177.73 Y115.161 E2.94485
G1 X177.502 Y115.795 E2.96725
G1 X177.254 Y116.437 E2.99014
G1 X177.191 Y116.594 E2.99577
G1 X176.992 Y117.076 E3.01312
G1 X176.917 Y117.251 E3.01945
G1 X176.69 Y117.763 E3.03808
G1 X176.419 Y118.347 E3.05949
G1 X176.336 Y118.52 E3.06587
G1 X176.093 Y119.008 E3.084
G1 X176.016 Y119.158 E3.08961
G1 X175.721 Y119.718 E3.11066
G1 X175.468 Y120.178 E3.12812
G1 X175.382 Y120.328 E3.13387
G1 X175.001 Y120.977 E3.15891
G1 X174.712 Y121.448 E3.17728
G1 X174.612 Y121.607 E3.18353
G1 X174.251 Y122.161 E3.20553
G1 X173.926 Y122.639 E3.22475
G1 X173.828 Y122.779 E3.23043
G1 X173.424 Y123.341 E3.25345
G1 X173.073 Y123.809 E3.27291
G1 X172.964 Y123.95 E3.27884
G1 X172.554 Y124.467 E3.30079
G1 X172.441 Y124.606 E3.30674
G1 X172.066 Y125.056 E3.32623
G1 X171.665 Y125.518 E3.34657
G1 X171.565 Y125.63 E3.35157
G1 X171.165 Y126.069 E3.37132
G1 X171.043 Y126.2 E3.37727
G1 X170.691 Y126.568 E3.39421
G1 X170.569 Y126.693 E3.40002
G1 X170.194 Y127.067 E3.41764
G1 X169.626 Y127.61 E3.44377
G1 X169.501 Y127.727 E3.44947
G1 X169.113 Y128.08 E3.46691
G1 X168.982 Y128.196 E3.47273
G1 X168.567 Y128.556 E3.49101
G1 X168.438 Y128.666 E3.49665
G1 X168.025 Y129.008 E3.51448
G1 X167.548 Y129.387 E3.53474
G1 X167.408 Y129.496 E3.54064
G1 X166.86 Y129.909 E3.56347
G1 X166.715 Y130.015 E3.56944
G1 X166.285 Y130.323 E3.58703
G1 X165.789 Y130.665 E3.60707
G1 X165.626 Y130.775 E3.61361
G1 X165.074 Y131.133 E3.6355
G1 X164.525 Y131.472 E3.65696
G1 X164.381 Y131.559 E3.66255
G1 X163.85 Y131.869 E3.683
G1 X163.303 Y132.175 E3.70385
G1 X163.145 Y132.261 E3.70983
G1 X162.648 Y132.522 E3.7285
G1 X162.006 Y132.841 E3.75235
G1 X161.86 Y132.912 E3.75775
G1 X161.347 Y133.152 E3.77658
G1 X161.184 Y133.226 E3.78254
G1 X160.719 Y133.43 E3.79943
G1 X160.566 Y133.495 E3.80496
G1 X160.025 Y133.718 E3.82442
G1 X159.861 Y133.783 E3.83029
G1 X159.359 Y133.976 E3.84817
G1 X159.195 Y134.037 E3.85399
G1 X158.577 Y134.258 E3.87582
G1 X158.403 Y134.318 E3.88194
G1 X157.921 Y134.477 E3.89883
G1 X157.339 Y134.655 E3.91907
G1 X157.171 Y134.704 E3.92489
G1 X156.386 Y134.922 E3.95199
G1 X155.863 Y135.056 E3.96994
G1 X155.25 Y135.199 E3.99088
G1 X154.655 Y135.326 E4.01111
G1 X154.461 Y135.364 E4.01769
G1 X153.729 Y135.498 E4.04244
G1 X153.512 Y135.534 E4.04976
G1 X152.817 Y135.64 E4.07314
G1 X152.628 Y135.667 E4.07949
G1 X151.955 Y135.752 E4.10205
G1 X151.329 Y135.817 E4.12298
G1 X151.158 Y135.832 E4.12869
G1 X150.646 Y135.871 E4.14577
G1 X149.87 Y135.914 E4.17162
G1 X149.704 Y135.921 E4.17715
G1 X149.195 Y135.937 E4.19409
G1 X149.015 Y135.941 E4.20007
G1 X148.451 Y135.945 E4.21883
G1 X147.805 Y135.937 E4.24032
G1 X147.626 Y135.933 E4.24628
G1 X147.029 Y135.91 E4.26615
G1 X146.858 Y135.901 E4.27184
G1 X146.243 Y135.863 E4.29234
G1 X145.587 Y135.808 E4.31423
G1 X144.954 Y135.742 E4.3354
G1 X144.765 Y135.719 E4.34173
G1 X144.134 Y135.635 E4.3629
G1 X143.974 Y135.612 E4.36828
G1 X143.472 Y135.534 E4.38518
G1 X143.311 Y135.507 E4.39061
G1 X142.811 Y135.418 E4.4075
G1 X142.652 Y135.388 E4.41288
G1 X142.119 Y135.281 E4.43096
G1 X141.908 Y135.236 E4.43814
G1 X141.311 Y135.098 E4.45852
G1 X141.166 Y135.063 E4.46348
G1 X140.667 Y134.937 E4.4806
G1 X140.503 Y134.893 E4.48624
G1 X139.904 Y134.727 E4.50692
G1 X139.368 Y134.568 E4.52551
G1 X139.182 Y134.51 E4.53199
G1 X138.606 Y134.321 E4.55216
G1 X137.979 Y134.102 E4.57424
G1 X137.81 Y134.04 E4.58023
G1 X137.169 Y133.796 E4.60304
G1 X136.614 Y133.572 E4.62295
G1 X136.459 Y133.507 E4.62854
G1 X135.972 Y133.296 E4.64619
G1 X135.816 Y133.226 E4.65188
G1 X135.252 Y132.966 E4.67254
G1 X134.647 Y132.672 E4.69491
G1 X134.492 Y132.594 E4.70068
G1 X133.975 Y132.325 E4.72006
G1 X133.476 Y132.053 E4.73897
G1 X133.317 Y131.964 E4.74503
G1 X132.669 Y131.589 E4.76993
G1 X132.11 Y131.248 E4.79171
G1 X131.986 Y131.17 E4.79658
G1 X131.475 Y130.841 E4.81679
G1 X130.936 Y130.478 E4.83841
G1 X130.79 Y130.376 E4.84433
G1 X130.216 Y129.965 E4.86781
G1 X129.761 Y129.626 E4.88668
G1 X129.615 Y129.514 E4.8928
G1 X129.09 Y129.101 E4.91502
G1 X128.673 Y128.759 E4.93296
G1 X128.54 Y128.647 E4.93874
G1 X128.089 Y128.259 E4.95853
G1 X127.578 Y127.798 E4.98142
G1 X127.463 Y127.692 E4.98662
G1 X126.869 Y127.129 E5.01384
G1 X126.465 Y126.727 E5.0328
G1 X125.924 Y126.163 E5.05879
G1 X125.478 Y125.677 E5.08073
G1 X125.015 Y125.15 E5.10406
G1 X124.611 Y124.671 E5.1249
G1 X124.186 Y124.141 E5.1475
G1 X124.081 Y124.008 E5.15314
G1 X123.735 Y123.554 E5.17212
G1 X123.283 Y122.933 E5.19767
G1 X123.186 Y122.797 E5.20322
G1 X122.856 Y122.32 E5.22251
G1 X122.55 Y121.858 E5.24095
G1 X122.467 Y121.728 E5.24608
G1 X122.066 Y121.088 E5.2712
G1 X121.779 Y120.607 E5.28982
G1 X121.7 Y120.47 E5.29508
G1 X121.395 Y119.928 E5.31577
G1 X121.32 Y119.791 E5.32096
G1 X121.054 Y119.294 E5.33971
G1 X120.959 Y119.111 E5.34657
G1 X120.722 Y118.637 E5.3642
G1 X120.438 Y118.042 E5.38613
G1 X120.359 Y117.87 E5.39242
G1 X120.074 Y117.225 E5.41588
G1 X119.837 Y116.659 E5.43628
G1 X119.768 Y116.487 E5.44245
G1 X119.527 Y115.865 E5.46463
G1 X119.326 Y115.316 E5.48408
G1 X119.126 Y114.732 E5.50461
G1 X118.878 Y113.946 E5.53202
G1 X118.823 Y113.764 E5.53835
G1 X118.664 Y113.208 E5.55758
G1 X118.514 Y112.643 E5.57702
G1 X118.474 Y112.483 E5.58251
G1 X118.348 Y111.956 E5.60053
G1 X118.309 Y111.785 E5.60637
G1 X118.185 Y111.206 E5.62606
G1 X118.152 Y111.04 E5.63169
G1 X118.041 Y110.457 E5.65143
G1 X117.936 Y109.839 E5.67228
G1 X117.838 Y109.17 E5.69477
G1 X117.813 Y108.983 E5.70104
G1 X117.726 Y108.254 E5.72546
G1 X117.671 Y107.681 E5.74461
G1 X117.615 Y106.929 E5.76969
G1 X117.583 Y106.33 E5.78964
G1 X117.576 Y106.152 E5.79556
G1 X117.558 Y105.441 E5.81922
G1 X117.556 Y105.24 E5.8259
G1 X117.557 Y104.701 E5.84383
G1 X117.559 Y104.526 E5.84965
G1 X117.576 Y103.86 E5.87181
G1 X117.605 Y103.239 E5.89249
G1 X117.616 Y103.065 E5.89829
G1 X117.662 Y102.436 E5.91926
G1 X117.676 Y102.263 E5.92504
G1 X117.728 Y101.726 E5.94298
G1 X117.748 Y101.549 E5.9489
G1 X117.81 Y101.037 E5.96606
G1 X117.834 Y100.858 E5.97206
G1 X117.939 Y100.139 E5.99623
G1 X118.023 Y99.635 E6.01323
G1 X118.048 Y99.491 E6.01809
G1 X118.159 Y98.91 E6.03776
G1 X118.304 Y98.231 E6.06085
G1 X118.342 Y98.062 E6.06662
G1 X118.483 Y97.474 E6.08673
G1 X118.655 Y96.819 E6.10925
G1 X118.855 Y96.125 E6.13327
G1 X118.907 Y95.952 E6.13928
G1 X119.083 Y95.395 E6.15871
G1 X119.295 Y94.768 E6.18072
G1 X119.518 Y94.153 E6.20248
G1 X119.577 Y93.996 E6.20806
G1 X119.825 Y93.364 E6.23064
G1 X120.046 Y92.832 E6.2498
G1 X120.387 Y92.068 E6.27763
G1 X120.669 Y91.471 E6.29959
G1 X120.739 Y91.328 E6.30488
G1 X121.004 Y90.802 E6.32447
G1 X121.288 Y90.265 E6.34468
G1 X121.373 Y90.108 E6.35062
G1 X121.707 Y89.515 E6.37325
G1 X122.027 Y88.976 E6.3941
G1 X122.109 Y88.842 E6.39933
G1 X122.517 Y88.192 E6.42485
G1 X122.875 Y87.65 E6.44646
G1 X123.222 Y87.148 E6.46675
G0 F3600 X123.551 Y87.376
G1 F1800 X123.931 Y86.85 E6.48834
G1 X124.027 Y86.721 E6.49368
G1 X124.438 Y86.183 E6.5162
G1 X124.942 Y85.558 E6.54291
G1 X125.303 Y85.129 E6.56156
G1 X125.409 Y85.006 E6.56696
G1 X125.834 Y84.524 E6.58833
G1 X126.258 Y84.066 E6.60909
G1 X126.807 Y83.499 E6.63534
G1 X127.218 Y83.091 E6.6546
G1 X127.333 Y82.98 E6.65992
G1 X127.733 Y82.603 E6.6782
G1 X127.849 Y82.496 E6.68345
G1 X128.302 Y82.088 E6.70372
G1 X128.433 Y81.973 E6.70952
G1 X128.96 Y81.523 E6.73257
G1 X129.36 Y81.195 E6.74977
G1 X129.492 Y81.09 E6.75538
G1 X130.023 Y80.677 E6.77776
G1 X130.483 Y80.335 E6.79682
G1 X131.071 Y79.917 E6.82082
G1 X131.194 Y79.831 E6.82581
G1 X131.619 Y79.543 E6.84289
G1 X131.763 Y79.448 E6.84862
G1 X132.216 Y79.157 E6.86653
G1 X132.357 Y79.069 E6.87206
G1 X132.856 Y78.765 E6.89149
G1 X133.018 Y78.67 E6.89774
G1 X133.683 Y78.29 E6.92321
G1 X134.156 Y78.033 E6.94112
G1 X134.288 Y77.963 E6.94609
G1 X134.757 Y77.721 E6.96364
G1 X134.909 Y77.645 E6.96929
G1 X135.362 Y77.425 E6.98604
G1 X136.085 Y77.093 E7.0125
G1 X136.682 Y76.834 E7.03415
G1 X136.833 Y76.771 E7.03959
G1 X137.335 Y76.569 E7.05759
G1 X137.486 Y76.51 E7.06298
G1 X138.029 Y76.306 E7.08227
G1 X138.183 Y76.25 E7.08772
G1 X138.667 Y76.081 E7.10477
G1 X138.826 Y76.028 E7.11035
G1 X139.384 Y75.848 E7.12985
G1 X139.528 Y75.803 E7.13487
G1 X140.023 Y75.655 E7.15205
G1 X140.677 Y75.475 E7.17461
G1 X140.839 Y75.432 E7.18019
G1 X141.477 Y75.274 E7.20205
G1 X142.054 Y75.143 E7.22173
G1 X142.204 Y75.111 E7.22683
G1 X142.766 Y74.998 E7.2459
G1 X143.45 Y74.876 E7.269
G1 X143.62 Y74.848 E7.27473
G1 X144.195 Y74.761 E7.29408
G1 X144.366 Y74.737 E7.29982
G1 X145.095 Y74.645 E7.32426
G1 X145.712 Y74.581 E7.34489
G1 X145.871 Y74.567 E7.3502
G1 X146.382 Y74.528 E7.36724
G1 X146.539 Y74.518 E7.37248
G1 X147.152 Y74.485 E7.3929
G1 X147.308 Y74.478 E7.39809
G1 X147.817 Y74.462 E7.41503
G1 X147.987 Y74.459 E7.42068
G1 X148.55 Y74.455 E7.43941
G1 X149.189 Y74.463 E7.46066
G1 X149.358 Y74.467 E7.46629
G1 X149.955 Y74.49 E7.48616
G1 X150.118 Y74.498 E7.49158
G1 X150.733 Y74.536 E7.51208
G1 X151.379 Y74.59 E7.53364
G1 X152.004 Y74.656 E7.55454
G1 X152.183 Y74.677 E7.56054
G1 X152.814 Y74.761 E7.58171
G1 X152.965 Y74.783 E7.58678
G1 X153.467 Y74.861 E7.60368
G1 X153.619 Y74.886 E7.6088
G1 X154.119 Y74.975 E7.6257
G1 X154.27 Y75.004 E7.63081
G1 X154.803 Y75.111 E7.64889
G1 X155.002 Y75.154 E7.65566
G1 X155.599 Y75.292 E7.67604
G1 X155.736 Y75.325 E7.68073
G1 X156.235 Y75.451 E7.69785
G1 X156.39 Y75.492 E7.70318
G1 X156.989 Y75.658 E7.72385
G1 X157.518 Y75.815 E7.74221
G1 X157.693 Y75.87 E7.74831
G1 X158.269 Y76.059 E7.76847
G1 X158.888 Y76.276 E7.79029
G1 X159.047 Y76.334 E7.79592
G1 X159.688 Y76.578 E7.81873
G1 X160.235 Y76.798 E7.83834
G1 X160.382 Y76.86 E7.84365
G1 X160.869 Y77.071 E7.8613
G1 X161.017 Y77.137 E7.86669
G1 X161.581 Y77.397 E7.88734
G1 X162.177 Y77.687 E7.90939
G1 X162.323 Y77.761 E7.91483
G1 X162.84 Y78.03 E7.93422
G1 X163.332 Y78.298 E7.95285
G1 X163.483 Y78.382 E7.9586
