;FLAVOR:Marlin
;TIME:659
;Filament used: 0.532255m
;Layer height: 0.2
;MINX:101.764
;MINY:86.47
;MINZ:0.2
;MAXX:195.238
;MAXY:123.541
;MAXZ:2
;Generated with Cura_SteamEngine 4.7.0
M104 S205
M105
M109 S205
M82 ;absolute extrusion mode
; -- START GCODE --
M800        ; Custom GCODE to fire start print procedure
; -- end of START GCODE --
G92 E0
G92 E0
G1 F1500 E-6.5
;LAYER_COUNT:10
;LAYER:0
M107
G0 F3600 X106.701 Y90.225 Z0.2
;TYPE:SKIRT
G1 F1500 E0
G1 F1800 X107.251 Y89.631 E0.02693
G1 X107.673 Y89.226 E0.04638
G1 X107.773 Y89.134 E0.0509
G1 X108.365 Y88.643 E0.07648
G1 X108.97 Y88.238 E0.10069
G1 X109.47 Y87.941 E0.12004
G1 X109.578 Y87.88 E0.12416
G1 X110.266 Y87.537 E0.14973
G1 X110.966 Y87.274 E0.1746
G1 X111.653 Y87.059 E0.19855
G1 X111.706 Y87.044 E0.20038
G1 X112.456 Y86.873 E0.22596
G1 X113.158 Y86.785 E0.24949
G1 X113.904 Y86.733 E0.27437
G1 X114.195 Y86.724 E0.28405
G1 X115.051 Y86.712 E0.31252
G1 X117.483 Y86.713 E0.39341
G1 X117.89 Y86.719 E0.40695
G1 X120.158 Y86.703 E0.48239
G1 X120.527 Y86.72 E0.49467
G1 X121.47 Y86.712 E0.52604
G1 X124.72 Y86.712 E0.63413
G1 X124.756 Y86.71 E0.63533
G1 X125.782 Y86.714 E0.66946
G1 X126.03 Y86.712 E0.67771
G1 X126.718 Y86.712 E0.70059
G1 X129.369 Y86.674 E0.78877
G1 X130.974 Y86.606 E0.8422
G1 X131.985 Y86.576 E0.87584
G1 X132.204 Y86.573 E0.88313
G1 X135.049 Y86.574 E0.97775
G1 X137.067 Y86.603 E1.04488
G1 X137.366 Y86.611 E1.05483
G1 X138.72 Y86.621 E1.09986
G1 X139.15 Y86.622 E1.11416
G1 X140.545 Y86.642 E1.16057
G1 X143.273 Y86.642 E1.2513
G1 X144.158 Y86.623 E1.28074
G1 X144.366 Y86.621 E1.28766
G1 X144.892 Y86.621 E1.30515
G1 X147.542 Y86.584 E1.3933
G1 X149.978 Y86.48 E1.4744
G1 X150.401 Y86.47 E1.48847
G1 X151.291 Y86.471 E1.51807
G1 X153.764 Y86.508 E1.60033
G1 X154.647 Y86.534 E1.62972
G1 X157.426 Y86.575 E1.72216
G1 X158.299 Y86.576 E1.75119
G1 X161.055 Y86.579 E1.84286
G1 X162.548 Y86.537 E1.89253
G1 X162.733 Y86.541 E1.89869
G1 X164.276 Y86.496 E1.95003
G1 X164.688 Y86.494 E1.96373
G1 X166.098 Y86.514 E2.01064
G1 X168.822 Y86.514 E2.10124
G1 X169.782 Y86.494 E2.13317
G1 X170.207 Y86.494 E2.14731
G1 X172.275 Y86.523 E2.2161
G1 X173.662 Y86.533 E2.26223
G1 X174.591 Y86.528 E2.29313
G1 X175.127 Y86.524 E2.31096
G1 X177.321 Y86.535 E2.38393
G1 X177.977 Y86.547 E2.40575
G1 X181.281 Y86.553 E2.51564
G1 X182.355 Y86.537 E2.55137
G1 X184.655 Y86.538 E2.62787
G1 X185.333 Y86.548 E2.65042
G1 X186.101 Y86.599 E2.67602
G1 X186.859 Y86.73 E2.70161
G1 X187.599 Y86.938 E2.72717
G1 X188.314 Y87.223 E2.75277
G1 X188.995 Y87.58 E2.77835
G1 X189.635 Y88.006 E2.80392
G1 X190.327 Y88.588 E2.83399
G1 X190.348 Y88.608 E2.83496
G1 X190.877 Y89.167 E2.86055
G1 X191.345 Y89.778 E2.88615
G1 X191.747 Y90.433 E2.91171
G1 X192.078 Y91.127 E2.93729
G1 X192.336 Y91.852 E2.96288
G1 X192.518 Y92.6 E2.98849
G1 X192.596 Y93.121 E3.00601
G1 X192.632 Y93.437 E3.01659
G1 X192.979 Y96.126 E3.10676
G1 X193.39 Y98.732 E3.19451
G1 X193.869 Y101.294 E3.2812
G1 X194.423 Y103.864 E3.36864
G1 X194.908 Y105.864 E3.43709
G1 X194.96 Y106.067 E3.44406
G1 X195.148 Y107.118 E3.47957
G1 X195.202 Y107.669 E3.49799
G1 X195.225 Y108.161 E3.51437
G1 X195.238 Y109.02 E3.54294
G1 X195.238 Y109.237 E3.55016
G1 X195.228 Y109.939 E3.57351
G1 X195.211 Y110.357 E3.58742
G1 X195.113 Y111.741 E3.63357
G1 X194.965 Y114.35 E3.72049
G1 X194.905 Y115.793 E3.76852
G1 X194.833 Y116.559 E3.79411
G1 X194.681 Y117.313 E3.81969
G1 X194.504 Y117.915 E3.84056
G1 X194.236 Y118.635 E3.86612
G1 X193.894 Y119.325 E3.89173
G1 X193.483 Y119.975 E3.91731
G1 X193.007 Y120.579 E3.94289
G1 X192.471 Y121.13 E3.96845
G1 X191.774 Y121.7 E3.9984
G1 X191.641 Y121.796 E4.00386
G1 X190.995 Y122.213 E4.02943
G1 X190.309 Y122.561 E4.05501
G1 X189.59 Y122.836 E4.08062
G1 X188.847 Y123.035 E4.1062
G1 X188.088 Y123.155 E4.13176
G1 X187.303 Y123.203 E4.15792
G1 X187.083 Y123.209 E4.16524
G1 X186.157 Y123.221 E4.19604
G1 X179.942 Y123.22 E4.40275
G1 X179.802 Y123.218 E4.40741
G1 X176.862 Y123.221 E4.50519
G1 X174.835 Y123.254 E4.57262
G1 X174.124 Y123.247 E4.59627
G1 X171.109 Y123.251 E4.69655
G1 X170.696 Y123.254 E4.71028
G1 X168.637 Y123.225 E4.77877
G1 X168.116 Y123.218 E4.7961
G1 X164.129 Y123.266 E4.92872
G1 X163.267 Y123.294 E4.95741
G1 X162.835 Y123.301 E4.97178
G1 X162.054 Y123.3 E4.99775
G1 X160.699 Y123.28 E5.04283
G1 X159.064 Y123.234 E5.09723
G1 X156.436 Y123.234 E5.18464
G1 X154.471 Y123.282 E5.25001
G1 X153.523 Y123.315 E5.28156
G1 X153.008 Y123.322 E5.29869
G1 X152.841 Y123.321 E5.30425
G1 X151.233 Y123.295 E5.35774
G1 X150.326 Y123.268 E5.38792
G1 X147.705 Y123.262 E5.47509
G1 X145.124 Y123.331 E5.56097
G1 X144.401 Y123.369 E5.58505
G1 X142.459 Y123.431 E5.64967
G1 X142.243 Y123.435 E5.65686
G1 X136.097 Y123.448 E5.86127
G1 X134.702 Y123.43 E5.90767
G1 X132.999 Y123.385 E5.96434
G1 X130.364 Y123.389 E6.05198
G1 X128.849 Y123.437 E6.10239
G1 X127.465 Y123.462 E6.14843
G1 X127.24 Y123.462 E6.15591
G1 X125.861 Y123.445 E6.20178
G1 X123.16 Y123.451 E6.29162
G1 X122.034 Y123.49 E6.32909
G1 X119.419 Y123.54 E6.41608
G1 X110.218 Y123.541 E6.72211
G1 X109.428 Y123.53 E6.74839
G1 X108.66 Y123.479 E6.77399
G1 X107.592 Y123.271 E6.81018
G1 X107.39 Y123.216 E6.81714
G1 X106.659 Y122.976 E6.84273
G1 X105.958 Y122.661 E6.86829
G1 X105.292 Y122.275 E6.8939
G1 X104.671 Y121.822 E6.91946
G1 X104.099 Y121.307 E6.94506
G1 X103.585 Y120.735 E6.97064
G1 X103.132 Y120.113 E6.99623
G1 X102.719 Y119.394 E7.02381
G1 X102.56 Y119.077 E7.03561
G1 X102.252 Y118.372 E7.06119
G1 X102.018 Y117.639 E7.08679
G1 X101.861 Y116.886 E7.11237
G1 X101.778 Y115.98 E7.14263
G1 X101.765 Y115.457 E7.16003
G1 X101.764 Y114.871 E7.17952
G1 X101.773 Y114.127 E7.20427
G1 X101.822 Y113.36 E7.22983
G1 X101.978 Y112.483 E7.25946
G1 X102.048 Y112.192 E7.26941
G1 X102.652 Y109.531 E7.36017
G1 X103.139 Y107.069 E7.44364
G1 X103.59 Y104.383 E7.53423
G1 X103.948 Y101.814 E7.6205
G1 X104.235 Y99.209 E7.70767
G1 X104.431 Y96.856 E7.7862
G1 X104.495 Y95.961 E7.81604
G1 X104.561 Y95.275 E7.83896
G1 X104.603 Y94.927 E7.85062
G1 X104.742 Y94.17 E7.87622
G1 X104.945 Y93.472 E7.9004
G1 X105.131 Y92.94 E7.91914
G1 X105.183 Y92.801 E7.92408
G1 X105.49 Y92.096 E7.94965
G1 X105.862 Y91.435 E7.97488
G1 X106.204 Y90.899 E7.99603
G1 X106.242 Y90.842 E7.99831
G1 X106.701 Y90.225 E8.02388
G0 F3600 X107.022 Y90.465
G1 F1800 X107.53 Y89.918 E8.04871
G1 X107.944 Y89.52 E8.06781
G1 X108.044 Y89.428 E8.07233
G1 X108.62 Y88.952 E8.09719
G1 X109.176 Y88.581 E8.11942
G1 X109.666 Y88.289 E8.13839
G1 X109.774 Y88.228 E8.14252
G1 X110.445 Y87.895 E8.16743
G1 X111.088 Y87.655 E8.19026
G1 X111.762 Y87.444 E8.21375
G1 X111.815 Y87.429 E8.21558
G1 X112.544 Y87.264 E8.24044
G1 X113.189 Y87.184 E8.26206
G1 X113.921 Y87.133 E8.28646
G1 X114.201 Y87.124 E8.29578
G1 X115.051 Y87.112 E8.32405
G1 X117.478 Y87.113 E8.40478
G1 X117.888 Y87.119 E8.41841
G1 X120.161 Y87.103 E8.49402
G1 X120.522 Y87.12 E8.50604
G1 X121.474 Y87.112 E8.5377
G1 X124.698 Y87.112 E8.64493
G1 X124.755 Y87.11 E8.64683
G1 X125.784 Y87.114 E8.68105
G1 X126.033 Y87.112 E8.68934
G1 X126.724 Y87.112 E8.71232
G1 X129.357 Y87.075 E8.7999
G1 X130.985 Y87.006 E8.8541
G1 X131.996 Y86.976 E8.88774
G1 X132.204 Y86.973 E8.89466
G1 X135.044 Y86.974 E8.98912
G1 X137.056 Y87.003 E9.05604
G1 X137.352 Y87.011 E9.06589
G1 X138.717 Y87.021 E9.11129
G1 X139.144 Y87.022 E9.12549
G1 X140.539 Y87.042 E9.1719
G1 X143.282 Y87.042 E9.26313
G1 X144.162 Y87.023 E9.29241
G1 X144.37 Y87.021 E9.29932
G1 X144.898 Y87.021 E9.31689
G1 X147.531 Y86.984 E9.40447
G1 X149.991 Y86.879 E9.48636
G1 X150.401 Y86.87 E9.5
G1 X151.181 Y86.87 E9.52595
G1 X153.752 Y86.908 E9.61147
G1 X154.628 Y86.934 E9.64062
G1 X157.421 Y86.975 E9.73352
G1 X158.293 Y86.976 E9.76252
G1 X161.066 Y86.979 E9.85475
G1 X162.559 Y86.937 E9.90443
G1 X162.737 Y86.942 E9.91035
G1 X164.288 Y86.896 E9.96196
G1 X164.682 Y86.894 E9.97507
G1 X166.092 Y86.914 E10.02197
G1 X168.831 Y86.914 E10.11307
G1 X169.783 Y86.894 E10.14474
G1 X170.201 Y86.894 E10.15864
G1 X172.272 Y86.923 E10.22753
G1 X173.66 Y86.933 E10.2737
G1 X174.595 Y86.928 E10.3048
G1 X175.125 Y86.924 E10.32242
G1 X177.313 Y86.935 E10.3952
G1 X177.968 Y86.947 E10.41699
G1 X181.286 Y86.953 E10.52734
G1 X182.355 Y86.937 E10.5629
G1 X184.649 Y86.938 E10.6392
G1 X185.327 Y86.948 E10.66175
G1 X186.074 Y86.999 E10.68666
G1 X186.81 Y87.129 E10.71152
G1 X187.529 Y87.337 E10.73641
G1 X188.221 Y87.621 E10.76129
G1 X188.879 Y87.977 E10.78617
G1 X189.495 Y88.401 E10.81105
G1 X190.052 Y88.878 E10.83544
G1 X190.073 Y88.898 E10.8364
G1 X190.586 Y89.442 E10.86127
G1 X191.038 Y90.038 E10.88615
G1 X191.425 Y90.679 E10.91105
G1 X191.74 Y91.357 E10.93592
G1 X191.982 Y92.065 E10.9608
G1 X192.146 Y92.795 E10.98569
G1 X192.582 Y96.173 E11.09897
G1 X192.994 Y98.79 E11.18709
G1 X193.478 Y101.38 E11.27472
G1 X194.037 Y103.972 E11.36292
G1 X194.509 Y105.914 E11.42939
G1 X194.573 Y106.166 E11.43803
G1 X194.75 Y107.16 E11.47162
G1 X194.803 Y107.698 E11.4896
G1 X194.825 Y108.167 E11.50521
G1 X194.838 Y109.026 E11.53379
G1 X194.838 Y109.232 E11.54064
G1 X194.828 Y109.934 E11.56399
G1 X194.812 Y110.328 E11.5771
G1 X194.714 Y111.712 E11.62325
G1 X194.566 Y114.34 E11.7108
G1 X194.506 Y115.776 E11.7586
G1 X194.434 Y116.521 E11.78349
G1 X194.191 Y117.575 E11.81947
G1 X194.122 Y117.795 E11.82714
G1 X193.861 Y118.496 E11.85202
G1 X193.526 Y119.165 E11.8769
G1 X193.121 Y119.794 E11.90178
G1 X192.652 Y120.376 E11.92665
G1 X192.123 Y120.906 E11.95155
G1 X191.54 Y121.376 E11.97646
G1 X191.407 Y121.472 E11.98191
G1 X190.778 Y121.877 E12.0068
G1 X190.109 Y122.212 E12.03168
G1 X189.408 Y122.474 E12.05657
G1 X188.684 Y122.66 E12.08143
G1 X187.611 Y122.79 E12.11738
G1 X187.078 Y122.809 E12.13512
G1 X186.157 Y122.821 E12.16576
G1 X179.948 Y122.82 E12.37227
G1 X179.808 Y122.818 E12.37693
G1 X176.855 Y122.821 E12.47514
G1 X174.828 Y122.854 E12.54257
G1 X174.129 Y122.847 E12.56582
G1 X171.103 Y122.851 E12.66647
G1 X170.701 Y122.854 E12.67984
G1 X168.68 Y122.826 E12.74706
G1 X168.121 Y122.818 E12.76566
G1 X164.111 Y122.866 E12.89904
G1 X163.102 Y122.898 E12.93262
G1 X162.83 Y122.901 E12.94166
G1 X162.059 Y122.9 E12.96731
G1 X160.71 Y122.88 E13.01218
G1 X159.075 Y122.834 E13.06658
G1 X156.426 Y122.834 E13.15469
G1 X154.517 Y122.881 E13.2182
G1 X153.509 Y122.916 E13.25175
G1 X153.005 Y122.922 E13.26851
G1 X152.847 Y122.921 E13.27377
G1 X151.245 Y122.895 E13.32706
G1 X150.339 Y122.868 E13.3572
G1 X147.73 Y122.862 E13.44398
G1 X145.055 Y122.933 E13.53298
G1 X144.229 Y122.976 E13.56049
G1 X142.447 Y123.032 E13.61979
G1 X142.242 Y123.035 E13.62661
G1 X136.096 Y123.048 E13.83103
G1 X134.713 Y123.031 E13.87703
G1 X132.974 Y122.985 E13.93489
G1 X130.351 Y122.989 E14.02213
G1 X128.841 Y123.037 E14.07238
G1 X127.457 Y123.062 E14.11842
G1 X127.245 Y123.062 E14.12547
G1 X125.865 Y123.045 E14.17137
G1 X123.176 Y123.051 E14.26081
G1 X122.027 Y123.09 E14.29905
G1 X119.412 Y123.14 E14.38604
G1 X110.218 Y123.141 E14.69183
G1 X109.433 Y123.13 E14.71794
G1 X108.687 Y123.079 E14.74281
G1 X107.697 Y122.885 E14.77637
G1 X107.495 Y122.83 E14.78333
G1 X106.785 Y122.595 E14.8082
G1 X106.104 Y122.286 E14.83308
G1 X105.459 Y121.906 E14.85798
G1 X104.859 Y121.459 E14.88286
G1 X104.31 Y120.951 E14.90774
G1 X103.819 Y120.387 E14.93261
G1 X103.39 Y119.774 E14.9575
G1 X103.077 Y119.214 E14.97883
G1 X102.918 Y118.897 E14.99063
G1 X102.619 Y118.212 E15.01549
G1 X102.394 Y117.498 E15.04039
G1 X102.248 Y116.765 E15.06524
G1 X102.178 Y115.968 E15.09186
G1 X102.165 Y115.455 E15.10892
G1 X102.164 Y114.876 E15.12818
G1 X102.173 Y114.132 E15.15293
G1 X102.222 Y113.386 E15.17779
G1 X102.367 Y112.577 E15.20513
G1 X102.454 Y112.216 E15.21748
G1 X103.034 Y109.659 E15.30469
G1 X103.538 Y107.107 E15.39121
G1 X103.982 Y104.467 E15.48025
G1 X104.343 Y101.876 E15.56726
G1 X104.632 Y99.25 E15.65512
G1 X104.833 Y96.846 E15.73536
G1 X104.894 Y95.989 E15.76394
G1 X104.959 Y95.315 E15.78646
G1 X105 Y94.979 E15.79772
G1 X105.136 Y94.243 E15.82261
G1 X105.323 Y93.603 E15.84479
G1 X105.506 Y93.08 E15.86322
G1 X105.558 Y92.941 E15.86815
G1 X105.857 Y92.256 E15.89301
G1 X106.2 Y91.649 E15.9162
G1 X106.537 Y91.121 E15.93703
G1 X106.575 Y91.064 E15.93931
G1 X107.022 Y90.465 E15.96417
G0 F3600 X107.343 Y90.705
G1 F1800 X107.808 Y90.206 E15.98686
G1 X108.214 Y89.815 E16.0056
G1 X108.314 Y89.723 E16.01012
G1 X108.875 Y89.261 E16.0343
G1 X109.382 Y88.924 E16.05454
G1 X109.863 Y88.637 E16.07317
G1 X109.971 Y88.576 E16.0773
G1 X110.622 Y88.254 E16.10145
G1 X111.21 Y88.036 E16.12231
G1 X111.871 Y87.828 E16.14536
G1 X111.924 Y87.813 E16.14719
G1 X112.632 Y87.654 E16.17133
G1 X113.219 Y87.583 E16.19099
G1 X113.937 Y87.532 E16.21493
G1 X114.207 Y87.524 E16.22392
G1 X115.051 Y87.512 E16.25199
G1 X117.472 Y87.513 E16.33252
G1 X117.885 Y87.519 E16.34625
G1 X120.164 Y87.503 E16.42206
G1 X120.516 Y87.52 E16.43378
G1 X121.477 Y87.512 E16.46574
G1 X124.724 Y87.512 E16.57374
G1 X124.753 Y87.51 E16.5747
G1 X125.785 Y87.514 E16.60903
G1 X126.036 Y87.512 E16.61738
G1 X126.73 Y87.512 E16.64046
G1 X129.379 Y87.475 E16.72857
G1 X130.997 Y87.406 E16.78244
G1 X132.008 Y87.376 E16.81608
G1 X132.204 Y87.373 E16.8226
G1 X135.038 Y87.374 E16.91686
G1 X137.045 Y87.403 E16.98362
G1 X137.338 Y87.411 E16.99337
G1 X138.714 Y87.421 E17.03913
G1 X139.139 Y87.422 E17.05327
G1 X140.534 Y87.442 E17.09967
G1 X143.243 Y87.442 E17.18977
G1 X144.166 Y87.423 E17.22048
G1 X144.374 Y87.421 E17.2274
G1 X144.904 Y87.421 E17.24502
G1 X147.553 Y87.384 E17.33314
G1 X150.003 Y87.279 E17.4147
G1 X150.401 Y87.27 E17.42794
G1 X151.279 Y87.271 E17.45715
G1 X153.74 Y87.308 E17.53901
G1 X154.611 Y87.334 E17.56799
G1 X157.415 Y87.375 E17.66126
G1 X158.287 Y87.376 E17.69026
G1 X161.078 Y87.379 E17.78309
G1 X162.571 Y87.337 E17.83277
G1 X162.746 Y87.342 E17.83859
G1 X164.299 Y87.296 E17.89027
G1 X164.677 Y87.294 E17.90284
G1 X166.087 Y87.314 E17.94974
G1 X168.84 Y87.314 E18.04131
G1 X169.785 Y87.294 E18.07275
G1 X170.195 Y87.294 E18.08638
G1 X172.269 Y87.323 E18.15537
G1 X173.659 Y87.333 E18.2016
G1 X174.599 Y87.328 E18.23287
G1 X175.124 Y87.324 E18.25033
G1 X177.306 Y87.335 E18.32291
G1 X177.961 Y87.347 E18.34469
G1 X181.291 Y87.353 E18.45545
G1 X182.355 Y87.337 E18.49084
G1 X184.643 Y87.338 E18.56694
G1 X185.321 Y87.348 E18.5895
G1 X186.046 Y87.398 E18.61367
G1 X186.761 Y87.528 E18.63784
G1 X187.457 Y87.736 E18.662
G1 X188.126 Y88.019 E18.68616
G1 X188.759 Y88.374 E18.7103
G1 X189.35 Y88.796 E18.73445
G1 X189.776 Y89.168 E18.75326
G1 X189.797 Y89.188 E18.75423
G1 X190.294 Y89.717 E18.77837
G1 X190.731 Y90.297 E18.80252
G1 X191.101 Y90.922 E18.82668
G1 X191.4 Y91.584 E18.85084
G1 X191.624 Y92.275 E18.875
G1 X191.802 Y93.212 E18.90672
G1 X191.845 Y93.585 E18.91921
G1 X192.189 Y96.25 E19.00858
G1 X192.6 Y98.861 E19.09649
G1 X193.086 Y101.459 E19.1844
G1 X193.642 Y104.035 E19.27205
G1 X194.121 Y106.012 E19.33971
G1 X194.185 Y106.264 E19.34836
G1 X194.352 Y107.201 E19.38001
G1 X194.404 Y107.727 E19.39759
G1 X194.425 Y108.173 E19.41244
G1 X194.438 Y109.032 E19.44102
G1 X194.438 Y109.226 E19.44747
G1 X194.428 Y109.928 E19.47082
G1 X194.413 Y110.3 E19.4832
G1 X194.315 Y111.684 E19.52935
G1 X194.168 Y114.27 E19.6155
G1 X194.106 Y115.759 E19.66507
G1 X194.035 Y116.482 E19.68923
G1 X193.81 Y117.455 E19.72245
G1 X193.741 Y117.675 E19.73012
G1 X193.485 Y118.355 E19.75428
G1 X193.157 Y119.003 E19.77844
G1 X192.759 Y119.611 E19.80261
G1 X192.297 Y120.172 E19.82678
G1 X191.777 Y120.678 E19.85091
G1 X191.306 Y121.052 E19.87092
G1 X191.173 Y121.148 E19.87637
G1 X190.561 Y121.54 E19.90054
G1 X189.91 Y121.862 E19.9247
G1 X189.228 Y122.111 E19.94885
G1 X188.523 Y122.284 E19.97299
G1 X187.594 Y122.39 E20.00409
G1 X187.073 Y122.409 E20.02143
G1 X186.157 Y122.421 E20.0519
G1 X179.953 Y122.42 E20.25825
G1 X179.812 Y122.418 E20.26294
G1 X176.848 Y122.421 E20.36152
G1 X174.822 Y122.454 E20.42891
G1 X174.133 Y122.447 E20.45183
G1 X171.095 Y122.451 E20.55288
G1 X170.707 Y122.454 E20.56578
G1 X168.647 Y122.425 E20.6343
G1 X168.154 Y122.418 E20.6507
G1 X164.045 Y122.468 E20.78738
G1 X163.098 Y122.498 E20.81889
G1 X162.826 Y122.501 E20.82794
G1 X162.065 Y122.5 E20.85325
G1 X160.721 Y122.48 E20.89796
G1 X159.086 Y122.434 E20.95236
