;FLAVOR:Marlin
;TIME:11224
;Filament used: 10.4633m
;Layer height: 0.2
;MINX:22.228
;MINY:76.917
;MINZ:0.2
;MAXX:277.028
;MAXY:140.391
;MAXZ:31.8
;Generated with Cura_SteamEngine 4.7.0
M104 S205
M105
M109 S205
M82 ;absolute extrusion mode
; -- START GCODE --
M800        ; Custom GCODE to fire start print procedure
; -- end of START GCODE --
G92 E0
G92 E0
G1 F1500 E-6.5
;LAYER_COUNT:159
;LAYER:0
M107
G0 F3600 X27.809 Y85.791 Z0.2
;TYPE:SKIRT
G1 F1500 E0
G1 F1800 X28.56 Y85.628 E0.02556
G1 X29.5 Y85.536 E0.05697
G1 X30.218 Y85.523 E0.08086
G1 X94.472 Y85.521 E2.21796
G1 X140.486 Y85.522 E3.74839
G1 X268.804 Y85.522 E8.01626
G1 X269.611 Y85.533 E8.0431
G1 X270.379 Y85.584 E8.0687
G1 X271.137 Y85.714 E8.09428
G1 X271.877 Y85.922 E8.11985
G1 X272.592 Y86.206 E8.14544
G1 X273.274 Y86.563 E8.17104
G1 X273.914 Y86.988 E8.19659
G1 X274.739 Y87.699 E8.23282
G1 X274.851 Y87.811 E8.23809
G1 X275.365 Y88.383 E8.26366
G1 X275.818 Y89.005 E8.28926
G1 X276.204 Y89.67 E8.31483
G1 X276.519 Y90.372 E8.34042
G1 X276.759 Y91.103 E8.36601
G1 X276.922 Y91.854 E8.39157
G1 X277.013 Y92.774 E8.42232
G1 X277.027 Y93.46 E8.44514
G1 X277.028 Y123.524 E9.44507
G1 X277.017 Y124.361 E9.47292
G1 X276.967 Y125.129 E9.49851
G1 X276.837 Y125.887 E9.52409
G1 X276.629 Y126.628 E9.54969
G1 X276.346 Y127.343 E9.57527
G1 X275.99 Y128.024 E9.60083
G1 X275.565 Y128.665 E9.62641
G1 X274.851 Y129.494 E9.6628
G1 X274.739 Y129.606 E9.66806
G1 X274.167 Y130.12 E9.69364
G1 X273.545 Y130.573 E9.71923
G1 X272.88 Y130.959 E9.74481
G1 X272.178 Y131.274 E9.7704
G1 X271.447 Y131.514 E9.79599
G1 X270.696 Y131.677 E9.82155
G1 X269.756 Y131.769 E9.85296
G1 X269.039 Y131.782 E9.87681
G1 X222.477 Y131.782 E11.42547
G1 X99.235 Y131.782 E15.52452
G1 X32.783 Y131.783 E17.73472
G1 X30.312 Y131.781 E17.81691
G1 X29.689 Y131.772 E17.83763
G1 X28.922 Y131.721 E17.8632
G1 X28.164 Y131.591 E17.88878
G1 X27.423 Y131.382 E17.91438
G1 X26.709 Y131.098 E17.93994
G1 X26.027 Y130.741 E17.96554
G1 X25.495 Y130.395 E17.98665
G1 X25.331 Y130.278 E17.99335
G1 X24.73 Y129.798 E18.01893
G1 X24.182 Y129.259 E18.0445
G1 X23.692 Y128.665 E18.07011
G1 X23.267 Y128.024 E18.09569
G1 X22.911 Y127.343 E18.12125
G1 X22.627 Y126.628 E18.14684
G1 X22.419 Y125.887 E18.17244
G1 X22.289 Y125.129 E18.19802
G1 X22.242 Y124.51 E18.21866
G1 X22.228 Y123.751 E18.24391
G1 X22.229 Y93.618 E19.24614
G1 X22.239 Y92.936 E19.26882
G1 X22.29 Y92.168 E19.29442
G1 X22.421 Y91.41 E19.32001
G1 X22.629 Y90.67 E19.34558
G1 X22.914 Y89.955 E19.37118
G1 X23.27 Y89.274 E19.39673
G1 X23.696 Y88.633 E19.42233
G1 X24.405 Y87.811 E19.45844
G1 X24.517 Y87.699 E19.46371
G1 X25.089 Y87.185 E19.48928
G1 X25.711 Y86.732 E19.51488
G1 X26.376 Y86.346 E19.54045
G1 X27.078 Y86.031 E19.56604
G1 X27.809 Y85.791 E19.59163
G0 F3600 X28.013 Y86.151
G1 F1800 X28.746 Y86.004 E19.6165
G1 X29.514 Y85.936 E19.64214
G1 X30.223 Y85.923 E19.66573
G1 X94.472 Y85.921 E21.80266
G1 X140.486 Y85.922 E23.33309
G1 X268.804 Y85.922 E27.60096
G1 X269.606 Y85.933 E27.62764
G1 X270.352 Y85.983 E27.65251
G1 X271.089 Y86.113 E27.6774
G1 X271.807 Y86.321 E27.70226
G1 X272.5 Y86.604 E27.72716
G1 X273.158 Y86.96 E27.75204
G1 X273.774 Y87.384 E27.77691
G1 X274.456 Y87.982 E27.80708
G1 X274.568 Y88.094 E27.81235
G1 X275.068 Y88.651 E27.83725
G1 X275.505 Y89.257 E27.8621
G1 X275.876 Y89.907 E27.88699
G1 X276.175 Y90.593 E27.91188
G1 X276.399 Y91.307 E27.93677
G1 X276.546 Y92.04 E27.96163
G1 X276.613 Y92.789 E27.98664
G1 X276.627 Y93.465 E28.00913
G1 X276.628 Y123.524 E29.0089
G1 X276.617 Y124.356 E29.03657
G1 X276.567 Y125.102 E29.06144
G1 X276.438 Y125.839 E29.08633
G1 X276.23 Y126.558 E29.11122
G1 X275.948 Y127.25 E29.13607
G1 X275.592 Y127.909 E29.16099
G1 X275.169 Y128.526 E29.18587
G1 X274.568 Y129.211 E29.21618
G1 X274.456 Y129.323 E29.22144
G1 X273.899 Y129.823 E29.24634
G1 X273.293 Y130.26 E29.27119
G1 X272.643 Y130.631 E29.29608
G1 X271.957 Y130.93 E29.32097
G1 X271.243 Y131.154 E29.34586
G1 X270.51 Y131.301 E29.37073
G1 X269.742 Y131.369 E29.39637
G1 X269.035 Y131.382 E29.41989
G1 X222.477 Y131.382 E30.96841
G1 X99.235 Y131.382 E35.06746
G1 X32.783 Y131.383 E37.27766
G1 X30.318 Y131.381 E37.35965
G1 X29.695 Y131.372 E37.38037
G1 X28.949 Y131.322 E37.40524
G1 X28.212 Y131.191 E37.43014
G1 X27.493 Y130.983 E37.45503
G1 X26.801 Y130.7 E37.4799
G1 X26.143 Y130.344 E37.50478
G1 X25.671 Y130.029 E37.52365
G1 X25.564 Y129.952 E37.52804
G1 X24.98 Y129.485 E37.55291
G1 X24.449 Y128.958 E37.57779
G1 X23.977 Y128.378 E37.60266
G1 X23.57 Y127.75 E37.62755
G1 X23.232 Y127.083 E37.65242
G1 X22.968 Y126.383 E37.67731
G1 X22.779 Y125.659 E37.70219
G1 X22.669 Y124.919 E37.72708
G1 X22.637 Y124.348 E37.7461
G1 X22.628 Y123.747 E37.76609
G1 X22.629 Y93.623 E38.76802
G1 X22.639 Y92.941 E38.7907
G1 X22.69 Y92.195 E38.81557
G1 X22.82 Y91.458 E38.84047
G1 X23.028 Y90.74 E38.86533
G1 X23.312 Y90.048 E38.89021
G1 X23.668 Y89.39 E38.91509
G1 X24.092 Y88.773 E38.93999
G1 X24.688 Y88.094 E38.97004
G1 X24.8 Y87.982 E38.97531
G1 X25.357 Y87.482 E39.0002
G1 X25.963 Y87.045 E39.02505
G1 X26.613 Y86.674 E39.04994
G1 X27.299 Y86.375 E39.07483
G1 X28.013 Y86.151 E39.09972
G0 F3600 X28.214 Y86.513
G1 F1800 X28.929 Y86.383 E39.12389
G1 X29.527 Y86.336 E39.14385
G1 X30.228 Y86.322 E39.16717
G1 X94.472 Y86.321 E41.30393
G1 X140.486 Y86.322 E42.83436
G1 X268.804 Y86.322 E47.10224
G1 X269.6 Y86.333 E47.12871
G1 X270.325 Y86.383 E47.15288
G1 X271.039 Y86.513 E47.17702
G1 X271.735 Y86.72 E47.20117
G1 X272.405 Y87.003 E47.22536
G1 X273.039 Y87.357 E47.24951
G1 X273.63 Y87.779 E47.27367
G1 X274.173 Y88.265 E47.29791
G1 X274.285 Y88.377 E47.30317
G1 X274.769 Y88.918 E47.32732
G1 X275.192 Y89.509 E47.35149
G1 X275.546 Y90.143 E47.37564
G1 X275.829 Y90.812 E47.3998
G1 X276.037 Y91.508 E47.42396
G1 X276.167 Y92.223 E47.44813
G1 X276.214 Y92.803 E47.46749
G1 X276.227 Y93.47 E47.48968
G1 X276.228 Y123.524 E48.48928
G1 X276.217 Y124.351 E48.51679
G1 X276.168 Y125.075 E48.54092
G1 X276.038 Y125.79 E48.56509
G1 X275.832 Y126.486 E48.58923
G1 X275.549 Y127.156 E48.61342
G1 X275.195 Y127.79 E48.63758
G1 X274.774 Y128.381 E48.66171
G1 X274.285 Y128.928 E48.68611
G1 X274.173 Y129.04 E48.69138
G1 X273.632 Y129.524 E48.71552
G1 X273.041 Y129.947 E48.7397
G1 X272.407 Y130.301 E48.76385
G1 X271.738 Y130.584 E48.78801
G1 X271.042 Y130.792 E48.81217
G1 X270.327 Y130.922 E48.83634
G1 X269.729 Y130.969 E48.85629
G1 X269.03 Y130.983 E48.87954
G1 X222.477 Y130.982 E50.4279
G1 X99.235 Y130.982 E54.52695
G1 X32.783 Y130.983 E56.73715
G1 X30.324 Y130.981 E56.81894
G1 X29.701 Y130.972 E56.83966
G1 X28.976 Y130.922 E56.86383
G1 X28.261 Y130.792 E56.888
G1 X27.565 Y130.585 E56.91215
G1 X26.896 Y130.302 E56.93631
G1 X26.262 Y129.947 E56.96048
G1 X25.797 Y129.627 E56.97926
G1 X25.23 Y129.172 E57.00344
G1 X24.717 Y128.658 E57.02759
G1 X24.264 Y128.091 E57.05173
G1 X23.875 Y127.477 E57.0759
G1 X23.557 Y126.824 E57.10006
G1 X23.312 Y126.141 E57.12419
G1 X23.143 Y125.434 E57.14837
G1 X23.042 Y124.483 E57.18018
G1 X23.028 Y123.742 E57.20483
G1 X23.029 Y93.629 E58.20639
G1 X23.039 Y92.947 E58.22908
G1 X23.089 Y92.223 E58.25322
G1 X23.219 Y91.508 E58.27739
G1 X23.427 Y90.812 E58.30155
G1 X23.71 Y90.143 E58.32571
G1 X24.064 Y89.509 E58.34986
G1 X24.487 Y88.918 E58.37403
G1 X24.971 Y88.377 E58.39818
G1 X25.083 Y88.265 E58.40344
G1 X25.624 Y87.781 E58.42759
G1 X26.215 Y87.358 E58.45176
G1 X26.849 Y87.004 E58.47591
G1 X27.518 Y86.721 E58.50007
G1 X28.214 Y86.513 E58.52423
G0 F3600 X28.413 Y86.878
G1 F1800 X29.108 Y86.765 E58.54765
G1 X29.689 Y86.731 E58.56701
G1 X30.232 Y86.722 E58.58507
G1 X94.472 Y86.721 E60.7217
G1 X140.486 Y86.722 E62.25213
G1 X268.804 Y86.722 E66.52001
G1 X269.594 Y86.733 E66.54629
G1 X270.297 Y86.783 E66.56973
G1 X270.989 Y86.912 E66.59314
G1 X271.661 Y87.119 E66.61653
G1 X272.307 Y87.401 E66.63997
G1 X272.916 Y87.754 E66.66338
G1 X273.481 Y88.174 E66.6868
G1 X273.89 Y88.548 E66.70523
G1 X274.002 Y88.66 E66.7105
G1 X274.471 Y89.185 E66.73391
G1 X274.877 Y89.76 E66.75733
G1 X275.215 Y90.378 E66.78075
G1 X275.482 Y91.029 E66.80416
G1 X275.672 Y91.707 E66.82758
G1 X275.785 Y92.402 E66.851
G1 X275.819 Y92.955 E66.86942
G1 X275.828 Y93.558 E66.88948
G1 X275.827 Y123.608 E67.88895
G1 X275.817 Y124.345 E67.91346
G1 X275.768 Y125.047 E67.93687
G1 X275.639 Y125.739 E67.96028
G1 X275.433 Y126.413 E67.98372
G1 X275.151 Y127.058 E68.00714
G1 X274.799 Y127.667 E68.03053
G1 X274.379 Y128.232 E68.05395
G1 X274.002 Y128.645 E68.07255
G1 X273.89 Y128.757 E68.07781
G1 X273.365 Y129.226 E68.10123
G1 X272.79 Y129.632 E68.12464
G1 X272.172 Y129.97 E68.14807
G1 X271.521 Y130.237 E68.17147
G1 X270.843 Y130.427 E68.19489
G1 X270.148 Y130.54 E68.21831
G1 X269.567 Y130.574 E68.23767
G1 X269.025 Y130.583 E68.2557
G1 X222.477 Y130.582 E69.80389
G1 X99.235 Y130.582 E73.90293
G1 X32.783 Y130.583 E76.11314
G1 X30.329 Y130.581 E76.19476
G1 X29.706 Y130.572 E76.21548
G1 X29.004 Y130.522 E76.23889
G1 X28.312 Y130.393 E76.2623
G1 X27.639 Y130.186 E76.28572
G1 X26.994 Y129.904 E76.30913
G1 X26.192 Y129.418 E76.34032
G1 X26.03 Y129.302 E76.34695
G1 X25.481 Y128.86 E76.37039
G1 X24.987 Y128.359 E76.39379
G1 X24.552 Y127.806 E76.41719
G1 X24.183 Y127.206 E76.44062
G1 X23.884 Y126.569 E76.46403
G1 X23.659 Y125.902 E76.48744
G1 X23.512 Y125.213 E76.51087
G1 X23.442 Y124.469 E76.53573
G1 X23.428 Y123.738 E76.56004
G1 X23.429 Y93.635 E77.56127
G1 X23.439 Y92.953 E77.58396
G1 X23.489 Y92.251 E77.60737
G1 X23.618 Y91.559 E77.63078
G1 X23.826 Y90.886 E77.65421
G1 X24.108 Y90.241 E77.67762
G1 X24.461 Y89.632 E77.70104
G1 X24.881 Y89.067 E77.72445
G1 X25.254 Y88.66 E77.74281
G1 X25.366 Y88.548 E77.74808
G1 X25.891 Y88.079 E77.77149
G1 X26.466 Y87.673 E77.79491
G1 X27.084 Y87.335 E77.81833
G1 X27.735 Y87.068 E77.84174
G1 X28.413 Y86.878 E77.86516
G0 F3600 X29.828 Y93.122
;TYPE:SUPPORT
G1 F1800 X94.472 Y93.121 E80.01522
G1 X140.486 Y93.122 E81.54566
G1 X269.428 Y93.122 E85.83428
G1 X269.428 Y124.183 E86.86738
G1 X222.477 Y124.182 E88.42897
G1 X99.235 Y124.182 E92.52802
G1 X32.783 Y124.183 E94.73822
G1 X29.828 Y124.182 E94.83651
G1 X29.828 Y93.122 E95.86957
G0 F3600 X47.689 Y116.659
G1 F1800 X46.742 Y118.548 E95.93985
G1 X46.787 Y119.059 E95.95691
G1 X47.457 Y119.956 E95.99415
G1 X47.5 Y120.02 E95.99671
G1 X47.761 Y120.376 E96.01139
G1 X47.773 Y120.384 E96.01187
G1 X47.778 Y120.391 E96.01216
G1 X48.279 Y120.72 E96.03209
G1 X50.308 Y122.067 E96.1131
G1 X50.391 Y122.043 E96.11597
G1 X50.73 Y121.974 E96.12748
G1 X51.143 Y122.1 E96.14184
G1 X51.747 Y122.236 E96.16243
G1 X52.381 Y122.329 E96.18374
G1 X52.772 Y122.359 E96.19679
G1 X53.127 Y122.374 E96.2086
G1 X61.738 Y122.373 E96.49501
G1 X64.386 Y122.236 E96.5832
G1 X66.167 Y120.909 E96.65707
G1 X67.346 Y120.129 E96.70409
G1 X67.546 Y119.704 E96.71971
G1 X67.846 Y119.455 E96.73268
G1 X68.565 Y118.328 E96.77714
G1 X69.418 Y116.745 E96.83695
G1 X69.274 Y116.207 E96.85547
G1 X66.403 Y114.429 E96.96779
G1 X65.857 Y114.54 E96.98632
G1 X64.892 Y115.908 E97.042
G1 X64.455 Y116.405 E97.06401
G1 X64.339 Y116.499 E97.06898
G1 X64.233 Y116.59 E97.07363
G1 X63.952 Y116.822 E97.08575
G1 X63.129 Y117.35 E97.11827
G1 X62.259 Y117.613 E97.1485
G1 X61.794 Y117.7 E97.16423
G1 X61.296 Y117.743 E97.18086
G1 X60.929 Y117.746 E97.19306
G1 X59.391 Y117.746 E97.24422
G1 X57.611 Y115.968 E97.3279
G1 X57.047 Y115.968 E97.34666
G1 X55.267 Y117.746 E97.43033
G1 X53.174 Y117.746 E97.49995
G1 X52.635 Y117.716 E97.5179
G1 X52.135 Y117.624 E97.53481
G1 X51.154 Y117.327 E97.5689
G1 X49.929 Y116.389 E97.62022
G1 X48.125 Y116.389 E97.68022
G1 X47.689 Y116.659 E97.69728
G0 F3600 X128.206 Y109.481
G1 F1800 X128.206 Y113.76 E97.8396
G1 X128.605 Y114.159 E97.85837
G1 X131.327 Y114.159 E97.9489
G1 X131.944 Y113.541 E97.97795
G1 X149.137 Y113.541 E98.54979
G1 X149.829 Y114.234 E98.58236
G1 X150.338 Y114.336 E98.59963
G1 X152.478 Y113.448 E98.67669
G1 X152.766 Y113.017 E98.69393
G1 X152.766 Y109.59 E98.80791
G1 X152.478 Y109.159 E98.82515
G1 X150.338 Y108.271 E98.90221
G1 X149.829 Y108.373 E98.91948
G1 X149.137 Y109.066 E98.95205
G1 X131.944 Y109.066 E99.52389
G1 X131.143 Y108.264 E99.56159
G1 X130.634 Y108.162 E99.57886
G1 X128.494 Y109.05 E99.65592
G1 X128.206 Y109.481 E99.67316
G0 F3600 X207.262 Y110.471
G1 F1800 X207.262 Y111.983 E99.72345
G1 X207.906 Y112.627 E99.75374
G1 X233.635 Y112.627 E100.60949
G1 X234.279 Y111.983 E100.63978
G1 X234.279 Y110.471 E100.69007
G1 X233.635 Y109.827 E100.72037
G1 X207.906 Y109.827 E101.57612
G1 X207.262 Y110.471 E101.60641
G0 F3600 X223.395 Y101.073
G1 F1800 X223.395 Y101.378 E101.61655
G1 X223.577 Y101.819 E101.63242
G1 X226.605 Y104.842 E101.77473
G1 X226.91 Y104.842 E101.78487
G1 X227.351 Y104.66 E101.80074
G1 X229.92 Y102.086 E101.9217
G1 X230.021 Y101.577 E101.93896
G1 X229.133 Y99.439 E102.01596
G1 X228.7 Y99.151 E102.03325
G1 X225.314 Y99.154 E102.14587
G1 X223.395 Y101.073 E102.23614
G1 F1500 E95.73614
G0 F3600 X233.536 Y110.066
G0 X234.04 Y111.884
G0 X223.417 Y120.879
G1 F1500 E102.23614
G1 F1800 X224.305 Y123.018 E102.31317
G1 X224.736 Y123.306 E102.33041
G1 X229.035 Y123.306 E102.47339
G1 X229.466 Y123.018 E102.49063
G1 X230.354 Y120.878 E102.56769
G1 X230.252 Y120.369 E102.58496
G1 X227.166 Y117.283 E102.73012
G1 X226.602 Y117.283 E102.74888
G1 X223.519 Y120.37 E102.89398
G1 X223.417 Y120.879 E102.91125
G0 F3600 X223.66 Y120
G1 F1800 X67.584 Y120 E108.10236
G0 F3600 X68 Y119.51
G1 F1800 X68 Y124.023 E108.25246
G0 F3600 X64 Y124.023
G1 F1800 X64 Y122.416 E108.30591
G0 F3600 X60 Y122.533
G1 F1800 X60 Y124.023 E108.35547
G0 F3600 X56 Y124.023
G1 F1800 X56 Y122.533 E108.40503
G0 F3600 X52 Y122.435
G1 F1800 X52 Y124.023 E108.45784
G0 F3600 X48 Y124.023
G1 F1800 X48 Y120.73 E108.56737
G0 F3600 X47.29 Y120
G1 F1800 X29.987 Y120 E109.14287
G0 F3600 X29.987 Y116
G1 F1800 X56.786 Y116 E110.03421
G0 F3600 X57.869 Y116
G1 F1800 X64.597 Y116 E110.25798
G0 F3600 X64 Y116.576
G1 F1800 X64 Y93.281 E111.03278
G0 F3600 X60 Y93.281
G1 F1800 X60 Y117.586 E111.84116
G0 F3600 X56 Y116.788
G1 F1800 X56 Y93.281 E112.62301
G0 F3600 X52 Y93.281
G1 F1800 X52 Y117.416 E113.42574
G0 F3600 X48 Y116.279
G1 F1800 X48 Y93.281 E114.19066
G0 F3600 X44 Y93.281
G1 F1800 X44 Y124.023 E115.21314
G0 F3600 X40 Y124.023
G1 F1800 X40 Y93.281 E116.23563
G0 F3600 X36 Y93.281
G1 F1800 X36 Y124.023 E117.25811
G0 F3600 X32 Y124.022
G1 F1800 X32 Y93.281 E118.28056
G0 F3600 X29.987 Y96
G1 F1800 X269.268 Y96 E126.23908
G0 F3600 X268 Y93.282
G1 F1800 X268 Y124.022 E127.26149
G0 F3600 X269.268 Y124
G1 F1800 X29.987 Y124 E135.22001
G0 F3600 X29.987 Y112
G1 F1800 X128.046 Y112 E138.48147
G0 F3600 X132 Y113.711
G1 F1800 X132 Y124.022 E138.82441
G0 F3600 X128 Y124.022
G1 F1800 X128 Y93.282 E139.84683
G0 F3600 X124 Y93.282
G1 F1800 X124 Y124.022 E140.86925
G0 F3600 X120 Y124.022
G1 F1800 X120 Y93.282 E141.89166
G0 F3600 X116 Y93.282
G1 F1800 X116 Y124.022 E142.91408
G0 F3600 X112 Y124.022
G1 F1800 X112 Y93.282 E143.9365
G0 F3600 X108 Y93.282
G1 F1800 X108 Y124.022 E144.95891
G0 F3600 X104 Y124.022
G1 F1800 X104 Y93.282 E145.98133
G0 F3600 X100 Y93.282
G1 F1800 X100 Y124.022 E147.00375
G0 F3600 X96 Y124.023
G1 F1800 X96 Y93.282 E148.0262
G0 F3600 X92 Y93.281
G1 F1800 X92 Y124.023 E149.04868
G0 F3600 X88 Y124.023
G1 F1800 X88 Y93.281 E150.07116
G0 F3600 X84 Y93.281
G1 F1800 X84 Y124.023 E151.09364
G0 F3600 X80 Y124.023
G1 F1800 X80 Y93.281 E152.11613
G0 F3600 X76 Y93.281
G1 F1800 X76 Y124.023 E153.13861
G0 F3600 X72 Y124.023
G1 F1800 X72 Y93.281 E154.16109
G0 F3600 X68 Y93.281
G1 F1800 X68 Y115.229 E154.89109
G0 F3600 X69.244 Y116
G1 F1800 X269.268 Y116 E161.54391
G0 F3600 X269.268 Y112
G1 F1800 X234.439 Y112 E162.70233
G1 F1500 E156.20233
G0 F3600 X232 Y112.787
G1 F1500 E162.70233
G1 F1800 X232 Y124.022 E163.07601
G0 F3600 X228 Y124.022
G1 F1800 X228 Y123.466 E163.0945
G0 F3600 X224 Y124.022
G1 F1800 X224 Y122.702 E163.1384
G0 F3600 X224 Y119.662
G1 F1800 X224 Y112.787 E163.36707
G1 F1500 E156.86707
G0 F3600 X233.536 Y112.388
G0 X234.04 Y110.57
G0 X224 Y109.667
G1 F1500 E163.36707
G1 F1800 X224 Y102.469 E163.60647
G0 F3600 X225.536 Y104
G1 F1800 X29.987 Y104 E170.11046
G0 F3600 X29.987 Y100
G1 F1800 X224.24 Y100 E176.57134
G0 F3600 X224 Y100.241
