;FLAVOR:Marlin
;TIME:2308
;Filament used: 2.12976m
;Layer height: 0.2
;MINX:121.9
;MINY:72.1
;MINZ:0.2
;MAXX:175.1
;MAXY:137.9
;MAXZ:12.4
;Generated with Cura_SteamEngine 4.7.0
M104 S205
M105
M109 S205
M82 ;absolute extrusion mode
; -- START GCODE --
M800        ; Custom GCODE to fire start print procedure
; -- end of START GCODE --
G92 E0
G92 E0
G1 F1500 E-6.5
;LAYER_COUNT:62
;LAYER:0
M107
G0 F3600 X128.549 Y76.106 Z0.2
;TYPE:SKIRT
G1 F1500 E0
G1 F1800 X128.95 Y75.449 E0.0256
G1 X129.416 Y74.837 E0.05118
G1 X129.827 Y74.39 E0.07138
G1 X129.94 Y74.277 E0.0767
G1 X130.512 Y73.763 E0.10227
G1 X131.134 Y73.31 E0.12787
G1 X131.799 Y72.924 E0.15344
G1 X132.501 Y72.609 E0.17903
G1 X133.232 Y72.369 E0.20462
G1 X133.983 Y72.206 E0.23018
G1 X134.923 Y72.114 E0.2616
G1 X135.64 Y72.101 E0.28545
G1 X140.738 Y72.1 E0.45501
G1 X141.577 Y72.112 E0.48292
G1 X141.883 Y72.123 E0.4931
G1 X144.547 Y72.274 E0.58185
G1 X147.168 Y72.348 E0.66906
G1 X149.79 Y72.348 E0.75627
G1 X152.398 Y72.274 E0.84304
G1 X154.448 Y72.165 E0.91132
G1 X155.067 Y72.125 E0.93195
G1 X155.618 Y72.106 E0.95029
G1 X156.117 Y72.1 E0.96689
G1 X161.229 Y72.101 E1.13691
G1 X161.931 Y72.111 E1.16027
G1 X162.699 Y72.162 E1.18587
G1 X163.457 Y72.292 E1.21144
G1 X164.197 Y72.5 E1.23701
G1 X164.912 Y72.784 E1.2626
G1 X165.594 Y73.141 E1.2882
G1 X166.234 Y73.566 E1.31375
G1 X166.827 Y74.056 E1.33934
G1 X167.367 Y74.605 E1.36495
G1 X167.805 Y75.145 E1.38808
G1 X168.243 Y75.778 E1.41368
G1 X168.613 Y76.452 E1.43925
G1 X168.911 Y77.161 E1.46483
G1 X169.212 Y78.257 E1.50264
G1 X169.706 Y80.8 E1.5888
G1 X170.272 Y83.336 E1.67522
G1 X170.915 Y85.878 E1.76243
G1 X171.63 Y88.397 E1.84952
G1 X172.424 Y90.925 E1.93765
G1 X173.279 Y93.396 E2.02462
G1 X174.204 Y95.843 E2.11163
G1 X174.333 Y96.164 E2.12314
G1 X174.598 Y96.854 E2.14772
G1 X174.836 Y97.585 E2.17329
G1 X174.997 Y98.337 E2.19887
G1 X175.086 Y99.278 E2.2303
G1 X175.1 Y99.83 E2.24867
G1 X175.099 Y105.886 E2.45009
G1 X175.088 Y106.612 E2.47424
G1 X175.037 Y107.38 E2.49984
G1 X174.906 Y108.137 E2.5254
G1 X174.636 Y109.05 E2.55706
G1 X174.457 Y109.535 E2.57426
G1 X173.775 Y111.306 E2.63738
G1 X172.89 Y113.812 E2.72577
G1 X172.104 Y116.258 E2.81122
G1 X171.361 Y118.811 E2.89966
G1 X170.707 Y121.325 E2.98606
G1 X170.127 Y123.842 E3.07197
G1 X169.605 Y126.447 E3.16033
G1 X169.158 Y129.054 E3.24831
G1 X168.857 Y131.166 E3.31926
G1 X168.799 Y131.533 E3.33162
G1 X168.64 Y132.286 E3.35722
G1 X168.403 Y133.017 E3.38278
G1 X168.092 Y133.721 E3.40838
G1 X167.709 Y134.388 E3.43396
G1 X167.259 Y135.012 E3.45955
G1 X166.723 Y135.611 E3.48628
G1 X166.611 Y135.723 E3.49155
G1 X166.039 Y136.237 E3.51713
G1 X165.417 Y136.69 E3.54272
G1 X164.752 Y137.076 E3.56829
G1 X164.05 Y137.391 E3.59388
G1 X163.319 Y137.631 E3.61947
G1 X162.568 Y137.794 E3.64503
G1 X161.628 Y137.886 E3.67645
G1 X160.911 Y137.899 E3.7003
G1 X136.324 Y137.9 E4.51807
G1 X135.517 Y137.889 E4.54491
G1 X134.749 Y137.838 E4.57051
G1 X133.991 Y137.708 E4.59609
G1 X133.251 Y137.5 E4.62165
G1 X132.536 Y137.216 E4.64724
G1 X131.854 Y136.859 E4.67285
G1 X131.214 Y136.434 E4.6984
G1 X130.621 Y135.944 E4.72398
G1 X130.236 Y135.564 E4.74198
G1 X130.122 Y135.443 E4.74751
G1 X129.624 Y134.857 E4.77308
G1 X129.19 Y134.222 E4.79867
G1 X128.824 Y133.545 E4.82426
G1 X128.531 Y132.835 E4.84981
G1 X128.313 Y132.097 E4.8754
G1 X128.191 Y131.472 E4.89658
G1 X128.046 Y130.506 E4.92907
G1 X127.941 Y129.722 E4.95538
G1 X127.511 Y127.098 E5.04382
G1 X127.022 Y124.56 E5.12979
G1 X126.448 Y121.98 E5.2177
G1 X125.81 Y119.453 E5.30438
G1 X125.099 Y116.937 E5.39134
G1 X124.318 Y114.442 E5.4783
G1 X123.454 Y111.939 E5.56637
G1 X122.712 Y109.95 E5.63697
G1 X122.405 Y109.154 E5.66535
G1 X122.166 Y108.423 E5.69093
G1 X122.004 Y107.671 E5.71652
G1 X121.912 Y106.698 E5.74902
G1 X121.9 Y106.17 E5.76659
G1 X121.901 Y100.092 E5.96874
G1 X121.912 Y99.385 E5.99226
G1 X121.964 Y98.617 E6.01786
G1 X122.095 Y97.86 E6.04341
G1 X122.437 Y96.759 E6.08176
G1 X122.559 Y96.453 E6.09272
G1 X123.5 Y94.011 E6.17976
G1 X124.384 Y91.508 E6.26805
G1 X125.183 Y89.022 E6.3549
G1 X125.913 Y86.511 E6.44187
G1 X126.566 Y84.002 E6.5281
G1 X127.166 Y81.396 E6.61705
G1 X127.683 Y78.82 E6.70443
G1 X127.784 Y78.274 E6.7229
G1 X127.963 Y77.526 E6.74848
G1 X128.219 Y76.8 E6.77409
G1 X128.549 Y76.106 E6.79965
G0 F3600 X128.931 Y76.242
G1 F1800 X129.327 Y75.607 E6.82454
G1 X129.788 Y75.018 E6.84941
G1 X130.223 Y74.56 E6.87042
G1 X130.78 Y74.06 E6.89532
G1 X131.386 Y73.623 E6.92017
G1 X132.036 Y73.252 E6.94506
G1 X132.722 Y72.953 E6.96995
G1 X133.436 Y72.729 E6.99484
G1 X134.169 Y72.582 E7.0197
G1 X134.937 Y72.514 E7.04535
G1 X135.644 Y72.501 E7.06887
G1 X140.738 Y72.5 E7.23829
G1 X141.571 Y72.512 E7.266
G1 X141.861 Y72.522 E7.27565
G1 X144.549 Y72.674 E7.3652
G1 X147.157 Y72.748 E7.45198
G1 X149.801 Y72.748 E7.53992
G1 X152.43 Y72.674 E7.62739
G1 X154.492 Y72.564 E7.69607
G1 X155.092 Y72.525 E7.71607
G1 X155.622 Y72.506 E7.73371
G1 X156.117 Y72.5 E7.75017
G1 X161.224 Y72.501 E7.92003
G1 X161.926 Y72.511 E7.94338
G1 X162.672 Y72.561 E7.96825
G1 X163.409 Y72.691 E7.99314
G1 X164.127 Y72.899 E8.01801
G1 X164.82 Y73.182 E8.0429
G1 X165.478 Y73.538 E8.06779
G1 X166.094 Y73.962 E8.09266
G1 X166.662 Y74.449 E8.11754
G1 X167.367 Y75.232 E8.15259
G1 X167.489 Y75.39 E8.15923
G1 X167.913 Y76.006 E8.1841
G1 X168.27 Y76.663 E8.20897
G1 X168.555 Y77.355 E8.23386
G1 X168.82 Y78.334 E8.26759
G1 X169.315 Y80.885 E8.35402
G1 X169.888 Y83.45 E8.44144
G1 X170.528 Y85.98 E8.52824
G1 X171.249 Y88.521 E8.61609
G1 X172.05 Y91.07 E8.70495
G1 X172.891 Y93.501 E8.79051
G1 X173.839 Y96.008 E8.87966
G1 X173.96 Y96.307 E8.89039
G1 X174.225 Y96.997 E8.91497
G1 X174.455 Y97.709 E8.93986
G1 X174.608 Y98.441 E8.96473
G1 X174.687 Y99.29 E8.99309
G1 X174.7 Y99.83 E9.01105
G1 X174.699 Y105.88 E9.21228
G1 X174.688 Y106.606 E9.23643
G1 X174.637 Y107.352 E9.2613
G1 X174.506 Y108.089 E9.28619
G1 X174.26 Y108.912 E9.31476
G1 X174.083 Y109.392 E9.33178
G1 X173.391 Y111.189 E9.39583
G1 X172.518 Y113.662 E9.48305
G1 X171.717 Y116.154 E9.57011
G1 X170.987 Y118.662 E9.65699
G1 X170.314 Y121.249 E9.7459
G1 X169.733 Y123.772 E9.83201
G1 X169.21 Y126.379 E9.92045
G1 X168.767 Y128.967 E10.00778
G1 X168.462 Y131.104 E10.07957
G1 X168.404 Y131.471 E10.09193
G1 X168.248 Y132.202 E10.11679
G1 X168.015 Y132.913 E10.14168
G1 X167.707 Y133.595 E10.16657
G1 X167.328 Y134.24 E10.19145
G1 X166.883 Y134.841 E10.21632
G1 X166.44 Y135.328 E10.23822
G1 X166.328 Y135.44 E10.24349
G1 X165.771 Y135.94 E10.26838
G1 X165.165 Y136.377 E10.29323
G1 X164.515 Y136.748 E10.31812
G1 X163.829 Y137.047 E10.34301
G1 X163.115 Y137.271 E10.3679
G1 X162.382 Y137.418 E10.39277
G1 X161.614 Y137.486 E10.41841
G1 X160.907 Y137.499 E10.44193
G1 X136.324 Y137.5 E11.25956
G1 X135.522 Y137.489 E11.28624
G1 X134.776 Y137.439 E11.31111
G1 X134.039 Y137.309 E11.336
G1 X133.321 Y137.101 E11.36086
G1 X132.628 Y136.818 E11.38576
G1 X131.97 Y136.462 E11.41064
G1 X131.354 Y136.038 E11.43552
G1 X130.527 Y135.29 E11.4726
G1 X130.413 Y135.169 E11.47813
G1 X129.93 Y134.598 E11.50301
G1 X129.51 Y133.979 E11.52789
G1 X129.16 Y133.318 E11.55276
G1 X128.881 Y132.624 E11.57764
G1 X128.678 Y131.904 E11.60252
G1 X128.586 Y131.413 E11.61914
G1 X128.442 Y130.453 E11.65143
G1 X128.332 Y129.636 E11.67884
G1 X127.912 Y127.07 E11.76533
G1 X127.41 Y124.462 E11.85366
G1 X126.832 Y121.867 E11.94209
G1 X126.197 Y119.351 E12.02839
G1 X125.48 Y116.814 E12.11608
G1 X124.705 Y114.34 E12.20231
G1 X123.836 Y111.818 E12.29103
G1 X123.058 Y109.736 E12.36495
G1 X122.778 Y109.01 E12.39083
G1 X122.546 Y108.299 E12.41571
G1 X122.392 Y107.567 E12.44059
G1 X122.312 Y106.687 E12.46998
G1 X122.3 Y106.17 E12.48718
G1 X122.301 Y100.098 E12.68913
G1 X122.312 Y99.391 E12.71265
G1 X122.363 Y98.645 E12.73752
G1 X122.494 Y97.908 E12.76242
G1 X122.809 Y96.908 E12.79729
G1 X122.901 Y96.677 E12.80556
G1 X123.89 Y94.11 E12.89706
G1 X124.756 Y91.659 E12.98351
G1 X125.562 Y89.152 E13.0711
G1 X126.298 Y86.618 E13.15887
G1 X126.957 Y84.088 E13.24582
G1 X127.554 Y81.493 E13.33439
G1 X128.073 Y78.907 E13.42211
G1 X128.177 Y78.347 E13.44106
G1 X128.353 Y77.619 E13.46597
G1 X128.605 Y76.915 E13.49084
G1 X128.931 Y76.242 E13.51571
G0 F3600 X129.312 Y76.38
G1 F1800 X129.703 Y75.768 E13.53986
G1 X130.393 Y74.956 E13.5753
G1 X130.506 Y74.843 E13.58062
G1 X131.047 Y74.359 E13.60476
G1 X131.638 Y73.936 E13.62894
G1 X132.272 Y73.582 E13.65309
G1 X132.941 Y73.299 E13.67725
G1 X133.637 Y73.091 E13.70141
G1 X134.352 Y72.961 E13.72558
G1 X134.95 Y72.914 E13.74553
G1 X135.649 Y72.9 E13.76878
G1 X140.838 Y72.901 E13.94137
G1 X141.565 Y72.912 E13.96555
G1 X141.838 Y72.922 E13.97464
G1 X144.514 Y73.074 E14.06379
G1 X147.146 Y73.148 E14.15136
G1 X149.812 Y73.148 E14.24003
G1 X152.422 Y73.074 E14.32688
G1 X154.528 Y72.962 E14.39702
G1 X155.118 Y72.924 E14.41669
G1 X155.627 Y72.905 E14.43363
G1 X156.036 Y72.9 E14.44723
G1 X161.218 Y72.901 E14.61959
G1 X161.92 Y72.911 E14.64294
G1 X162.645 Y72.961 E14.66711
G1 X163.359 Y73.091 E14.69125
G1 X164.055 Y73.298 E14.7154
G1 X164.725 Y73.581 E14.73959
G1 X165.359 Y73.935 E14.76374
G1 X165.95 Y74.357 E14.78789
G1 X166.491 Y74.841 E14.81204
G1 X167.05 Y75.476 E14.84017
G1 X167.172 Y75.634 E14.84681
G1 X167.584 Y76.233 E14.87099
G1 X167.927 Y76.873 E14.89515
G1 X168.198 Y77.547 E14.91931
G1 X168.427 Y78.41 E14.949
G1 X168.919 Y80.943 E15.03483
G1 X169.504 Y83.563 E15.12411
G1 X170.141 Y86.082 E15.21053
G1 X170.869 Y88.645 E15.29915
G1 X171.666 Y91.184 E15.38766
G1 X172.511 Y93.625 E15.47358
G1 X173.461 Y96.137 E15.5629
G1 X173.586 Y96.451 E15.57414
G1 X173.851 Y97.141 E15.59873
G1 X174.074 Y97.832 E15.62288
G1 X174.219 Y98.544 E15.64704
G1 X174.287 Y99.303 E15.67239
G1 X174.3 Y99.83 E15.68992
G1 X174.299 Y105.874 E15.89095
G1 X174.288 Y106.6 E15.9151
G1 X174.237 Y107.325 E15.93927
G1 X174.107 Y108.039 E15.96341
G1 X173.885 Y108.774 E15.98894
G1 X173.71 Y109.248 E16.00575
G1 X173.017 Y111.048 E16.0699
G1 X172.147 Y113.512 E16.15681
G1 X171.323 Y116.075 E16.24636
G1 X170.602 Y118.555 E16.33226
G1 X169.923 Y121.164 E16.42192
G1 X169.344 Y123.675 E16.50763
G1 X168.818 Y126.298 E16.59661
G1 X168.37 Y128.915 E16.68492
G1 X168.067 Y131.041 E16.75634
G1 X168.009 Y131.408 E16.7687
G1 X167.856 Y132.118 E16.79286
G1 X167.627 Y132.807 E16.81701
G1 X167.322 Y133.467 E16.84119
G1 X166.948 Y134.089 E16.86533
G1 X166.507 Y134.667 E16.88951
G1 X166.157 Y135.045 E16.90664
G1 X166.045 Y135.157 E16.91191
G1 X165.504 Y135.641 E16.93605
G1 X164.913 Y136.064 E16.96023
G1 X164.279 Y136.418 E16.98438
G1 X163.61 Y136.701 E17.00854
G1 X162.914 Y136.909 E17.0327
G1 X162.199 Y137.039 E17.05687
G1 X161.601 Y137.086 E17.07682
G1 X160.902 Y137.1 E17.10007
G1 X136.23 Y137.099 E17.92067
G1 X135.528 Y137.089 E17.94402
G1 X134.803 Y137.039 E17.96819
G1 X134.089 Y136.909 E17.99233
G1 X133.393 Y136.702 E18.01648
G1 X132.723 Y136.419 E18.04067
G1 X132.089 Y136.065 E18.06482
G1 X131.498 Y135.643 E18.08897
G1 X130.818 Y135.016 E18.11974
G1 X130.704 Y134.895 E18.12527
G1 X130.236 Y134.34 E18.14941
G1 X129.832 Y133.736 E18.17358
G1 X129.496 Y133.092 E18.19774
G1 X129.233 Y132.415 E18.2219
G1 X129.046 Y131.713 E18.24606
G1 X128.982 Y131.353 E18.25822
G1 X128.839 Y130.399 E18.29031
G1 X128.73 Y129.588 E18.31752
G1 X128.306 Y127.001 E18.40472
G1 X127.8 Y124.371 E18.49379
G1 X127.227 Y121.796 E18.58153
G1 X126.581 Y119.241 E18.66919
G1 X125.87 Y116.724 E18.75618
G1 X125.075 Y114.185 E18.84467
G1 X124.209 Y111.674 E18.93301
G1 X123.433 Y109.596 E19.00679
G1 X123.151 Y108.866 E19.03282
G1 X122.927 Y108.175 E19.05698
G1 X122.781 Y107.463 E19.08115
G1 X122.712 Y106.676 E19.10743
G1 X122.7 Y106.17 E19.12426
G1 X122.701 Y100.104 E19.32602
G1 X122.712 Y99.397 E19.34954
G1 X122.763 Y98.673 E19.37368
G1 X122.894 Y97.958 E19.39785
G1 X123.18 Y97.056 E19.42933
G1 X123.283 Y96.798 E19.43857
G1 X124.265 Y94.25 E19.52939
G1 X125.138 Y91.778 E19.61659
G1 X125.941 Y89.28 E19.70386
G1 X126.686 Y86.716 E19.79266
G1 X127.348 Y84.173 E19.88006
G1 X127.943 Y81.59 E19.96822
G1 X128.482 Y78.902 E20.05941
G1 X128.571 Y78.42 E20.07571
G1 X128.742 Y77.714 E20.09987
G1 X128.99 Y77.031 E20.12404
G1 X129.312 Y76.38 E20.14819
G0 F3600 X129.692 Y76.52
G1 F1800 X130.079 Y75.931 E20.17163
G1 X130.676 Y75.239 E20.20203
G1 X130.789 Y75.126 E20.20735
G1 X131.314 Y74.657 E20.23076
G1 X131.889 Y74.251 E20.25417
G1 X132.507 Y73.913 E20.2776
G1 X133.158 Y73.646 E20.301
G1 X133.836 Y73.456 E20.32442
G1 X134.531 Y73.343 E20.34784
G1 X135.112 Y73.309 E20.3672
G1 X135.654 Y73.3 E20.38523
G1 X140.738 Y73.3 E20.55432
G1 X141.559 Y73.312 E20.58163
G1 X141.815 Y73.321 E20.59015
G1 X144.48 Y73.472 E20.67893
G1 X147.169 Y73.548 E20.7684
G1 X149.789 Y73.548 E20.85555
G1 X152.494 Y73.471 E20.94555
G1 X154.503 Y73.364 E21.01246
G1 X155.144 Y73.323 E21.03383
G1 X156.041 Y73.3 E21.06367
G1 X161.212 Y73.301 E21.23566
G1 X161.914 Y73.311 E21.25901
G1 X162.617 Y73.361 E21.28245
G1 X163.309 Y73.49 E21.30586
G1 X163.981 Y73.697 E21.32925
G1 X164.627 Y73.979 E21.3527
G1 X165.236 Y74.332 E21.37611
G1 X165.801 Y74.752 E21.39952
G1 X166.314 Y75.233 E21.42291
G1 X166.733 Y75.721 E21.44431
G1 X166.855 Y75.879 E21.45095
G1 X167.253 Y76.46 E21.47437
G1 X167.583 Y77.082 E21.49779
G1 X167.84 Y77.737 E21.52119
G1 X168.034 Y78.486 E21.54692
G1 X168.529 Y81.034 E21.63326
G1 X169.113 Y83.651 E21.72244
G1 X169.752 Y86.175 E21.80904
G1 X170.478 Y88.736 E21.89757
G1 X171.29 Y91.318 E21.9876
G1 X172.145 Y93.791 E22.07462
G1 X173.086 Y96.281 E22.16316
G1 X173.213 Y96.594 E22.17439
G1 X173.478 Y97.284 E22.19898
G1 X173.693 Y97.955 E22.22241
G1 X173.83 Y98.645 E22.24581
G1 X173.887 Y99.315 E22.26817
G1 X173.9 Y99.83 E22.28531
G1 X173.899 Y105.868 E22.48613
G1 X173.888 Y106.594 E22.51028
G1 X173.838 Y107.296 E22.53369
G1 X173.708 Y107.988 E22.55711
G1 X173.509 Y108.636 E22.57966
G1 X173.337 Y109.104 E22.59624
G1 X172.642 Y110.908 E22.66054
G1 X171.764 Y113.393 E22.7482
G1 X170.944 Y115.946 E22.83738
G1 X170.204 Y118.489 E22.92547
G1 X169.54 Y121.044 E23.01328
G1 X168.958 Y123.567 E23.09939
G1 X168.426 Y126.223 E23.18949
G1 X167.974 Y128.857 E23.27838
G1 X167.672 Y130.979 E23.34966
G1 X167.614 Y131.346 E23.36202
G1 X167.465 Y132.034 E23.38544
G1 X167.239 Y132.7 E23.40883
G1 X166.938 Y133.337 E23.43226
G1 X166.568 Y133.936 E23.45568
G1 X166.132 Y134.488 E23.47907
G1 X165.762 Y134.874 E23.49686
G1 X165.237 Y135.343 E23.52027
G1 X164.662 Y135.749 E23.54368
G1 X164.044 Y136.087 E23.56711
G1 X163.393 Y136.354 E23.59051
G1 X162.715 Y136.544 E23.61393
G1 X162.02 Y136.657 E23.63735
G1 X161.439 Y136.691 E23.65671
G1 X160.897 Y136.7 E23.67474
G1 X136.236 Y136.699 E24.49497
G1 X135.534 Y136.689 E24.51832
G1 X134.831 Y136.639 E24.54176
G1 X134.139 Y136.51 E24.56517
G1 X133.467 Y136.303 E24.58856
G1 X132.821 Y136.021 E24.612
G1 X132.212 Y135.668 E24.63542
G1 X131.647 Y135.248 E24.65883
G1 X131.109 Y134.742 E24.6834
G1 X130.995 Y134.621 E24.68893
G1 X130.542 Y134.082 E24.71234
G1 X130.154 Y133.495 E24.73575
G1 X129.834 Y132.868 E24.75916
G1 X129.587 Y132.208 E24.7826
G1 X129.377 Y131.293 E24.81382
G1 X129.235 Y130.346 E24.84567
G1 X129.127 Y129.542 E24.87265
G1 X128.693 Y126.891 E24.962
G1 X128.198 Y124.321 E25.04905
G1 X127.606 Y121.661 E25.13969
G1 X126.969 Y119.139 E25.2262
G1 X126.254 Y116.61 E25.31361
G1 X125.452 Y114.051 E25.40281
G1 X124.591 Y111.553 E25.49069
G1 X123.831 Y109.518 E25.56294
G1 X123.524 Y108.722 E25.59132
G1 X123.309 Y108.052 E25.61472
G1 X123.17 Y107.362 E25.63813
G1 X123.111 Y106.665 E25.6614
G1 X123.1 Y106.17 E25.67786
G1 X123.101 Y100.111 E25.87939
G1 X123.112 Y99.404 E25.9029
G1 X123.163 Y98.701 E25.92635
G1 X123.293 Y98.01 E25.94973
G1 X123.552 Y97.204 E25.97789
G1 X123.674 Y96.898 E25.98885
G1 X124.628 Y94.422 E26.0771
G1 X125.513 Y91.917 E26.16546
G1 X126.329 Y89.377 E26.2542
G1 X127.071 Y86.824 E26.34262
G1 X127.739 Y84.259 E26.43078
G1 X128.329 Y81.694 E26.51832
G1 X128.874 Y78.98 E26.61039
G1 X128.964 Y78.493 E26.62686
G1 X129.131 Y77.809 E26.65028
G1 X129.375 Y77.148 E26.67372
G1 X129.692 Y76.52 E26.69712
G0 F3600 X135.251 Y79.7
;TYPE:SUPPORT
G1 F1800 X141.362 Y79.7 E26.90037
G1 X141.362 Y98.6 E27.52898
G1 X135.251 Y98.6 E27.73224
