;FLAVOR:Marlin
;TIME:8851
;Filament used: 7.6749m
;Layer height: 0.2
;MINX:44.1
;MINY:73.649
;MINZ:0.2
;MAXX:252.9
;MAXY:136.352
;MAXZ:32
;Generated with Cura_SteamEngine 4.7.0
M104 S205
M105
M109 S205
M82 ;absolute extrusion mode
; -- START GCODE --
M800        ; Custom GCODE to fire start print procedure
; -- end of START GCODE --
G92 E0
G92 E0
G1 F1500 E-6.5
;LAYER_COUNT:160
;LAYER:0
M107
G0 F3600 X47.96 Y83.019 Z0.2
;TYPE:SKIRT
G1 F1500 E0
G1 F1800 X48.644 Y82.668 E0.02557
G1 X49.55 Y82.331 E0.05772
G1 X50.746 Y81.973 E0.09924
G1 X53.352 Y81.154 E0.1901
G1 X55.829 Y80.296 E0.27729
G1 X58.252 Y79.381 E0.36343
G1 X61.69 Y77.949 E0.4873
G1 X62.415 Y77.69 E0.51291
G1 X63.162 Y77.508 E0.53848
G1 X63.924 Y77.405 E0.56406
G1 X64.412 Y77.381 E0.58031
G1 X65.376 Y77.366 E0.61237
G1 X72.509 Y77.367 E0.84962
G1 X73.213 Y77.377 E0.87303
G1 X73.981 Y77.428 E0.89863
G1 X74.739 Y77.558 E0.92421
G1 X75.269 Y77.699 E0.94246
G1 X76.033 Y77.932 E0.96902
G1 X78.654 Y78.694 E1.05981
G1 X81.184 Y79.353 E1.14676
G1 X83.76 Y79.946 E1.23468
G1 X86.293 Y80.454 E1.32061
G1 X88.894 Y80.9 E1.40838
G1 X91.494 Y81.271 E1.49573
G1 X94.07 Y81.564 E1.58196
G1 X96.681 Y81.787 E1.66912
G1 X99.296 Y81.935 E1.75623
G1 X101.94 Y82.011 E1.84421
G1 X103.296 Y82.02 E1.88931
G1 X106.316 Y82.02 E1.98976
G1 X108.971 Y81.982 E2.07807
G1 X111.591 Y81.871 E2.16529
G1 X114.177 Y81.688 E2.25152
G1 X116.814 Y81.426 E2.33966
G1 X119.403 Y81.095 E2.42647
G1 X121.994 Y80.688 E2.5137
G1 X124.562 Y80.211 E2.60057
G1 X127.159 Y79.652 E2.68893
G1 X129.657 Y79.038 E2.77449
G1 X132.194 Y78.34 E2.862
G1 X134.686 Y77.577 E2.94868
G1 X137.178 Y76.736 E3.03616
G1 X140.245 Y75.594 E3.14501
G1 X140.949 Y75.318 E3.17016
G1 X141.679 Y75.075 E3.19575
G1 X142.43 Y74.908 E3.22134
G1 X143.386 Y74.812 E3.2533
G1 X144.063 Y74.797 E3.27582
G1 X144.78 Y74.798 E3.29967
G1 X145.485 Y74.808 E3.32312
G1 X146.252 Y74.859 E3.34869
G1 X147.336 Y75.07 E3.38542
G1 X147.674 Y75.163 E3.39708
G1 X150.216 Y75.823 E3.48443
G1 X152.795 Y76.415 E3.57244
G1 X155.328 Y76.921 E3.65835
G1 X157.912 Y77.363 E3.74554
G1 X160.521 Y77.733 E3.83318
G1 X163.113 Y78.028 E3.91995
G1 X165.747 Y78.25 E4.00787
G1 X168.32 Y78.395 E4.09358
G1 X172.29 Y78.478 E4.22565
G1 X173.457 Y78.478 E4.26447
G1 X176.112 Y78.44 E4.35278
G1 X178.729 Y78.329 E4.4399
G1 X181.32 Y78.146 E4.5263
G1 X183.956 Y77.884 E4.6144
G1 X186.533 Y77.555 E4.70081
G1 X188.827 Y77.199 E4.77802
G1 X189.068 Y77.159 E4.78615
G1 X190.134 Y77.06 E4.82175
G1 X191.04 Y77.042 E4.85189
G1 X191.307 Y77.042 E4.86077
G1 X191.86 Y77.051 E4.87917
G1 X192.885 Y77.139 E4.91339
G1 X194.034 Y77.32 E4.95207
G1 X194.266 Y77.36 E4.9599
G1 X196.871 Y77.737 E5.04745
G1 X199.46 Y78.037 E5.13414
G1 X202.084 Y78.266 E5.22174
G1 X204.663 Y78.417 E5.30767
G1 X207.318 Y78.498 E5.39601
G1 X209.938 Y78.504 E5.48315
G1 X212.525 Y78.436 E5.56923
G1 X215.141 Y78.293 E5.65637
G1 X217.762 Y78.076 E5.74384
G1 X220.393 Y77.783 E5.83189
G1 X222.939 Y77.426 E5.9174
G1 X225.571 Y76.981 E6.00618
G1 X228.097 Y76.48 E6.09183
G1 X230.677 Y75.892 E6.17984
G1 X234.409 Y74.902 E6.30826
G1 X235.335 Y74.637 E6.3403
G1 X235.767 Y74.522 E6.35517
G1 X236.52 Y74.367 E6.38074
G1 X237.466 Y74.284 E6.41232
G1 X238.156 Y74.268 E6.43528
G1 X238.771 Y74.269 E6.45573
G1 X239.538 Y74.315 E6.48129
G1 X240.297 Y74.441 E6.50688
G1 X241.039 Y74.644 E6.53247
G1 X241.756 Y74.923 E6.55805
G1 X242.439 Y75.276 E6.58363
G1 X243.083 Y75.697 E6.60922
G1 X243.679 Y76.183 E6.63479
G1 X244.338 Y76.861 E6.66624
G1 X244.555 Y77.121 E6.67751
G1 X246.154 Y79.129 E6.76288
G1 X247.893 Y81.19 E6.85257
G1 X249.57 Y83.066 E6.93626
G1 X250.38 Y83.924 E6.97551
G1 X250.941 Y84.535 E7.0031
G1 X251.431 Y85.128 E7.02868
G1 X251.857 Y85.769 E7.05428
G1 X252.214 Y86.45 E7.07985
G1 X252.498 Y87.164 E7.10541
G1 X252.707 Y87.905 E7.13102
G1 X252.838 Y88.663 E7.1566
G1 X252.886 Y89.292 E7.17759
G1 X252.899 Y89.953 E7.19957
G1 X252.9 Y119.723 E8.18973
G1 X252.889 Y120.56 E8.21757
G1 X252.839 Y121.327 E8.24313
G1 X252.709 Y122.085 E8.26871
G1 X252.501 Y122.826 E8.29431
G1 X252.218 Y123.541 E8.31989
G1 X251.862 Y124.222 E8.34545
G1 X251.437 Y124.863 E8.37103
G1 X250.909 Y125.498 E8.39849
G1 X250.218 Y126.241 E8.43224
G1 X249.225 Y127.287 E8.48021
G1 X247.501 Y129.207 E8.56604
G1 X245.407 Y131.692 E8.67412
G1 X244.771 Y132.471 E8.70757
G1 X244.254 Y133.041 E8.73316
G1 X243.681 Y133.554 E8.75874
G1 X243.058 Y134.005 E8.78432
G1 X242.392 Y134.389 E8.80989
G1 X241.689 Y134.702 E8.83549
G1 X240.957 Y134.939 E8.86108
G1 X240.205 Y135.1 E8.88666
G1 X239.489 Y135.179 E8.91062
G1 X239.08 Y135.195 E8.92423
G1 X238.519 Y135.202 E8.94289
G1 X238.319 Y135.202 E8.94954
G1 X237.636 Y135.192 E8.97226
G1 X236.868 Y135.141 E8.99786
G1 X236.11 Y135.01 E9.02345
G1 X235.579 Y134.869 E9.04172
G1 X234.283 Y134.472 E9.0868
G1 X233.989 Y134.378 E9.09707
G1 X231.447 Y133.641 E9.1851
G1 X228.902 Y132.981 E9.27254
G1 X226.353 Y132.395 E9.35954
G1 X223.832 Y131.889 E9.44506
G1 X221.238 Y131.447 E9.53258
G1 X218.606 Y131.073 E9.621
G1 X216.04 Y130.784 E9.70688
G1 X213.388 Y130.56 E9.7954
G1 X210.798 Y130.414 E9.88168
G1 X208.183 Y130.342 E9.96869
G1 X205.562 Y130.344 E10.05587
G1 X202.934 Y130.42 E10.14331
G1 X200.329 Y130.569 E10.23009
G1 X197.705 Y130.794 E10.31769
G1 X195.112 Y131.09 E10.40449
G1 X193.333 Y131.335 E10.46422
G1 X192.702 Y131.429 E10.48544
G1 X191.872 Y131.505 E10.51316
G1 X191.165 Y131.52 E10.53668
G1 X174.166 Y131.52 E11.10207
G1 X171.511 Y131.558 E11.19039
G1 X168.891 Y131.669 E11.2776
G1 X166.305 Y131.852 E11.36383
G1 X163.668 Y132.114 E11.45197
G1 X161.079 Y132.445 E11.53878
G1 X158.488 Y132.852 E11.62601
G1 X155.92 Y133.329 E11.71289
G1 X153.323 Y133.888 E11.80124
G1 X150.807 Y134.507 E11.88742
G1 X148.109 Y135.251 E11.98051
G1 X146.884 Y135.608 E12.02294
G1 X146.136 Y135.785 E12.04851
G1 X145.056 Y135.9 E12.08463
G1 X144.509 Y135.914 E12.10283
G1 X144.326 Y135.913 E12.10892
G1 X143.622 Y135.903 E12.13234
G1 X142.854 Y135.852 E12.15794
G1 X142.096 Y135.722 E12.18352
G1 X141.356 Y135.514 E12.20908
G1 X140.973 Y135.373 E12.22266
G1 X140.075 Y135.013 E12.25484
G1 X139.523 Y134.782 E12.27474
G1 X137.071 Y133.832 E12.3622
G1 X134.588 Y132.951 E12.44983
G1 X132.114 Y132.15 E12.53632
G1 X129.598 Y131.414 E12.62351
G1 X127.075 Y130.753 E12.71026
G1 X124.569 Y130.171 E12.79582
G1 X121.938 Y129.637 E12.88512
G1 X119.357 Y129.191 E12.97223
G1 X116.76 Y128.816 E13.05951
G1 X114.177 Y128.519 E13.14598
G1 X111.586 Y128.293 E13.23249
G1 X108.944 Y128.14 E13.32051
G1 X106.319 Y128.061 E13.40785
G1 X103.698 Y128.056 E13.49503
G1 X101.112 Y128.125 E13.58107
G1 X98.485 Y128.269 E13.66858
G1 X95.857 Y128.487 E13.75628
G1 X93.268 Y128.777 E13.84293
G1 X90.662 Y129.144 E13.93046
G1 X88.106 Y129.577 E14.01669
G1 X85.523 Y130.09 E14.10428
G1 X82.924 Y130.685 E14.19296
G1 X80.417 Y131.333 E14.27908
G1 X77.923 Y132.053 E14.36542
G1 X75.45 Y132.841 E14.45175
G1 X75.151 Y132.941 E14.46223
G1 X74.41 Y133.147 E14.48781
G1 X73.652 Y133.275 E14.51338
G1 X73.099 Y133.317 E14.53183
G1 X72.299 Y133.332 E14.55844
G1 X65.255 Y133.333 E14.79272
G1 X64.448 Y133.322 E14.81957
G1 X63.68 Y133.271 E14.84517
G1 X62.922 Y133.141 E14.87075
G1 X62.182 Y132.933 E14.89631
G1 X61.42 Y132.627 E14.92362
G1 X60.936 Y132.4 E14.9414
G1 X59.193 Y131.553 E15.00586
G1 X56.847 Y130.495 E15.09145
G1 X54.467 Y129.499 E15.17727
G1 X51.964 Y128.536 E15.26647
G1 X49.454 Y127.65 E15.355
G1 X49.233 Y127.575 E15.36276
G1 X48.518 Y127.289 E15.38837
G1 X47.838 Y126.93 E15.41395
G1 X47.198 Y126.503 E15.43954
G1 X46.389 Y125.804 E15.4751
G1 X46.277 Y125.692 E15.48036
G1 X45.763 Y125.12 E15.50594
G1 X45.31 Y124.498 E15.53153
G1 X44.924 Y123.833 E15.55711
G1 X44.609 Y123.131 E15.5827
G1 X44.369 Y122.4 E15.60829
G1 X44.206 Y121.649 E15.63385
G1 X44.114 Y120.709 E15.66526
G1 X44.1 Y119.95 E15.69051
G1 X44.101 Y90.163 E16.68123
G1 X44.111 Y89.461 E16.70458
G1 X44.162 Y88.693 E16.73018
G1 X44.292 Y87.935 E16.75576
G1 X44.5 Y87.195 E16.78133
G1 X44.784 Y86.48 E16.80692
G1 X45.141 Y85.798 E16.83252
G1 X45.566 Y85.158 E16.85807
G1 X46.056 Y84.565 E16.88366
G1 X46.556 Y84.069 E16.90708
G1 X46.718 Y83.923 E16.91434
G1 X47.315 Y83.438 E16.93992
G1 X47.96 Y83.019 E16.9655
G0 F3600 X48.196 Y83.344
G1 F1800 X48.864 Y83.008 E16.99037
G1 X49.665 Y82.714 E17.01875
G1 X50.897 Y82.345 E17.06153
G1 X53.466 Y81.538 E17.15109
G1 X55.953 Y80.677 E17.23862
G1 X58.403 Y79.751 E17.32574
G1 X61.844 Y78.318 E17.44971
G1 X62.549 Y78.068 E17.47459
G1 X63.277 Y77.894 E17.49949
G1 X64.019 Y77.799 E17.52437
G1 X64.418 Y77.781 E17.53765
G1 X65.376 Y77.766 E17.56952
G1 X72.503 Y77.767 E17.80656
G1 X73.207 Y77.777 E17.82998
G1 X73.954 Y77.827 E17.85488
G1 X74.69 Y77.957 E17.87974
G1 X75.152 Y78.081 E17.89565
G1 X76.002 Y78.341 E17.92521
G1 X78.514 Y79.071 E18.01222
G1 X81.099 Y79.744 E18.10106
G1 X83.656 Y80.333 E18.18834
G1 X86.253 Y80.854 E18.27643
G1 X88.807 Y81.292 E18.36262
G1 X91.429 Y81.666 E18.45071
G1 X94.028 Y81.962 E18.53771
G1 X96.66 Y82.186 E18.62557
G1 X99.298 Y82.335 E18.71345
G1 X101.925 Y82.41 E18.80086
G1 X103.293 Y82.42 E18.84636
G1 X106.322 Y82.42 E18.94711
G1 X108.959 Y82.383 E19.03482
G1 X111.635 Y82.269 E19.12391
G1 X114.208 Y82.087 E19.2097
G1 X116.871 Y81.823 E19.29871
G1 X119.445 Y81.493 E19.38502
G1 X122.057 Y81.083 E19.47296
G1 X124.647 Y80.601 E19.56058
G1 X127.234 Y80.045 E19.64859
G1 X129.787 Y79.417 E19.73603
G1 X132.312 Y78.723 E19.82313
G1 X134.794 Y77.963 E19.90946
G1 X137.309 Y77.114 E19.99775
G1 X140.372 Y75.974 E20.10645
G1 X141.095 Y75.69 E20.13229
G1 X141.805 Y75.455 E20.15716
G1 X142.536 Y75.296 E20.18205
G1 X143.4 Y75.212 E20.21092
G1 X144.067 Y75.197 E20.23311
G1 X144.774 Y75.198 E20.25662
G1 X145.479 Y75.208 E20.28007
G1 X146.226 Y75.258 E20.30497
G1 X147.23 Y75.456 E20.33901
G1 X147.547 Y75.543 E20.34994
G1 X150.097 Y76.205 E20.43757
G1 X152.725 Y76.808 E20.52725
G1 X155.26 Y77.315 E20.61323
G1 X157.854 Y77.759 E20.70076
G1 X160.491 Y78.133 E20.78935
G1 X163.071 Y78.426 E20.87571
G1 X165.691 Y78.647 E20.96316
G1 X168.316 Y78.795 E21.05061
G1 X172.282 Y78.878 E21.18255
G1 X173.463 Y78.878 E21.22183
G1 X176.099 Y78.841 E21.30951
G1 X178.776 Y78.727 E21.39863
G1 X181.352 Y78.544 E21.48452
G1 X184.006 Y78.281 E21.57323
G1 X186.609 Y77.948 E21.66051
G1 X188.873 Y77.597 E21.73671
G1 X189.134 Y77.554 E21.74551
G1 X190.142 Y77.46 E21.77918
G1 X191.048 Y77.442 E21.80932
G1 X191.301 Y77.442 E21.81773
G1 X191.854 Y77.451 E21.83613
G1 X192.823 Y77.534 E21.86848
G1 X193.845 Y77.694 E21.90288
G1 X194.211 Y77.757 E21.91523
G1 X196.8 Y78.132 E22.00224
G1 X199.45 Y78.438 E22.09097
G1 X202.024 Y78.663 E22.17691
G1 X204.663 Y78.818 E22.26483
G1 X207.305 Y78.898 E22.35274
G1 X209.913 Y78.904 E22.43949
G1 X212.557 Y78.835 E22.52746
G1 X215.196 Y78.691 E22.61536
G1 X217.803 Y78.474 E22.70237
G1 X220.426 Y78.182 E22.79015
G1 X223.025 Y77.818 E22.87744
G1 X225.61 Y77.381 E22.96463
G1 X228.192 Y76.868 E23.05219
G1 X230.785 Y76.277 E23.14065
G1 X234.512 Y75.289 E23.26889
G1 X235.445 Y75.022 E23.30117
G1 X235.868 Y74.909 E23.31573
G1 X236.601 Y74.759 E23.34061
G1 X237.476 Y74.684 E23.36982
G1 X238.166 Y74.668 E23.39278
G1 X238.768 Y74.669 E23.4128
G1 X239.514 Y74.715 E23.43766
G1 X240.252 Y74.84 E23.46256
G1 X240.972 Y75.043 E23.48744
G1 X241.666 Y75.322 E23.51231
G1 X242.326 Y75.674 E23.53719
G1 X242.945 Y76.093 E23.56205
G1 X243.516 Y76.577 E23.58695
G1 X244.034 Y77.121 E23.61193
G1 X244.242 Y77.371 E23.62275
G1 X245.837 Y79.374 E23.70791
G1 X247.572 Y81.431 E23.79742
G1 X249.281 Y83.343 E23.88271
G1 X250.016 Y84.12 E23.91828
G1 X250.646 Y84.806 E23.94926
G1 X251.122 Y85.383 E23.97414
G1 X251.533 Y86.008 E23.99902
G1 X251.876 Y86.673 E24.02391
G1 X252.145 Y87.371 E24.04879
G1 X252.339 Y88.093 E24.07365
G1 X252.454 Y88.832 E24.09853
G1 X252.491 Y89.454 E24.11925
G1 X252.5 Y90.054 E24.13921
G1 X252.499 Y119.818 E25.12916
G1 X252.489 Y120.554 E25.15365
G1 X252.439 Y121.3 E25.17851
G1 X252.31 Y122.037 E25.2034
G1 X252.102 Y122.756 E25.22829
G1 X251.82 Y123.449 E25.25318
G1 X251.464 Y124.107 E25.27806
G1 X251.041 Y124.724 E25.30294
G1 X250.616 Y125.226 E25.32482
G1 X249.928 Y125.965 E25.3584
G1 X248.936 Y127.009 E25.4063
G1 X247.189 Y128.956 E25.49331
G1 X245.103 Y131.431 E25.60096
G1 X244.461 Y132.218 E25.63474
G1 X243.958 Y132.772 E25.65963
G1 X243.398 Y133.268 E25.68451
G1 X242.789 Y133.703 E25.7094
G1 X242.137 Y134.069 E25.73427
G1 X241.449 Y134.364 E25.75917
G1 X240.734 Y134.584 E25.78405
G1 X240 Y134.726 E25.80892
G1 X239.465 Y134.78 E25.8268
G1 X239.075 Y134.795 E25.83978
G1 X238.514 Y134.802 E25.85844
G1 X238.325 Y134.802 E25.86473
G1 X237.642 Y134.792 E25.88745
G1 X236.895 Y134.741 E25.91235
G1 X236.159 Y134.611 E25.93721
G1 X235.696 Y134.487 E25.95315
G1 X234.405 Y134.091 E25.99807
G1 X234.075 Y133.985 E26.00959
G1 X231.562 Y133.257 E26.09661
G1 X229.012 Y132.595 E26.18424
G1 X226.45 Y132.007 E26.27167
G1 X223.913 Y131.498 E26.35773
G1 X221.29 Y131.05 E26.44623
G1 X218.67 Y130.679 E26.53424
G1 X216.047 Y130.383 E26.62204
G1 X213.444 Y130.163 E26.70892
G1 X210.797 Y130.014 E26.7971
G1 X208.194 Y129.942 E26.88371
G1 X205.55 Y129.944 E26.97165
G1 X202.935 Y130.02 E27.05866
G1 X200.273 Y130.172 E27.14735
G1 X197.694 Y130.393 E27.23344
G1 X195.019 Y130.699 E27.32299
G1 X193.304 Y130.935 E27.38057
G1 X192.643 Y131.033 E27.40279
G1 X191.858 Y131.105 E27.42901
G1 X191.161 Y131.12 E27.4522
G1 X174.16 Y131.12 E28.01766
G1 X171.523 Y131.157 E28.10537
G1 X168.847 Y131.271 E28.19446
G1 X166.274 Y131.453 E28.28025
G1 X163.611 Y131.717 E28.36925
G1 X161.037 Y132.047 E28.45557
G1 X158.425 Y132.457 E28.54351
G1 X155.835 Y132.939 E28.63113
G1 X153.248 Y133.495 E28.71914
G1 X150.711 Y134.119 E28.80603
G1 X147.956 Y134.879 E28.90109
G1 X146.772 Y135.224 E28.94211
G1 X146.044 Y135.395 E28.96698
G1 X145.043 Y135.5 E29.00045
G1 X144.509 Y135.514 E29.01822
G1 X144.332 Y135.513 E29.02411
G1 X143.628 Y135.503 E29.04753
G1 X142.881 Y135.453 E29.07243
G1 X142.145 Y135.323 E29.09728
G1 X141.122 Y135.001 E29.13296
G1 X140.117 Y134.597 E29.16898
G1 X139.674 Y134.411 E29.18496
G1 X137.213 Y133.458 E29.27274
G1 X134.74 Y132.581 E29.36001
G1 X132.212 Y131.762 E29.44839
G1 X129.707 Y131.029 E29.5352
G1 X127.153 Y130.36 E29.62302
G1 X124.64 Y129.776 E29.70883
G1 X122.042 Y129.249 E29.797
G1 X119.412 Y128.795 E29.88576
G1 X116.835 Y128.423 E29.97236
G1 X114.22 Y128.121 E30.05992
G1 X111.573 Y127.891 E30.14829
G1 X108.979 Y127.74 E30.23471
G1 X106.332 Y127.661 E30.32279
G1 X103.724 Y127.656 E30.40953
G1 X101.044 Y127.727 E30.4987
G1 X98.466 Y127.869 E30.58457
G1 X95.816 Y128.089 E30.67302
G1 X93.24 Y128.378 E30.75923
G1 X90.606 Y128.748 E30.8477
G1 X87.999 Y129.189 E30.93564
G1 X85.462 Y129.694 E31.02168
G1 X82.806 Y130.301 E31.11229
G1 X80.344 Y130.938 E31.19688
G1 X77.806 Y131.671 E31.28474
G1 X75.355 Y132.452 E31.3703
G1 X75.025 Y132.562 E31.38187
G1 X74.303 Y132.761 E31.40678
G1 X73.565 Y132.882 E31.43165
G1 X72.982 Y132.922 E31.45109
G1 X72.209 Y132.933 E31.4768
G1 X65.155 Y132.932 E31.71142
G1 X64.453 Y132.922 E31.73477
G1 X63.707 Y132.872 E31.75964
G1 X62.97 Y132.742 E31.78453
G1 X62.252 Y132.534 E31.80939
G1 X61.589 Y132.265 E31.83319
G1 X61.11 Y132.04 E31.85079
G1 X59.389 Y131.204 E31.91443
G1 X56.974 Y130.114 E32.00255
G1 X54.623 Y129.131 E32.08731
G1 X52.073 Y128.149 E32.17819
G1 X49.617 Y127.283 E32.26481
G1 X49.362 Y127.196 E32.27377
G1 X48.668 Y126.917 E32.29865
G1 X48.007 Y126.565 E32.32356
G1 X47.388 Y126.146 E32.34842
G1 X46.672 Y125.521 E32.38003
G1 X46.56 Y125.409 E32.3853
G1 X46.06 Y124.852 E32.41019
G1 X45.623 Y124.246 E32.43504
G1 X45.252 Y123.596 E32.45993
G1 X44.953 Y122.91 E32.48482
G1 X44.729 Y122.196 E32.50971
G1 X44.582 Y121.463 E32.53458
G1 X44.514 Y120.695 E32.56022
G1 X44.5 Y119.946 E32.58514
G1 X44.501 Y90.168 E33.57556
G1 X44.511 Y89.466 E33.59891
G1 X44.561 Y88.72 E33.62378
G1 X44.691 Y87.983 E33.64867
G1 X44.899 Y87.265 E33.67353
G1 X45.182 Y86.572 E33.69843
G1 X45.538 Y85.914 E33.72331
G1 X45.962 Y85.298 E33.74818
G1 X46.449 Y84.73 E33.77307
G1 X46.824 Y84.366 E33.79045
G1 X46.986 Y84.22 E33.7977
G1 X47.567 Y83.75 E33.82256
G1 X48.196 Y83.344 E33.84746
G0 F3600 X48.431 Y83.67
G1 F1800 X49.083 Y83.349 E33.87163
